
(Makerbot Industries)
(This file contains digital fabrication directives in gcode format)
(For your 3D printer)
(http://wiki.makerbot.com/gcode)
(* Generated by Miracle-Grue v 0.04 alpha)
(* 2012-6-11 13:12:13)
(* machine name: Dub dub dub)
(* firmware revision:unknown)
(* /home/farmckon/dev_makerbot/TestFiles/stl/baseline_tests/20mmbox.stl)
(* 1 extruder)
(* Extrude infills: 1)
(* first operation: Insets)
(* Extrude insets: 1)
(* Extrude outlines: 0)

G21 (set units to mm)
G90 (absolute positioning mode)

(setup extruder)
M103 T0 (Make sure motor for extruder 0 is stopped)
M104 S220.000 T0 (set temperature of extruder 0 to 220.000 degrees Celsius)


M109 S100.000 T0 (heat the build-platform to 100.000 Celsius)


(go to home position)
G162 X Y F6000.000 (home XY axes maximum)
G161 Z F1400.000 (home Z axis minimum)
G92 Z5 (set Z to 5)
G1 Z0.0 (move Z down 0)
G161 Z F100.000 (home Z axis minimum)
M132 X Y Z A B (Recall stored home offsets for XYZAB axis)

G92 A0
G1 X52.000 Y-57.000 Z1.000 F6000.000 (go to waiting position)

M6 T0 (wait for tool 0 to reach temperature)
(note: the heated build platform temperature is tied to tool 0 for now)

(Create Anchor)
G1 Z0.6 F300    (Position Height)
M108 R4.0   (Set Extruder Speed)
M101        (Start Extruder)
G4 P1600
G1 X52.000 Y-57.000 Z0.600 F6000.000
G1 X49.000 Y-57.000 Z0.600 F600.000
M103 (Stop extruder)

G1 F798.000 A0.500 (squirt)
G1 X-9.784 Y-9.784 Z0.600 F1800.000 A3.411 (Extrude into position)
(Slice 0, 1 Extruder)
G1 Z0.330 F500.000 (move Z)
(   Extruder 0)
( extruder 0 )
( GSWITCH T0 )
( TODO: add offset management to Gantry )

(inset 0/2 )
(  path 0/1, 5 points,  )
G1 X-9.784 Y-9.784 Z0.330 F6000.000 A3.411 (move into position)
G1 F798.000 A3.911 (squirt)
G1 X-9.784 Y9.784 Z0.330 F1800.000 A4.667 (d: 19.568)
G1 X9.784 Y9.784 Z0.330 F1800.000 A5.423 (d: 27.6733)
G1 X9.784 Y-9.784 Z0.330 F1800.000 A6.178 (d: 19.568)
G1 X-9.784 Y-9.784 Z0.330 F1800.000 A6.934 (d: 0)
G1 F798.000 A6.434 (snort)

(inset 1/2 )
(  path 0/1, 5 points,  )
G1 X-9.397 Y-9.397 Z0.330 F6000.000 (move into position)
G1 F798.000 A6.934 (squirt)
G1 X-9.397 Y9.397 Z0.330 F1800.000 A7.659 (d: 18.794)
G1 X9.397 Y9.397 Z0.330 F1800.000 A8.385 (d: 26.5787)
G1 X9.397 Y-9.397 Z0.330 F1800.000 A9.111 (d: 18.794)
G1 X-9.397 Y-9.397 Z0.330 F1800.000 A9.837 (d: 0)
G1 F798.000 A9.337 (snort)

(infills: 1)
(  path 0/1, 92 points,  )
G1 X-9.397 Y-8.775 Z0.330 F6000.000 (move into position)
G1 F798.000 A9.837 (squirt)
G1 X9.397 Y-8.775 Z0.330 F1800.000 A10.562 (d: 18.794)
G1 X9.397 Y-9.183 Z0.330 F1800.000 A10.578 (d: 18.7984)
G1 X-9.397 Y-9.183 Z0.330 F1800.000 A11.304 (d: 0.4085)
G1 X-9.397 Y-8.366 Z0.330 F1800.000 A11.335 (d: 0.4085)
G1 X9.397 Y-8.366 Z0.330 F1800.000 A12.061 (d: 18.7984)
G1 X9.397 Y-7.958 Z0.330 F1800.000 A12.077 (d: 18.8117)
G1 X-9.397 Y-7.958 Z0.330 F1800.000 A12.803 (d: 0.817)
G1 X-9.397 Y-7.549 Z0.330 F1800.000 A12.818 (d: 1.2255)
G1 X9.397 Y-7.549 Z0.330 F1800.000 A13.544 (d: 18.8339)
G1 X9.397 Y-7.141 Z0.330 F1800.000 A13.560 (d: 18.8649)
G1 X-9.397 Y-7.141 Z0.330 F1800.000 A14.285 (d: 1.634)
G1 X-9.397 Y-6.732 Z0.330 F1800.000 A14.301 (d: 2.0425)
G1 X9.397 Y-6.732 Z0.330 F1800.000 A15.027 (d: 18.9047)
G1 X9.397 Y-6.324 Z0.330 F1800.000 A15.043 (d: 18.9531)
G1 X-9.397 Y-6.324 Z0.330 F1800.000 A15.768 (d: 2.451)
G1 X-9.397 Y-5.915 Z0.330 F1800.000 A15.784 (d: 2.8595)
G1 X9.397 Y-5.915 Z0.330 F1800.000 A16.510 (d: 19.0103)
G1 X9.397 Y-5.507 Z0.330 F1800.000 A16.526 (d: 19.076)
G1 X-9.397 Y-5.507 Z0.330 F1800.000 A17.251 (d: 3.268)
G1 X-9.397 Y-5.098 Z0.330 F1800.000 A17.267 (d: 3.6765)
G1 X9.397 Y-5.098 Z0.330 F1800.000 A17.993 (d: 19.1502)
G1 X9.397 Y-4.690 Z0.330 F1800.000 A18.009 (d: 19.2328)
G1 X-9.397 Y-4.690 Z0.330 F1800.000 A18.734 (d: 4.085)
G1 X-9.397 Y-4.281 Z0.330 F1800.000 A18.750 (d: 4.4935)
G1 X9.397 Y-4.281 Z0.330 F1800.000 A19.476 (d: 19.3237)
G1 X9.397 Y-3.873 Z0.330 F1800.000 A19.492 (d: 19.4228)
G1 X-9.397 Y-3.873 Z0.330 F1800.000 A20.217 (d: 4.902)
G1 X-9.397 Y-3.464 Z0.330 F1800.000 A20.233 (d: 5.3105)
G1 X9.397 Y-3.464 Z0.330 F1800.000 A20.959 (d: 19.5299)
G1 X9.397 Y-3.056 Z0.330 F1800.000 A20.975 (d: 19.6449)
G1 X-9.397 Y-3.056 Z0.330 F1800.000 A21.700 (d: 5.719)
G1 X-9.397 Y-2.647 Z0.330 F1800.000 A21.716 (d: 6.1275)
G1 X9.397 Y-2.647 Z0.330 F1800.000 A22.442 (d: 19.7677)
G1 X9.397 Y-2.239 Z0.330 F1800.000 A22.458 (d: 19.8981)
G1 X-9.397 Y-2.239 Z0.330 F1800.000 A23.183 (d: 6.536)
G1 X-9.397 Y-1.830 Z0.330 F1800.000 A23.199 (d: 6.9445)
G1 X9.397 Y-1.830 Z0.330 F1800.000 A23.925 (d: 20.036)
G1 X9.397 Y-1.422 Z0.330 F1800.000 A23.940 (d: 20.1812)
G1 X-9.397 Y-1.422 Z0.330 F1800.000 A24.666 (d: 7.353)
G1 X-9.397 Y-1.013 Z0.330 F1800.000 A24.682 (d: 7.7615)
G1 X9.397 Y-1.013 Z0.330 F1800.000 A25.408 (d: 20.3336)
G1 X9.397 Y-0.605 Z0.330 F1800.000 A25.423 (d: 20.493)
G1 X-9.397 Y-0.605 Z0.330 F1800.000 A26.149 (d: 8.17)
G1 X-9.397 Y-0.196 Z0.330 F1800.000 A26.165 (d: 8.5785)
G1 X9.397 Y-0.196 Z0.330 F1800.000 A26.891 (d: 20.6593)
G1 X9.397 Y0.212 Z0.330 F1800.000 A26.906 (d: 20.8322)
G1 X-9.397 Y0.212 Z0.330 F1800.000 A27.632 (d: 8.987)
G1 X-9.397 Y0.621 Z0.330 F1800.000 A27.648 (d: 9.3955)
G1 X9.397 Y0.621 Z0.330 F1800.000 A28.374 (d: 21.0117)
G1 X9.397 Y1.029 Z0.330 F1800.000 A28.389 (d: 21.1975)
G1 X-9.397 Y1.029 Z0.330 F1800.000 A29.115 (d: 9.804)
G1 X-9.397 Y1.438 Z0.330 F1800.000 A29.131 (d: 10.2125)
G1 X9.397 Y1.438 Z0.330 F1800.000 A29.857 (d: 21.3895)
G1 X9.397 Y1.846 Z0.330 F1800.000 A29.872 (d: 21.5875)
G1 X-9.397 Y1.846 Z0.330 F1800.000 A30.598 (d: 10.621)
G1 X-9.397 Y2.255 Z0.330 F1800.000 A30.614 (d: 11.0295)
G1 X9.397 Y2.255 Z0.330 F1800.000 A31.339 (d: 21.7914)
G1 X9.397 Y2.663 Z0.330 F1800.000 A31.355 (d: 22.001)
G1 X-9.397 Y2.663 Z0.330 F1800.000 A32.081 (d: 11.438)
G1 X-9.397 Y3.072 Z0.330 F1800.000 A32.097 (d: 11.8465)
G1 X9.397 Y3.072 Z0.330 F1800.000 A32.822 (d: 22.2161)
G1 X9.397 Y3.480 Z0.330 F1800.000 A32.838 (d: 22.4366)
G1 X-9.397 Y3.480 Z0.330 F1800.000 A33.564 (d: 12.255)
G1 X-9.397 Y3.889 Z0.330 F1800.000 A33.580 (d: 12.6635)
G1 X9.397 Y3.889 Z0.330 F1800.000 A34.305 (d: 22.6623)
G1 X9.397 Y4.297 Z0.330 F1800.000 A34.321 (d: 22.893)
G1 X-9.397 Y4.297 Z0.330 F1800.000 A35.047 (d: 13.072)
G1 X-9.397 Y4.706 Z0.330 F1800.000 A35.063 (d: 13.4805)
G1 X9.397 Y4.706 Z0.330 F1800.000 A35.788 (d: 23.1287)
G1 X9.397 Y5.114 Z0.330 F1800.000 A35.804 (d: 23.3692)
G1 X-9.397 Y5.114 Z0.330 F1800.000 A36.530 (d: 13.889)
G1 X-9.397 Y5.523 Z0.330 F1800.000 A36.546 (d: 14.2975)
G1 X9.397 Y5.523 Z0.330 F1800.000 A37.271 (d: 23.6143)
G1 X9.397 Y5.931 Z0.330 F1800.000 A37.287 (d: 23.8638)
G1 X-9.397 Y5.931 Z0.330 F1800.000 A38.013 (d: 14.706)
G1 X-9.397 Y6.340 Z0.330 F1800.000 A38.029 (d: 15.1145)
G1 X9.397 Y6.340 Z0.330 F1800.000 A38.754 (d: 24.1177)
G1 X9.397 Y6.748 Z0.330 F1800.000 A38.770 (d: 24.3758)
G1 X-9.397 Y6.748 Z0.330 F1800.000 A39.496 (d: 15.523)
G1 X-9.397 Y7.157 Z0.330 F1800.000 A39.512 (d: 15.9315)
G1 X9.397 Y7.157 Z0.330 F1800.000 A40.237 (d: 24.6379)
G1 X9.397 Y7.565 Z0.330 F1800.000 A40.253 (d: 24.904)
G1 X-9.397 Y7.565 Z0.330 F1800.000 A40.979 (d: 16.34)
G1 X-9.397 Y7.974 Z0.330 F1800.000 A40.994 (d: 16.7485)
G1 X9.397 Y7.974 Z0.330 F1800.000 A41.720 (d: 25.1739)
G1 X9.397 Y8.382 Z0.330 F1800.000 A41.736 (d: 25.4475)
G1 X-9.397 Y8.382 Z0.330 F1800.000 A42.462 (d: 17.157)
G1 X-9.397 Y8.791 Z0.330 F1800.000 A42.477 (d: 17.5655)
G1 X9.397 Y8.791 Z0.330 F1800.000 A43.203 (d: 25.7247)
G1 X9.397 Y9.199 Z0.330 F1800.000 A43.219 (d: 26.0054)
G1 X-9.397 Y9.199 Z0.330 F1800.000 A43.945 (d: 17.974)
G1 F798.000 A43.445 (snort)

(Slice 1, 1 Extruder)
G1 Z0.600 F500.000 (move Z)
(   Extruder 0)
( extruder 0 )
( GSWITCH T0 )
( TODO: add offset management to Gantry )

(inset 0/2 )
(  path 0/1, 5 points,  )
G1 X-9.784 Y-9.784 Z0.600 F6000.000 (move into position)
G1 F798.000 A43.945 (squirt)
G1 X-9.784 Y9.784 Z0.600 F4800.000 A44.700 (d: 19.568)
G1 X9.784 Y9.784 Z0.600 F4800.000 A45.456 (d: 27.6733)
G1 X9.784 Y-9.784 Z0.600 F4800.000 A46.211 (d: 19.568)
G1 X-9.784 Y-9.784 Z0.600 F4800.000 A46.967 (d: 0)
G1 F798.000 A46.467 (snort)

(inset 1/2 )
(  path 0/1, 5 points,  )
G1 X-9.397 Y-9.397 Z0.600 F6000.000 (move into position)
G1 F798.000 A46.967 (squirt)
G1 X-9.397 Y9.397 Z0.600 F4800.000 A47.693 (d: 18.794)
G1 X9.397 Y9.397 Z0.600 F4800.000 A48.418 (d: 26.5787)
G1 X9.397 Y-9.397 Z0.600 F4800.000 A49.144 (d: 18.794)
G1 X-9.397 Y-9.397 Z0.600 F4800.000 A49.870 (d: 0)
G1 F798.000 A49.370 (snort)

(infills: 1)
(  path 0/1, 92 points,  )
G1 X-8.774 Y-9.397 Z0.600 F6000.000 (move into position)
G1 F798.000 A49.870 (squirt)
G1 X-8.774 Y9.397 Z0.600 F4800.000 A50.596 (d: 18.794)
G1 X-9.183 Y9.397 Z0.600 F4800.000 A50.611 (d: 18.7984)
G1 X-9.183 Y-9.397 Z0.600 F4800.000 A51.337 (d: 0.4085)
G1 X-8.366 Y-9.397 Z0.600 F4800.000 A51.369 (d: 0.4085)
G1 X-8.366 Y9.397 Z0.600 F4800.000 A52.094 (d: 18.7984)
G1 X-7.957 Y9.397 Z0.600 F4800.000 A52.110 (d: 18.8117)
G1 X-7.957 Y-9.397 Z0.600 F4800.000 A52.836 (d: 0.817)
G1 X-7.549 Y-9.397 Z0.600 F4800.000 A52.852 (d: 1.2255)
G1 X-7.549 Y9.397 Z0.600 F4800.000 A53.577 (d: 18.8339)
G1 X-7.140 Y9.397 Z0.600 F4800.000 A53.593 (d: 18.8649)
G1 X-7.140 Y-9.397 Z0.600 F4800.000 A54.319 (d: 1.634)
G1 X-6.732 Y-9.397 Z0.600 F4800.000 A54.334 (d: 2.0425)
G1 X-6.732 Y9.397 Z0.600 F4800.000 A55.060 (d: 18.9047)
G1 X-6.323 Y9.397 Z0.600 F4800.000 A55.076 (d: 18.9531)
G1 X-6.323 Y-9.397 Z0.600 F4800.000 A55.802 (d: 2.451)
G1 X-5.915 Y-9.397 Z0.600 F4800.000 A55.817 (d: 2.8595)
G1 X-5.915 Y9.397 Z0.600 F4800.000 A56.543 (d: 19.0103)
G1 X-5.506 Y9.397 Z0.600 F4800.000 A56.559 (d: 19.076)
G1 X-5.506 Y-9.397 Z0.600 F4800.000 A57.285 (d: 3.268)
G1 X-5.098 Y-9.397 Z0.600 F4800.000 A57.300 (d: 3.6765)
G1 X-5.098 Y9.397 Z0.600 F4800.000 A58.026 (d: 19.1502)
G1 X-4.689 Y9.397 Z0.600 F4800.000 A58.042 (d: 19.2328)
G1 X-4.689 Y-9.397 Z0.600 F4800.000 A58.768 (d: 4.085)
G1 X-4.281 Y-9.397 Z0.600 F4800.000 A58.783 (d: 4.4935)
G1 X-4.281 Y9.397 Z0.600 F4800.000 A59.509 (d: 19.3237)
G1 X-3.872 Y9.397 Z0.600 F4800.000 A59.525 (d: 19.4228)
G1 X-3.872 Y-9.397 Z0.600 F4800.000 A60.251 (d: 4.902)
G1 X-3.464 Y-9.397 Z0.600 F4800.000 A60.266 (d: 5.3105)
G1 X-3.464 Y9.397 Z0.600 F4800.000 A60.992 (d: 19.5299)
G1 X-3.055 Y9.397 Z0.600 F4800.000 A61.008 (d: 19.6449)
G1 X-3.055 Y-9.397 Z0.600 F4800.000 A61.733 (d: 5.719)
G1 X-2.647 Y-9.397 Z0.600 F4800.000 A61.749 (d: 6.1275)
G1 X-2.647 Y9.397 Z0.600 F4800.000 A62.475 (d: 19.7677)
G1 X-2.238 Y9.397 Z0.600 F4800.000 A62.491 (d: 19.8981)
G1 X-2.238 Y-9.397 Z0.600 F4800.000 A63.216 (d: 6.536)
G1 X-1.830 Y-9.397 Z0.600 F4800.000 A63.232 (d: 6.9445)
G1 X-1.830 Y9.397 Z0.600 F4800.000 A63.958 (d: 20.036)
G1 X-1.421 Y9.397 Z0.600 F4800.000 A63.974 (d: 20.1812)
G1 X-1.421 Y-9.397 Z0.600 F4800.000 A64.699 (d: 7.353)
G1 X-1.013 Y-9.397 Z0.600 F4800.000 A64.715 (d: 7.7615)
G1 X-1.013 Y9.397 Z0.600 F4800.000 A65.441 (d: 20.3336)
G1 X-0.604 Y9.397 Z0.600 F4800.000 A65.457 (d: 20.493)
G1 X-0.604 Y-9.397 Z0.600 F4800.000 A66.182 (d: 8.17)
G1 X-0.196 Y-9.397 Z0.600 F4800.000 A66.198 (d: 8.5785)
G1 X-0.196 Y9.397 Z0.600 F4800.000 A66.924 (d: 20.6593)
G1 X0.213 Y9.397 Z0.600 F4800.000 A66.940 (d: 20.8322)
G1 X0.213 Y-9.397 Z0.600 F4800.000 A67.665 (d: 8.987)
G1 X0.621 Y-9.397 Z0.600 F4800.000 A67.681 (d: 9.3955)
G1 X0.621 Y9.397 Z0.600 F4800.000 A68.407 (d: 21.0117)
G1 X1.030 Y9.397 Z0.600 F4800.000 A68.423 (d: 21.1975)
G1 X1.030 Y-9.397 Z0.600 F4800.000 A69.148 (d: 9.804)
G1 X1.438 Y-9.397 Z0.600 F4800.000 A69.164 (d: 10.2125)
G1 X1.438 Y9.397 Z0.600 F4800.000 A69.890 (d: 21.3895)
G1 X1.847 Y9.397 Z0.600 F4800.000 A69.906 (d: 21.5875)
G1 X1.847 Y-9.397 Z0.600 F4800.000 A70.631 (d: 10.621)
G1 X2.255 Y-9.397 Z0.600 F4800.000 A70.647 (d: 11.0295)
G1 X2.255 Y9.397 Z0.600 F4800.000 A71.373 (d: 21.7914)
G1 X2.664 Y9.397 Z0.600 F4800.000 A71.389 (d: 22.001)
G1 X2.664 Y-9.397 Z0.600 F4800.000 A72.114 (d: 11.438)
G1 X3.072 Y-9.397 Z0.600 F4800.000 A72.130 (d: 11.8465)
G1 X3.072 Y9.397 Z0.600 F4800.000 A72.856 (d: 22.2161)
G1 X3.481 Y9.397 Z0.600 F4800.000 A72.871 (d: 22.4366)
G1 X3.481 Y-9.397 Z0.600 F4800.000 A73.597 (d: 12.255)
G1 X3.889 Y-9.397 Z0.600 F4800.000 A73.613 (d: 12.6635)
G1 X3.889 Y9.397 Z0.600 F4800.000 A74.339 (d: 22.6623)
G1 X4.298 Y9.397 Z0.600 F4800.000 A74.354 (d: 22.893)
G1 X4.298 Y-9.397 Z0.600 F4800.000 A75.080 (d: 13.072)
G1 X4.706 Y-9.397 Z0.600 F4800.000 A75.096 (d: 13.4805)
G1 X4.706 Y9.397 Z0.600 F4800.000 A75.822 (d: 23.1287)
G1 X5.115 Y9.397 Z0.600 F4800.000 A75.837 (d: 23.3692)
G1 X5.115 Y-9.397 Z0.600 F4800.000 A76.563 (d: 13.889)
G1 X5.523 Y-9.397 Z0.600 F4800.000 A76.579 (d: 14.2975)
G1 X5.523 Y9.397 Z0.600 F4800.000 A77.305 (d: 23.6143)
G1 X5.932 Y9.397 Z0.600 F4800.000 A77.320 (d: 23.8638)
G1 X5.932 Y-9.397 Z0.600 F4800.000 A78.046 (d: 14.706)
G1 X6.340 Y-9.397 Z0.600 F4800.000 A78.062 (d: 15.1145)
G1 X6.340 Y9.397 Z0.600 F4800.000 A78.788 (d: 24.1177)
G1 X6.749 Y9.397 Z0.600 F4800.000 A78.803 (d: 24.3758)
G1 X6.749 Y-9.397 Z0.600 F4800.000 A79.529 (d: 15.523)
G1 X7.157 Y-9.397 Z0.600 F4800.000 A79.545 (d: 15.9315)
G1 X7.157 Y9.397 Z0.600 F4800.000 A80.270 (d: 24.6379)
G1 X7.566 Y9.397 Z0.600 F4800.000 A80.286 (d: 24.904)
G1 X7.566 Y-9.397 Z0.600 F4800.000 A81.012 (d: 16.34)
G1 X7.974 Y-9.397 Z0.600 F4800.000 A81.028 (d: 16.7485)
G1 X7.974 Y9.397 Z0.600 F4800.000 A81.753 (d: 25.1739)
G1 X8.383 Y9.397 Z0.600 F4800.000 A81.769 (d: 25.4475)
G1 X8.383 Y-9.397 Z0.600 F4800.000 A82.495 (d: 17.157)
G1 X8.791 Y-9.397 Z0.600 F4800.000 A82.511 (d: 17.5655)
G1 X8.791 Y9.397 Z0.600 F4800.000 A83.236 (d: 25.7247)
G1 X9.200 Y9.397 Z0.600 F4800.000 A83.252 (d: 26.0054)
G1 X9.200 Y-9.397 Z0.600 F4800.000 A83.978 (d: 17.974)
G1 F798.000 A83.478 (snort)

(Slice 2, 1 Extruder)
G1 Z0.870 F500.000 (move Z)
(   Extruder 0)
( extruder 0 )
( GSWITCH T0 )
( TODO: add offset management to Gantry )

(inset 0/2 )
(  path 0/1, 5 points,  )
G1 X-9.784 Y-9.784 Z0.870 F6000.000 (move into position)
G1 F798.000 A83.978 (squirt)
G1 X-9.784 Y9.784 Z0.870 F4800.000 A84.733 (d: 19.568)
G1 X9.784 Y9.784 Z0.870 F4800.000 A85.489 (d: 27.6733)
G1 X9.784 Y-9.784 Z0.870 F4800.000 A86.245 (d: 19.568)
G1 X-9.784 Y-9.784 Z0.870 F4800.000 A87.000 (d: 0)
G1 F798.000 A86.500 (snort)

(inset 1/2 )
(  path 0/1, 5 points,  )
G1 X-9.397 Y-9.397 Z0.870 F6000.000 (move into position)
G1 F798.000 A87.000 (squirt)
G1 X-9.397 Y9.397 Z0.870 F4800.000 A87.726 (d: 18.794)
G1 X9.397 Y9.397 Z0.870 F4800.000 A88.452 (d: 26.5787)
G1 X9.397 Y-9.397 Z0.870 F4800.000 A89.177 (d: 18.794)
G1 X-9.397 Y-9.397 Z0.870 F4800.000 A89.903 (d: 0)
G1 F798.000 A89.403 (snort)

(infills: 1)
(  path 0/1, 92 points,  )
G1 X-9.397 Y-8.775 Z0.870 F6000.000 (move into position)
G1 F798.000 A89.903 (squirt)
G1 X9.397 Y-8.775 Z0.870 F4800.000 A90.629 (d: 18.794)
G1 X9.397 Y-9.183 Z0.870 F4800.000 A90.645 (d: 18.7984)
G1 X-9.397 Y-9.183 Z0.870 F4800.000 A91.370 (d: 0.4085)
G1 X-9.397 Y-8.366 Z0.870 F4800.000 A91.402 (d: 0.4085)
G1 X9.397 Y-8.366 Z0.870 F4800.000 A92.128 (d: 18.7984)
G1 X9.397 Y-7.958 Z0.870 F4800.000 A92.143 (d: 18.8117)
G1 X-9.397 Y-7.958 Z0.870 F4800.000 A92.869 (d: 0.817)
G1 X-9.397 Y-7.549 Z0.870 F4800.000 A92.885 (d: 1.2255)
G1 X9.397 Y-7.549 Z0.870 F4800.000 A93.610 (d: 18.8339)
G1 X9.397 Y-7.141 Z0.870 F4800.000 A93.626 (d: 18.8649)
G1 X-9.397 Y-7.141 Z0.870 F4800.000 A94.352 (d: 1.634)
G1 X-9.397 Y-6.732 Z0.870 F4800.000 A94.368 (d: 2.0425)
G1 X9.397 Y-6.732 Z0.870 F4800.000 A95.093 (d: 18.9047)
G1 X9.397 Y-6.324 Z0.870 F4800.000 A95.109 (d: 18.9531)
G1 X-9.397 Y-6.324 Z0.870 F4800.000 A95.835 (d: 2.451)
G1 X-9.397 Y-5.915 Z0.870 F4800.000 A95.851 (d: 2.8595)
G1 X9.397 Y-5.915 Z0.870 F4800.000 A96.576 (d: 19.0103)
G1 X9.397 Y-5.507 Z0.870 F4800.000 A96.592 (d: 19.076)
G1 X-9.397 Y-5.507 Z0.870 F4800.000 A97.318 (d: 3.268)
G1 X-9.397 Y-5.098 Z0.870 F4800.000 A97.334 (d: 3.6765)
G1 X9.397 Y-5.098 Z0.870 F4800.000 A98.059 (d: 19.1502)
G1 X9.397 Y-4.690 Z0.870 F4800.000 A98.075 (d: 19.2328)
G1 X-9.397 Y-4.690 Z0.870 F4800.000 A98.801 (d: 4.085)
G1 X-9.397 Y-4.281 Z0.870 F4800.000 A98.817 (d: 4.4935)
G1 X9.397 Y-4.281 Z0.870 F4800.000 A99.542 (d: 19.3237)
G1 X9.397 Y-3.873 Z0.870 F4800.000 A99.558 (d: 19.4228)
G1 X-9.397 Y-3.873 Z0.870 F4800.000 A100.284 (d: 4.902)
G1 X-9.397 Y-3.464 Z0.870 F4800.000 A100.300 (d: 5.3105)
G1 X9.397 Y-3.464 Z0.870 F4800.000 A101.025 (d: 19.5299)
G1 X9.397 Y-3.056 Z0.870 F4800.000 A101.041 (d: 19.6449)
G1 X-9.397 Y-3.056 Z0.870 F4800.000 A101.767 (d: 5.719)
G1 X-9.397 Y-2.647 Z0.870 F4800.000 A101.783 (d: 6.1275)
G1 X9.397 Y-2.647 Z0.870 F4800.000 A102.508 (d: 19.7677)
G1 X9.397 Y-2.239 Z0.870 F4800.000 A102.524 (d: 19.8981)
G1 X-9.397 Y-2.239 Z0.870 F4800.000 A103.250 (d: 6.536)
G1 X-9.397 Y-1.830 Z0.870 F4800.000 A103.265 (d: 6.9445)
G1 X9.397 Y-1.830 Z0.870 F4800.000 A103.991 (d: 20.036)
G1 X9.397 Y-1.422 Z0.870 F4800.000 A104.007 (d: 20.1812)
G1 X-9.397 Y-1.422 Z0.870 F4800.000 A104.733 (d: 7.353)
G1 X-9.397 Y-1.013 Z0.870 F4800.000 A104.748 (d: 7.7615)
G1 X9.397 Y-1.013 Z0.870 F4800.000 A105.474 (d: 20.3336)
G1 X9.397 Y-0.605 Z0.870 F4800.000 A105.490 (d: 20.493)
G1 X-9.397 Y-0.605 Z0.870 F4800.000 A106.216 (d: 8.17)
G1 X-9.397 Y-0.196 Z0.870 F4800.000 A106.231 (d: 8.5785)
G1 X9.397 Y-0.196 Z0.870 F4800.000 A106.957 (d: 20.6593)
G1 X9.397 Y0.212 Z0.870 F4800.000 A106.973 (d: 20.8322)
G1 X-9.397 Y0.212 Z0.870 F4800.000 A107.699 (d: 8.987)
G1 X-9.397 Y0.621 Z0.870 F4800.000 A107.714 (d: 9.3955)
G1 X9.397 Y0.621 Z0.870 F4800.000 A108.440 (d: 21.0117)
G1 X9.397 Y1.029 Z0.870 F4800.000 A108.456 (d: 21.1975)
G1 X-9.397 Y1.029 Z0.870 F4800.000 A109.182 (d: 9.804)
G1 X-9.397 Y1.438 Z0.870 F4800.000 A109.197 (d: 10.2125)
G1 X9.397 Y1.438 Z0.870 F4800.000 A109.923 (d: 21.3895)
G1 X9.397 Y1.846 Z0.870 F4800.000 A109.939 (d: 21.5875)
G1 X-9.397 Y1.846 Z0.870 F4800.000 A110.664 (d: 10.621)
G1 X-9.397 Y2.255 Z0.870 F4800.000 A110.680 (d: 11.0295)
G1 X9.397 Y2.255 Z0.870 F4800.000 A111.406 (d: 21.7914)
G1 X9.397 Y2.663 Z0.870 F4800.000 A111.422 (d: 22.001)
G1 X-9.397 Y2.663 Z0.870 F4800.000 A112.147 (d: 11.438)
G1 X-9.397 Y3.072 Z0.870 F4800.000 A112.163 (d: 11.8465)
G1 X9.397 Y3.072 Z0.870 F4800.000 A112.889 (d: 22.2161)
G1 X9.397 Y3.480 Z0.870 F4800.000 A112.905 (d: 22.4366)
G1 X-9.397 Y3.480 Z0.870 F4800.000 A113.630 (d: 12.255)
G1 X-9.397 Y3.889 Z0.870 F4800.000 A113.646 (d: 12.6635)
G1 X9.397 Y3.889 Z0.870 F4800.000 A114.372 (d: 22.6623)
G1 X9.397 Y4.297 Z0.870 F4800.000 A114.388 (d: 22.893)
G1 X-9.397 Y4.297 Z0.870 F4800.000 A115.113 (d: 13.072)
G1 X-9.397 Y4.706 Z0.870 F4800.000 A115.129 (d: 13.4805)
G1 X9.397 Y4.706 Z0.870 F4800.000 A115.855 (d: 23.1287)
G1 X9.397 Y5.114 Z0.870 F4800.000 A115.871 (d: 23.3692)
G1 X-9.397 Y5.114 Z0.870 F4800.000 A116.596 (d: 13.889)
G1 X-9.397 Y5.523 Z0.870 F4800.000 A116.612 (d: 14.2975)
G1 X9.397 Y5.523 Z0.870 F4800.000 A117.338 (d: 23.6143)
G1 X9.397 Y5.931 Z0.870 F4800.000 A117.354 (d: 23.8638)
G1 X-9.397 Y5.931 Z0.870 F4800.000 A118.079 (d: 14.706)
G1 X-9.397 Y6.340 Z0.870 F4800.000 A118.095 (d: 15.1145)
G1 X9.397 Y6.340 Z0.870 F4800.000 A118.821 (d: 24.1177)
G1 X9.397 Y6.748 Z0.870 F4800.000 A118.837 (d: 24.3758)
G1 X-9.397 Y6.748 Z0.870 F4800.000 A119.562 (d: 15.523)
G1 X-9.397 Y7.157 Z0.870 F4800.000 A119.578 (d: 15.9315)
G1 X9.397 Y7.157 Z0.870 F4800.000 A120.304 (d: 24.6379)
G1 X9.397 Y7.565 Z0.870 F4800.000 A120.319 (d: 24.904)
G1 X-9.397 Y7.565 Z0.870 F4800.000 A121.045 (d: 16.34)
G1 X-9.397 Y7.974 Z0.870 F4800.000 A121.061 (d: 16.7485)
G1 X9.397 Y7.974 Z0.870 F4800.000 A121.787 (d: 25.1739)
G1 X9.397 Y8.382 Z0.870 F4800.000 A121.802 (d: 25.4475)
G1 X-9.397 Y8.382 Z0.870 F4800.000 A122.528 (d: 17.157)
G1 X-9.397 Y8.791 Z0.870 F4800.000 A122.544 (d: 17.5655)
G1 X9.397 Y8.791 Z0.870 F4800.000 A123.270 (d: 25.7247)
G1 X9.397 Y9.199 Z0.870 F4800.000 A123.285 (d: 26.0054)
G1 X-9.397 Y9.199 Z0.870 F4800.000 A124.011 (d: 17.974)
G1 F798.000 A123.511 (snort)

(Slice 3, 1 Extruder)
G1 Z1.140 F500.000 (move Z)
(   Extruder 0)
( extruder 0 )
( GSWITCH T0 )
( TODO: add offset management to Gantry )

(inset 0/2 )
(  path 0/1, 5 points,  )
G1 X-9.784 Y-9.784 Z1.140 F6000.000 (move into position)
G1 F798.000 A124.011 (squirt)
G1 X-9.784 Y9.784 Z1.140 F4800.000 A124.767 (d: 19.568)
G1 X9.784 Y9.784 Z1.140 F4800.000 A125.522 (d: 27.6733)
G1 X9.784 Y-9.784 Z1.140 F4800.000 A126.278 (d: 19.568)
G1 X-9.784 Y-9.784 Z1.140 F4800.000 A127.033 (d: 0)
G1 F798.000 A126.533 (snort)

(inset 1/2 )
(  path 0/1, 5 points,  )
G1 X-9.397 Y-9.397 Z1.140 F6000.000 (move into position)
G1 F798.000 A127.033 (squirt)
G1 X-9.397 Y9.397 Z1.140 F4800.000 A127.759 (d: 18.794)
G1 X9.397 Y9.397 Z1.140 F4800.000 A128.485 (d: 26.5787)
G1 X9.397 Y-9.397 Z1.140 F4800.000 A129.211 (d: 18.794)
G1 X-9.397 Y-9.397 Z1.140 F4800.000 A129.936 (d: 0)
G1 F798.000 A129.436 (snort)

(infills: 1)
(  path 0/1, 92 points,  )
G1 X-8.774 Y-9.397 Z1.140 F6000.000 (move into position)
G1 F798.000 A129.936 (squirt)
G1 X-8.774 Y9.397 Z1.140 F4800.000 A130.662 (d: 18.794)
G1 X-9.183 Y9.397 Z1.140 F4800.000 A130.678 (d: 18.7984)
G1 X-9.183 Y-9.397 Z1.140 F4800.000 A131.403 (d: 0.4085)
G1 X-8.366 Y-9.397 Z1.140 F4800.000 A131.435 (d: 0.4085)
G1 X-8.366 Y9.397 Z1.140 F4800.000 A132.161 (d: 18.7984)
G1 X-7.957 Y9.397 Z1.140 F4800.000 A132.177 (d: 18.8117)
G1 X-7.957 Y-9.397 Z1.140 F4800.000 A132.902 (d: 0.817)
G1 X-7.549 Y-9.397 Z1.140 F4800.000 A132.918 (d: 1.2255)
G1 X-7.549 Y9.397 Z1.140 F4800.000 A133.644 (d: 18.8339)
G1 X-7.140 Y9.397 Z1.140 F4800.000 A133.659 (d: 18.8649)
G1 X-7.140 Y-9.397 Z1.140 F4800.000 A134.385 (d: 1.634)
G1 X-6.732 Y-9.397 Z1.140 F4800.000 A134.401 (d: 2.0425)
G1 X-6.732 Y9.397 Z1.140 F4800.000 A135.127 (d: 18.9047)
G1 X-6.323 Y9.397 Z1.140 F4800.000 A135.142 (d: 18.9531)
G1 X-6.323 Y-9.397 Z1.140 F4800.000 A135.868 (d: 2.451)
G1 X-5.915 Y-9.397 Z1.140 F4800.000 A135.884 (d: 2.8595)
G1 X-5.915 Y9.397 Z1.140 F4800.000 A136.610 (d: 19.0103)
G1 X-5.506 Y9.397 Z1.140 F4800.000 A136.625 (d: 19.076)
G1 X-5.506 Y-9.397 Z1.140 F4800.000 A137.351 (d: 3.268)
G1 X-5.098 Y-9.397 Z1.140 F4800.000 A137.367 (d: 3.6765)
G1 X-5.098 Y9.397 Z1.140 F4800.000 A138.093 (d: 19.1502)
G1 X-4.689 Y9.397 Z1.140 F4800.000 A138.108 (d: 19.2328)
G1 X-4.689 Y-9.397 Z1.140 F4800.000 A138.834 (d: 4.085)
G1 X-4.281 Y-9.397 Z1.140 F4800.000 A138.850 (d: 4.4935)
G1 X-4.281 Y9.397 Z1.140 F4800.000 A139.576 (d: 19.3237)
G1 X-3.872 Y9.397 Z1.140 F4800.000 A139.591 (d: 19.4228)
G1 X-3.872 Y-9.397 Z1.140 F4800.000 A140.317 (d: 4.902)
G1 X-3.464 Y-9.397 Z1.140 F4800.000 A140.333 (d: 5.3105)
G1 X-3.464 Y9.397 Z1.140 F4800.000 A141.058 (d: 19.5299)
G1 X-3.055 Y9.397 Z1.140 F4800.000 A141.074 (d: 19.6449)
G1 X-3.055 Y-9.397 Z1.140 F4800.000 A141.800 (d: 5.719)
G1 X-2.647 Y-9.397 Z1.140 F4800.000 A141.816 (d: 6.1275)
G1 X-2.647 Y9.397 Z1.140 F4800.000 A142.541 (d: 19.7677)
G1 X-2.238 Y9.397 Z1.140 F4800.000 A142.557 (d: 19.8981)
G1 X-2.238 Y-9.397 Z1.140 F4800.000 A143.283 (d: 6.536)
G1 X-1.830 Y-9.397 Z1.140 F4800.000 A143.299 (d: 6.9445)
G1 X-1.830 Y9.397 Z1.140 F4800.000 A144.024 (d: 20.036)
G1 X-1.421 Y9.397 Z1.140 F4800.000 A144.040 (d: 20.1812)
G1 X-1.421 Y-9.397 Z1.140 F4800.000 A144.766 (d: 7.353)
G1 X-1.013 Y-9.397 Z1.140 F4800.000 A144.782 (d: 7.7615)
G1 X-1.013 Y9.397 Z1.140 F4800.000 A145.507 (d: 20.3336)
G1 X-0.604 Y9.397 Z1.140 F4800.000 A145.523 (d: 20.493)
G1 X-0.604 Y-9.397 Z1.140 F4800.000 A146.249 (d: 8.17)
G1 X-0.196 Y-9.397 Z1.140 F4800.000 A146.265 (d: 8.5785)
G1 X-0.196 Y9.397 Z1.140 F4800.000 A146.990 (d: 20.6593)
G1 X0.213 Y9.397 Z1.140 F4800.000 A147.006 (d: 20.8322)
G1 X0.213 Y-9.397 Z1.140 F4800.000 A147.732 (d: 8.987)
G1 X0.621 Y-9.397 Z1.140 F4800.000 A147.748 (d: 9.3955)
G1 X0.621 Y9.397 Z1.140 F4800.000 A148.473 (d: 21.0117)
G1 X1.030 Y9.397 Z1.140 F4800.000 A148.489 (d: 21.1975)
G1 X1.030 Y-9.397 Z1.140 F4800.000 A149.215 (d: 9.804)
G1 X1.438 Y-9.397 Z1.140 F4800.000 A149.231 (d: 10.2125)
G1 X1.438 Y9.397 Z1.140 F4800.000 A149.956 (d: 21.3895)
G1 X1.847 Y9.397 Z1.140 F4800.000 A149.972 (d: 21.5875)
G1 X1.847 Y-9.397 Z1.140 F4800.000 A150.698 (d: 10.621)
G1 X2.255 Y-9.397 Z1.140 F4800.000 A150.713 (d: 11.0295)
G1 X2.255 Y9.397 Z1.140 F4800.000 A151.439 (d: 21.7914)
G1 X2.664 Y9.397 Z1.140 F4800.000 A151.455 (d: 22.001)
G1 X2.664 Y-9.397 Z1.140 F4800.000 A152.181 (d: 11.438)
G1 X3.072 Y-9.397 Z1.140 F4800.000 A152.196 (d: 11.8465)
G1 X3.072 Y9.397 Z1.140 F4800.000 A152.922 (d: 22.2161)
G1 X3.481 Y9.397 Z1.140 F4800.000 A152.938 (d: 22.4366)
G1 X3.481 Y-9.397 Z1.140 F4800.000 A153.664 (d: 12.255)
G1 X3.889 Y-9.397 Z1.140 F4800.000 A153.679 (d: 12.6635)
G1 X3.889 Y9.397 Z1.140 F4800.000 A154.405 (d: 22.6623)
G1 X4.298 Y9.397 Z1.140 F4800.000 A154.421 (d: 22.893)
G1 X4.298 Y-9.397 Z1.140 F4800.000 A155.147 (d: 13.072)
G1 X4.706 Y-9.397 Z1.140 F4800.000 A155.162 (d: 13.4805)
G1 X4.706 Y9.397 Z1.140 F4800.000 A155.888 (d: 23.1287)
G1 X5.115 Y9.397 Z1.140 F4800.000 A155.904 (d: 23.3692)
G1 X5.115 Y-9.397 Z1.140 F4800.000 A156.630 (d: 13.889)
G1 X5.523 Y-9.397 Z1.140 F4800.000 A156.645 (d: 14.2975)
G1 X5.523 Y9.397 Z1.140 F4800.000 A157.371 (d: 23.6143)
G1 X5.932 Y9.397 Z1.140 F4800.000 A157.387 (d: 23.8638)
G1 X5.932 Y-9.397 Z1.140 F4800.000 A158.113 (d: 14.706)
G1 X6.340 Y-9.397 Z1.140 F4800.000 A158.128 (d: 15.1145)
G1 X6.340 Y9.397 Z1.140 F4800.000 A158.854 (d: 24.1177)
G1 X6.749 Y9.397 Z1.140 F4800.000 A158.870 (d: 24.3758)
G1 X6.749 Y-9.397 Z1.140 F4800.000 A159.595 (d: 15.523)
G1 X7.157 Y-9.397 Z1.140 F4800.000 A159.611 (d: 15.9315)
G1 X7.157 Y9.397 Z1.140 F4800.000 A160.337 (d: 24.6379)
G1 X7.566 Y9.397 Z1.140 F4800.000 A160.353 (d: 24.904)
G1 X7.566 Y-9.397 Z1.140 F4800.000 A161.078 (d: 16.34)
G1 X7.974 Y-9.397 Z1.140 F4800.000 A161.094 (d: 16.7485)
G1 X7.974 Y9.397 Z1.140 F4800.000 A161.820 (d: 25.1739)
G1 X8.383 Y9.397 Z1.140 F4800.000 A161.836 (d: 25.4475)
G1 X8.383 Y-9.397 Z1.140 F4800.000 A162.561 (d: 17.157)
G1 X8.791 Y-9.397 Z1.140 F4800.000 A162.577 (d: 17.5655)
G1 X8.791 Y9.397 Z1.140 F4800.000 A163.303 (d: 25.7247)
G1 X9.200 Y9.397 Z1.140 F4800.000 A163.319 (d: 26.0054)
G1 X9.200 Y-9.397 Z1.140 F4800.000 A164.044 (d: 17.974)
G1 F798.000 A163.544 (snort)

(Slice 4, 1 Extruder)
G1 Z1.410 F500.000 (move Z)
(   Extruder 0)
( extruder 0 )
( GSWITCH T0 )
( TODO: add offset management to Gantry )

(inset 0/2 )
(  path 0/1, 5 points,  )
G1 X-9.784 Y-9.784 Z1.410 F6000.000 (move into position)
G1 F798.000 A164.044 (squirt)
G1 X-9.784 Y9.784 Z1.410 F4800.000 A164.800 (d: 19.568)
G1 X9.784 Y9.784 Z1.410 F4800.000 A165.556 (d: 27.6733)
G1 X9.784 Y-9.784 Z1.410 F4800.000 A166.311 (d: 19.568)
G1 X-9.784 Y-9.784 Z1.410 F4800.000 A167.067 (d: 0)
G1 F798.000 A166.567 (snort)

(inset 1/2 )
(  path 0/1, 5 points,  )
G1 X-9.397 Y-9.397 Z1.410 F6000.000 (move into position)
G1 F798.000 A167.067 (squirt)
G1 X-9.397 Y9.397 Z1.410 F4800.000 A167.792 (d: 18.794)
G1 X9.397 Y9.397 Z1.410 F4800.000 A168.518 (d: 26.5787)
G1 X9.397 Y-9.397 Z1.410 F4800.000 A169.244 (d: 18.794)
G1 X-9.397 Y-9.397 Z1.410 F4800.000 A169.970 (d: 0)
G1 F798.000 A169.470 (snort)

(infills: 1)
(  path 0/1, 92 points,  )
G1 X-9.397 Y-8.775 Z1.410 F6000.000 (move into position)
G1 F798.000 A169.970 (squirt)
G1 X9.397 Y-8.775 Z1.410 F4800.000 A170.695 (d: 18.794)
G1 X9.397 Y-9.183 Z1.410 F4800.000 A170.711 (d: 18.7984)
G1 X-9.397 Y-9.183 Z1.410 F4800.000 A171.437 (d: 0.4085)
G1 X-9.397 Y-8.366 Z1.410 F4800.000 A171.468 (d: 0.4085)
G1 X9.397 Y-8.366 Z1.410 F4800.000 A172.194 (d: 18.7984)
G1 X9.397 Y-7.958 Z1.410 F4800.000 A172.210 (d: 18.8117)
G1 X-9.397 Y-7.958 Z1.410 F4800.000 A172.935 (d: 0.817)
G1 X-9.397 Y-7.549 Z1.410 F4800.000 A172.951 (d: 1.2255)
G1 X9.397 Y-7.549 Z1.410 F4800.000 A173.677 (d: 18.8339)
G1 X9.397 Y-7.141 Z1.410 F4800.000 A173.693 (d: 18.8649)
G1 X-9.397 Y-7.141 Z1.410 F4800.000 A174.418 (d: 1.634)
G1 X-9.397 Y-6.732 Z1.410 F4800.000 A174.434 (d: 2.0425)
G1 X9.397 Y-6.732 Z1.410 F4800.000 A175.160 (d: 18.9047)
G1 X9.397 Y-6.324 Z1.410 F4800.000 A175.176 (d: 18.9531)
G1 X-9.397 Y-6.324 Z1.410 F4800.000 A175.901 (d: 2.451)
G1 X-9.397 Y-5.915 Z1.410 F4800.000 A175.917 (d: 2.8595)
G1 X9.397 Y-5.915 Z1.410 F4800.000 A176.643 (d: 19.0103)
G1 X9.397 Y-5.507 Z1.410 F4800.000 A176.659 (d: 19.076)
G1 X-9.397 Y-5.507 Z1.410 F4800.000 A177.384 (d: 3.268)
G1 X-9.397 Y-5.098 Z1.410 F4800.000 A177.400 (d: 3.6765)
G1 X9.397 Y-5.098 Z1.410 F4800.000 A178.126 (d: 19.1502)
G1 X9.397 Y-4.690 Z1.410 F4800.000 A178.142 (d: 19.2328)
G1 X-9.397 Y-4.690 Z1.410 F4800.000 A178.867 (d: 4.085)
G1 X-9.397 Y-4.281 Z1.410 F4800.000 A178.883 (d: 4.4935)
G1 X9.397 Y-4.281 Z1.410 F4800.000 A179.609 (d: 19.3237)
G1 X9.397 Y-3.873 Z1.410 F4800.000 A179.625 (d: 19.4228)
G1 X-9.397 Y-3.873 Z1.410 F4800.000 A180.350 (d: 4.902)
G1 X-9.397 Y-3.464 Z1.410 F4800.000 A180.366 (d: 5.3105)
G1 X9.397 Y-3.464 Z1.410 F4800.000 A181.092 (d: 19.5299)
G1 X9.397 Y-3.056 Z1.410 F4800.000 A181.107 (d: 19.6449)
G1 X-9.397 Y-3.056 Z1.410 F4800.000 A181.833 (d: 5.719)
G1 X-9.397 Y-2.647 Z1.410 F4800.000 A181.849 (d: 6.1275)
G1 X9.397 Y-2.647 Z1.410 F4800.000 A182.575 (d: 19.7677)
G1 X9.397 Y-2.239 Z1.410 F4800.000 A182.590 (d: 19.8981)
G1 X-9.397 Y-2.239 Z1.410 F4800.000 A183.316 (d: 6.536)
G1 X-9.397 Y-1.830 Z1.410 F4800.000 A183.332 (d: 6.9445)
G1 X9.397 Y-1.830 Z1.410 F4800.000 A184.058 (d: 20.036)
G1 X9.397 Y-1.422 Z1.410 F4800.000 A184.073 (d: 20.1812)
G1 X-9.397 Y-1.422 Z1.410 F4800.000 A184.799 (d: 7.353)
G1 X-9.397 Y-1.013 Z1.410 F4800.000 A184.815 (d: 7.7615)
G1 X9.397 Y-1.013 Z1.410 F4800.000 A185.541 (d: 20.3336)
G1 X9.397 Y-0.605 Z1.410 F4800.000 A185.556 (d: 20.493)
G1 X-9.397 Y-0.605 Z1.410 F4800.000 A186.282 (d: 8.17)
G1 X-9.397 Y-0.196 Z1.410 F4800.000 A186.298 (d: 8.5785)
G1 X9.397 Y-0.196 Z1.410 F4800.000 A187.024 (d: 20.6593)
G1 X9.397 Y0.212 Z1.410 F4800.000 A187.039 (d: 20.8322)
G1 X-9.397 Y0.212 Z1.410 F4800.000 A187.765 (d: 8.987)
G1 X-9.397 Y0.621 Z1.410 F4800.000 A187.781 (d: 9.3955)
G1 X9.397 Y0.621 Z1.410 F4800.000 A188.507 (d: 21.0117)
G1 X9.397 Y1.029 Z1.410 F4800.000 A188.522 (d: 21.1975)
G1 X-9.397 Y1.029 Z1.410 F4800.000 A189.248 (d: 9.804)
G1 X-9.397 Y1.438 Z1.410 F4800.000 A189.264 (d: 10.2125)
G1 X9.397 Y1.438 Z1.410 F4800.000 A189.989 (d: 21.3895)
G1 X9.397 Y1.846 Z1.410 F4800.000 A190.005 (d: 21.5875)
G1 X-9.397 Y1.846 Z1.410 F4800.000 A190.731 (d: 10.621)
G1 X-9.397 Y2.255 Z1.410 F4800.000 A190.747 (d: 11.0295)
G1 X9.397 Y2.255 Z1.410 F4800.000 A191.472 (d: 21.7914)
G1 X9.397 Y2.663 Z1.410 F4800.000 A191.488 (d: 22.001)
G1 X-9.397 Y2.663 Z1.410 F4800.000 A192.214 (d: 11.438)
G1 X-9.397 Y3.072 Z1.410 F4800.000 A192.230 (d: 11.8465)
G1 X9.397 Y3.072 Z1.410 F4800.000 A192.955 (d: 22.2161)
G1 X9.397 Y3.480 Z1.410 F4800.000 A192.971 (d: 22.4366)
G1 X-9.397 Y3.480 Z1.410 F4800.000 A193.697 (d: 12.255)
G1 X-9.397 Y3.889 Z1.410 F4800.000 A193.713 (d: 12.6635)
G1 X9.397 Y3.889 Z1.410 F4800.000 A194.438 (d: 22.6623)
G1 X9.397 Y4.297 Z1.410 F4800.000 A194.454 (d: 22.893)
G1 X-9.397 Y4.297 Z1.410 F4800.000 A195.180 (d: 13.072)
G1 X-9.397 Y4.706 Z1.410 F4800.000 A195.196 (d: 13.4805)
G1 X9.397 Y4.706 Z1.410 F4800.000 A195.921 (d: 23.1287)
G1 X9.397 Y5.114 Z1.410 F4800.000 A195.937 (d: 23.3692)
G1 X-9.397 Y5.114 Z1.410 F4800.000 A196.663 (d: 13.889)
G1 X-9.397 Y5.523 Z1.410 F4800.000 A196.679 (d: 14.2975)
G1 X9.397 Y5.523 Z1.410 F4800.000 A197.404 (d: 23.6143)
G1 X9.397 Y5.931 Z1.410 F4800.000 A197.420 (d: 23.8638)
G1 X-9.397 Y5.931 Z1.410 F4800.000 A198.146 (d: 14.706)
G1 X-9.397 Y6.340 Z1.410 F4800.000 A198.162 (d: 15.1145)
G1 X9.397 Y6.340 Z1.410 F4800.000 A198.887 (d: 24.1177)
G1 X9.397 Y6.748 Z1.410 F4800.000 A198.903 (d: 24.3758)
G1 X-9.397 Y6.748 Z1.410 F4800.000 A199.629 (d: 15.523)
G1 X-9.397 Y7.157 Z1.410 F4800.000 A199.644 (d: 15.9315)
G1 X9.397 Y7.157 Z1.410 F4800.000 A200.370 (d: 24.6379)
G1 X9.397 Y7.565 Z1.410 F4800.000 A200.386 (d: 24.904)
G1 X-9.397 Y7.565 Z1.410 F4800.000 A201.112 (d: 16.34)
G1 X-9.397 Y7.974 Z1.410 F4800.000 A201.127 (d: 16.7485)
G1 X9.397 Y7.974 Z1.410 F4800.000 A201.853 (d: 25.1739)
G1 X9.397 Y8.382 Z1.410 F4800.000 A201.869 (d: 25.4475)
G1 X-9.397 Y8.382 Z1.410 F4800.000 A202.595 (d: 17.157)
G1 X-9.397 Y8.791 Z1.410 F4800.000 A202.610 (d: 17.5655)
G1 X9.397 Y8.791 Z1.410 F4800.000 A203.336 (d: 25.7247)
G1 X9.397 Y9.199 Z1.410 F4800.000 A203.352 (d: 26.0054)
G1 X-9.397 Y9.199 Z1.410 F4800.000 A204.078 (d: 17.974)
G1 F798.000 A203.578 (snort)

(Slice 5, 1 Extruder)
G1 Z1.680 F500.000 (move Z)
(   Extruder 0)
( extruder 0 )
( GSWITCH T0 )
( TODO: add offset management to Gantry )

(inset 0/2 )
(  path 0/1, 5 points,  )
G1 X-9.784 Y-9.784 Z1.680 F6000.000 (move into position)
G1 F798.000 A204.078 (squirt)
G1 X-9.784 Y9.784 Z1.680 F4800.000 A204.833 (d: 19.568)
G1 X9.784 Y9.784 Z1.680 F4800.000 A205.589 (d: 27.6733)
G1 X9.784 Y-9.784 Z1.680 F4800.000 A206.344 (d: 19.568)
G1 X-9.784 Y-9.784 Z1.680 F4800.000 A207.100 (d: 0)
G1 F798.000 A206.600 (snort)

(inset 1/2 )
(  path 0/1, 5 points,  )
G1 X-9.397 Y-9.397 Z1.680 F6000.000 (move into position)
G1 F798.000 A207.100 (squirt)
G1 X-9.397 Y9.397 Z1.680 F4800.000 A207.826 (d: 18.794)
G1 X9.397 Y9.397 Z1.680 F4800.000 A208.551 (d: 26.5787)
G1 X9.397 Y-9.397 Z1.680 F4800.000 A209.277 (d: 18.794)
G1 X-9.397 Y-9.397 Z1.680 F4800.000 A210.003 (d: 0)
G1 F798.000 A209.503 (snort)

(infills: 1)
(  path 0/1, 92 points,  )
G1 X-8.774 Y-9.397 Z1.680 F6000.000 (move into position)
G1 F798.000 A210.003 (squirt)
G1 X-8.774 Y9.397 Z1.680 F4800.000 A210.728 (d: 18.794)
G1 X-9.183 Y9.397 Z1.680 F4800.000 A210.744 (d: 18.7984)
G1 X-9.183 Y-9.397 Z1.680 F4800.000 A211.470 (d: 0.4085)
G1 X-8.366 Y-9.397 Z1.680 F4800.000 A211.501 (d: 0.4085)
G1 X-8.366 Y9.397 Z1.680 F4800.000 A212.227 (d: 18.7984)
G1 X-7.957 Y9.397 Z1.680 F4800.000 A212.243 (d: 18.8117)
G1 X-7.957 Y-9.397 Z1.680 F4800.000 A212.969 (d: 0.817)
G1 X-7.549 Y-9.397 Z1.680 F4800.000 A212.984 (d: 1.2255)
G1 X-7.549 Y9.397 Z1.680 F4800.000 A213.710 (d: 18.8339)
G1 X-7.140 Y9.397 Z1.680 F4800.000 A213.726 (d: 18.8649)
G1 X-7.140 Y-9.397 Z1.680 F4800.000 A214.452 (d: 1.634)
G1 X-6.732 Y-9.397 Z1.680 F4800.000 A214.467 (d: 2.0425)
G1 X-6.732 Y9.397 Z1.680 F4800.000 A215.193 (d: 18.9047)
G1 X-6.323 Y9.397 Z1.680 F4800.000 A215.209 (d: 18.9531)
G1 X-6.323 Y-9.397 Z1.680 F4800.000 A215.935 (d: 2.451)
G1 X-5.915 Y-9.397 Z1.680 F4800.000 A215.950 (d: 2.8595)
G1 X-5.915 Y9.397 Z1.680 F4800.000 A216.676 (d: 19.0103)
G1 X-5.506 Y9.397 Z1.680 F4800.000 A216.692 (d: 19.076)
G1 X-5.506 Y-9.397 Z1.680 F4800.000 A217.418 (d: 3.268)
G1 X-5.098 Y-9.397 Z1.680 F4800.000 A217.433 (d: 3.6765)
G1 X-5.098 Y9.397 Z1.680 F4800.000 A218.159 (d: 19.1502)
G1 X-4.689 Y9.397 Z1.680 F4800.000 A218.175 (d: 19.2328)
G1 X-4.689 Y-9.397 Z1.680 F4800.000 A218.901 (d: 4.085)
G1 X-4.281 Y-9.397 Z1.680 F4800.000 A218.916 (d: 4.4935)
G1 X-4.281 Y9.397 Z1.680 F4800.000 A219.642 (d: 19.3237)
G1 X-3.872 Y9.397 Z1.680 F4800.000 A219.658 (d: 19.4228)
G1 X-3.872 Y-9.397 Z1.680 F4800.000 A220.383 (d: 4.902)
G1 X-3.464 Y-9.397 Z1.680 F4800.000 A220.399 (d: 5.3105)
G1 X-3.464 Y9.397 Z1.680 F4800.000 A221.125 (d: 19.5299)
G1 X-3.055 Y9.397 Z1.680 F4800.000 A221.141 (d: 19.6449)
G1 X-3.055 Y-9.397 Z1.680 F4800.000 A221.866 (d: 5.719)
G1 X-2.647 Y-9.397 Z1.680 F4800.000 A221.882 (d: 6.1275)
G1 X-2.647 Y9.397 Z1.680 F4800.000 A222.608 (d: 19.7677)
G1 X-2.238 Y9.397 Z1.680 F4800.000 A222.624 (d: 19.8981)
G1 X-2.238 Y-9.397 Z1.680 F4800.000 A223.349 (d: 6.536)
G1 X-1.830 Y-9.397 Z1.680 F4800.000 A223.365 (d: 6.9445)
G1 X-1.830 Y9.397 Z1.680 F4800.000 A224.091 (d: 20.036)
G1 X-1.421 Y9.397 Z1.680 F4800.000 A224.107 (d: 20.1812)
G1 X-1.421 Y-9.397 Z1.680 F4800.000 A224.832 (d: 7.353)
G1 X-1.013 Y-9.397 Z1.680 F4800.000 A224.848 (d: 7.7615)
G1 X-1.013 Y9.397 Z1.680 F4800.000 A225.574 (d: 20.3336)
G1 X-0.604 Y9.397 Z1.680 F4800.000 A225.590 (d: 20.493)
G1 X-0.604 Y-9.397 Z1.680 F4800.000 A226.315 (d: 8.17)
G1 X-0.196 Y-9.397 Z1.680 F4800.000 A226.331 (d: 8.5785)
G1 X-0.196 Y9.397 Z1.680 F4800.000 A227.057 (d: 20.6593)
G1 X0.213 Y9.397 Z1.680 F4800.000 A227.073 (d: 20.8322)
G1 X0.213 Y-9.397 Z1.680 F4800.000 A227.798 (d: 8.987)
G1 X0.621 Y-9.397 Z1.680 F4800.000 A227.814 (d: 9.3955)
G1 X0.621 Y9.397 Z1.680 F4800.000 A228.540 (d: 21.0117)
G1 X1.030 Y9.397 Z1.680 F4800.000 A228.556 (d: 21.1975)
G1 X1.030 Y-9.397 Z1.680 F4800.000 A229.281 (d: 9.804)
G1 X1.438 Y-9.397 Z1.680 F4800.000 A229.297 (d: 10.2125)
G1 X1.438 Y9.397 Z1.680 F4800.000 A230.023 (d: 21.3895)
G1 X1.847 Y9.397 Z1.680 F4800.000 A230.038 (d: 21.5875)
G1 X1.847 Y-9.397 Z1.680 F4800.000 A230.764 (d: 10.621)
G1 X2.255 Y-9.397 Z1.680 F4800.000 A230.780 (d: 11.0295)
G1 X2.255 Y9.397 Z1.680 F4800.000 A231.506 (d: 21.7914)
G1 X2.664 Y9.397 Z1.680 F4800.000 A231.521 (d: 22.001)
G1 X2.664 Y-9.397 Z1.680 F4800.000 A232.247 (d: 11.438)
G1 X3.072 Y-9.397 Z1.680 F4800.000 A232.263 (d: 11.8465)
G1 X3.072 Y9.397 Z1.680 F4800.000 A232.989 (d: 22.2161)
G1 X3.481 Y9.397 Z1.680 F4800.000 A233.004 (d: 22.4366)
G1 X3.481 Y-9.397 Z1.680 F4800.000 A233.730 (d: 12.255)
G1 X3.889 Y-9.397 Z1.680 F4800.000 A233.746 (d: 12.6635)
G1 X3.889 Y9.397 Z1.680 F4800.000 A234.472 (d: 22.6623)
G1 X4.298 Y9.397 Z1.680 F4800.000 A234.487 (d: 22.893)
G1 X4.298 Y-9.397 Z1.680 F4800.000 A235.213 (d: 13.072)
G1 X4.706 Y-9.397 Z1.680 F4800.000 A235.229 (d: 13.4805)
G1 X4.706 Y9.397 Z1.680 F4800.000 A235.955 (d: 23.1287)
G1 X5.115 Y9.397 Z1.680 F4800.000 A235.970 (d: 23.3692)
G1 X5.115 Y-9.397 Z1.680 F4800.000 A236.696 (d: 13.889)
G1 X5.523 Y-9.397 Z1.680 F4800.000 A236.712 (d: 14.2975)
G1 X5.523 Y9.397 Z1.680 F4800.000 A237.437 (d: 23.6143)
G1 X5.932 Y9.397 Z1.680 F4800.000 A237.453 (d: 23.8638)
G1 X5.932 Y-9.397 Z1.680 F4800.000 A238.179 (d: 14.706)
G1 X6.340 Y-9.397 Z1.680 F4800.000 A238.195 (d: 15.1145)
G1 X6.340 Y9.397 Z1.680 F4800.000 A238.920 (d: 24.1177)
G1 X6.749 Y9.397 Z1.680 F4800.000 A238.936 (d: 24.3758)
G1 X6.749 Y-9.397 Z1.680 F4800.000 A239.662 (d: 15.523)
G1 X7.157 Y-9.397 Z1.680 F4800.000 A239.678 (d: 15.9315)
G1 X7.157 Y9.397 Z1.680 F4800.000 A240.403 (d: 24.6379)
G1 X7.566 Y9.397 Z1.680 F4800.000 A240.419 (d: 24.904)
G1 X7.566 Y-9.397 Z1.680 F4800.000 A241.145 (d: 16.34)
G1 X7.974 Y-9.397 Z1.680 F4800.000 A241.161 (d: 16.7485)
G1 X7.974 Y9.397 Z1.680 F4800.000 A241.886 (d: 25.1739)
G1 X8.383 Y9.397 Z1.680 F4800.000 A241.902 (d: 25.4475)
G1 X8.383 Y-9.397 Z1.680 F4800.000 A242.628 (d: 17.157)
G1 X8.791 Y-9.397 Z1.680 F4800.000 A242.644 (d: 17.5655)
G1 X8.791 Y9.397 Z1.680 F4800.000 A243.369 (d: 25.7247)
G1 X9.200 Y9.397 Z1.680 F4800.000 A243.385 (d: 26.0054)
G1 X9.200 Y-9.397 Z1.680 F4800.000 A244.111 (d: 17.974)
G1 F798.000 A243.611 (snort)

(Slice 6, 1 Extruder)
G1 Z1.950 F500.000 (move Z)
(   Extruder 0)
( extruder 0 )
( GSWITCH T0 )
( TODO: add offset management to Gantry )

(inset 0/2 )
(  path 0/1, 5 points,  )
G1 X-9.784 Y-9.784 Z1.950 F6000.000 (move into position)
G1 F798.000 A244.111 (squirt)
G1 X-9.784 Y9.784 Z1.950 F4800.000 A244.866 (d: 19.568)
G1 X9.784 Y9.784 Z1.950 F4800.000 A245.622 (d: 27.6733)
G1 X9.784 Y-9.784 Z1.950 F4800.000 A246.378 (d: 19.568)
G1 X-9.784 Y-9.784 Z1.950 F4800.000 A247.133 (d: 0)
G1 F798.000 A246.633 (snort)

(inset 1/2 )
(  path 0/1, 5 points,  )
G1 X-9.397 Y-9.397 Z1.950 F6000.000 (move into position)
G1 F798.000 A247.133 (squirt)
G1 X-9.397 Y9.397 Z1.950 F4800.000 A247.859 (d: 18.794)
G1 X9.397 Y9.397 Z1.950 F4800.000 A248.585 (d: 26.5787)
G1 X9.397 Y-9.397 Z1.950 F4800.000 A249.310 (d: 18.794)
G1 X-9.397 Y-9.397 Z1.950 F4800.000 A250.036 (d: 0)
G1 F798.000 A249.536 (snort)

(infills: 1)
(  path 0/1, 8 points,  )
G1 X-9.397 Y-1.830 Z1.950 F6000.000 (move into position)
G1 F798.000 A250.036 (squirt)
G1 X9.397 Y-1.830 Z1.950 F4800.000 A250.762 (d: 18.794)
G1 X9.397 Y2.255 Z1.950 F4800.000 A250.919 (d: 19.2328)
G1 X-9.397 Y2.255 Z1.950 F4800.000 A251.645 (d: 4.085)
G1 X-9.397 Y6.340 Z1.950 F4800.000 A251.803 (d: 8.17)
G1 X9.397 Y6.340 Z1.950 F4800.000 A252.529 (d: 20.493)
G1 X9.397 Y-5.915 Z1.950 F4800.000 A253.002 (d: 19.2328)
G1 X-9.397 Y-5.915 Z1.950 F4800.000 A253.728 (d: 4.085)
G1 F798.000 A253.228 (snort)

(Slice 7, 1 Extruder)
G1 Z2.220 F500.000 (move Z)
(   Extruder 0)
( extruder 0 )
( GSWITCH T0 )
( TODO: add offset management to Gantry )

(inset 0/2 )
(  path 0/1, 5 points,  )
G1 X-9.784 Y-9.784 Z2.220 F6000.000 (move into position)
G1 F798.000 A253.728 (squirt)
G1 X-9.784 Y9.784 Z2.220 F4800.000 A254.483 (d: 19.568)
G1 X9.784 Y9.784 Z2.220 F4800.000 A255.239 (d: 27.6733)
G1 X9.784 Y-9.784 Z2.220 F4800.000 A255.994 (d: 19.568)
G1 X-9.784 Y-9.784 Z2.220 F4800.000 A256.750 (d: 0)
G1 F798.000 A256.250 (snort)

(inset 1/2 )
(  path 0/1, 5 points,  )
G1 X-9.397 Y-9.397 Z2.220 F6000.000 (move into position)
G1 F798.000 A256.750 (squirt)
G1 X-9.397 Y9.397 Z2.220 F4800.000 A257.476 (d: 18.794)
G1 X9.397 Y9.397 Z2.220 F4800.000 A258.201 (d: 26.5787)
G1 X9.397 Y-9.397 Z2.220 F4800.000 A258.927 (d: 18.794)
G1 X-9.397 Y-9.397 Z2.220 F4800.000 A259.653 (d: 0)
G1 F798.000 A259.153 (snort)

(infills: 1)
(  path 0/1, 8 points,  )
G1 X-1.830 Y-9.397 Z2.220 F6000.000 (move into position)
G1 F798.000 A259.653 (squirt)
G1 X-1.830 Y9.397 Z2.220 F4800.000 A260.378 (d: 18.794)
G1 X2.255 Y9.397 Z2.220 F4800.000 A260.536 (d: 19.2328)
G1 X2.255 Y-9.397 Z2.220 F4800.000 A261.262 (d: 4.085)
G1 X6.340 Y-9.397 Z2.220 F4800.000 A261.420 (d: 8.17)
G1 X6.340 Y9.397 Z2.220 F4800.000 A262.145 (d: 20.493)
G1 X-5.915 Y9.397 Z2.220 F4800.000 A262.618 (d: 19.2328)
G1 X-5.915 Y-9.397 Z2.220 F4800.000 A263.344 (d: 4.085)
G1 F798.000 A262.844 (snort)

(Slice 8, 1 Extruder)
G1 Z2.490 F500.000 (move Z)
(   Extruder 0)
( extruder 0 )
( GSWITCH T0 )
( TODO: add offset management to Gantry )

(inset 0/2 )
(  path 0/1, 5 points,  )
G1 X-9.784 Y-9.784 Z2.490 F6000.000 (move into position)
G1 F798.000 A263.344 (squirt)
G1 X-9.784 Y9.784 Z2.490 F4800.000 A264.100 (d: 19.568)
G1 X9.784 Y9.784 Z2.490 F4800.000 A264.855 (d: 27.6733)
G1 X9.784 Y-9.784 Z2.490 F4800.000 A265.611 (d: 19.568)
G1 X-9.784 Y-9.784 Z2.490 F4800.000 A266.367 (d: 0)
G1 F798.000 A265.867 (snort)

(inset 1/2 )
(  path 0/1, 5 points,  )
G1 X-9.397 Y-9.397 Z2.490 F6000.000 (move into position)
G1 F798.000 A266.367 (squirt)
G1 X-9.397 Y9.397 Z2.490 F4800.000 A267.092 (d: 18.794)
G1 X9.397 Y9.397 Z2.490 F4800.000 A267.818 (d: 26.5787)
G1 X9.397 Y-9.397 Z2.490 F4800.000 A268.544 (d: 18.794)
G1 X-9.397 Y-9.397 Z2.490 F4800.000 A269.269 (d: 0)
G1 F798.000 A268.769 (snort)

(infills: 1)
(  path 0/1, 8 points,  )
G1 X-9.397 Y-1.830 Z2.490 F6000.000 (move into position)
G1 F798.000 A269.269 (squirt)
G1 X9.397 Y-1.830 Z2.490 F4800.000 A269.995 (d: 18.794)
G1 X9.397 Y2.255 Z2.490 F4800.000 A270.153 (d: 19.2328)
G1 X-9.397 Y2.255 Z2.490 F4800.000 A270.879 (d: 4.085)
G1 X-9.397 Y6.340 Z2.490 F4800.000 A271.036 (d: 8.17)
G1 X9.397 Y6.340 Z2.490 F4800.000 A271.762 (d: 20.493)
G1 X9.397 Y-5.915 Z2.490 F4800.000 A272.235 (d: 19.2328)
G1 X-9.397 Y-5.915 Z2.490 F4800.000 A272.961 (d: 4.085)
G1 F798.000 A272.461 (snort)

(Slice 9, 1 Extruder)
G1 Z2.760 F500.000 (move Z)
(   Extruder 0)
( extruder 0 )
( GSWITCH T0 )
( TODO: add offset management to Gantry )

(inset 0/2 )
(  path 0/1, 5 points,  )
G1 X-9.784 Y-9.784 Z2.760 F6000.000 (move into position)
G1 F798.000 A272.961 (squirt)
G1 X-9.784 Y9.784 Z2.760 F4800.000 A273.716 (d: 19.568)
G1 X9.784 Y9.784 Z2.760 F4800.000 A274.472 (d: 27.6733)
G1 X9.784 Y-9.784 Z2.760 F4800.000 A275.228 (d: 19.568)
G1 X-9.784 Y-9.784 Z2.760 F4800.000 A275.983 (d: 0)
G1 F798.000 A275.483 (snort)

(inset 1/2 )
(  path 0/1, 5 points,  )
G1 X-9.397 Y-9.397 Z2.760 F6000.000 (move into position)
G1 F798.000 A275.983 (squirt)
G1 X-9.397 Y9.397 Z2.760 F4800.000 A276.709 (d: 18.794)
G1 X9.397 Y9.397 Z2.760 F4800.000 A277.435 (d: 26.5787)
G1 X9.397 Y-9.397 Z2.760 F4800.000 A278.160 (d: 18.794)
G1 X-9.397 Y-9.397 Z2.760 F4800.000 A278.886 (d: 0)
G1 F798.000 A278.386 (snort)

(infills: 1)
(  path 0/1, 8 points,  )
G1 X-1.830 Y-9.397 Z2.760 F6000.000 (move into position)
G1 F798.000 A278.886 (squirt)
G1 X-1.830 Y9.397 Z2.760 F4800.000 A279.612 (d: 18.794)
G1 X2.255 Y9.397 Z2.760 F4800.000 A279.770 (d: 19.2328)
G1 X2.255 Y-9.397 Z2.760 F4800.000 A280.495 (d: 4.085)
G1 X6.340 Y-9.397 Z2.760 F4800.000 A280.653 (d: 8.17)
G1 X6.340 Y9.397 Z2.760 F4800.000 A281.379 (d: 20.493)
G1 X-5.915 Y9.397 Z2.760 F4800.000 A281.852 (d: 19.2328)
G1 X-5.915 Y-9.397 Z2.760 F4800.000 A282.578 (d: 4.085)
G1 F798.000 A282.078 (snort)

(Slice 10, 1 Extruder)
G1 Z3.030 F500.000 (move Z)
(   Extruder 0)
( extruder 0 )
( GSWITCH T0 )
( TODO: add offset management to Gantry )

(inset 0/2 )
(  path 0/1, 5 points,  )
G1 X-9.784 Y-9.784 Z3.030 F6000.000 (move into position)
G1 F798.000 A282.578 (squirt)
G1 X-9.784 Y9.784 Z3.030 F4800.000 A283.333 (d: 19.568)
G1 X9.784 Y9.784 Z3.030 F4800.000 A284.089 (d: 27.6733)
G1 X9.784 Y-9.784 Z3.030 F4800.000 A284.844 (d: 19.568)
G1 X-9.784 Y-9.784 Z3.030 F4800.000 A285.600 (d: 0)
G1 F798.000 A285.100 (snort)

(inset 1/2 )
(  path 0/1, 5 points,  )
G1 X-9.397 Y-9.397 Z3.030 F6000.000 (move into position)
G1 F798.000 A285.600 (squirt)
G1 X-9.397 Y9.397 Z3.030 F4800.000 A286.326 (d: 18.794)
G1 X9.397 Y9.397 Z3.030 F4800.000 A287.051 (d: 26.5787)
G1 X9.397 Y-9.397 Z3.030 F4800.000 A287.777 (d: 18.794)
G1 X-9.397 Y-9.397 Z3.030 F4800.000 A288.503 (d: 0)
G1 F798.000 A288.003 (snort)

(infills: 1)
(  path 0/1, 8 points,  )
G1 X-9.397 Y-1.830 Z3.030 F6000.000 (move into position)
G1 F798.000 A288.503 (squirt)
G1 X9.397 Y-1.830 Z3.030 F4800.000 A289.228 (d: 18.794)
G1 X9.397 Y2.255 Z3.030 F4800.000 A289.386 (d: 19.2328)
G1 X-9.397 Y2.255 Z3.030 F4800.000 A290.112 (d: 4.085)
G1 X-9.397 Y6.340 Z3.030 F4800.000 A290.270 (d: 8.17)
G1 X9.397 Y6.340 Z3.030 F4800.000 A290.995 (d: 20.493)
G1 X9.397 Y-5.915 Z3.030 F4800.000 A291.469 (d: 19.2328)
G1 X-9.397 Y-5.915 Z3.030 F4800.000 A292.194 (d: 4.085)
G1 F798.000 A291.694 (snort)

(Slice 11, 1 Extruder)
G1 Z3.300 F500.000 (move Z)
(   Extruder 0)
( extruder 0 )
( GSWITCH T0 )
( TODO: add offset management to Gantry )

(inset 0/2 )
(  path 0/1, 5 points,  )
G1 X-9.784 Y-9.784 Z3.300 F6000.000 (move into position)
G1 F798.000 A292.194 (squirt)
G1 X-9.784 Y9.784 Z3.300 F4800.000 A292.950 (d: 19.568)
G1 X9.784 Y9.784 Z3.300 F4800.000 A293.705 (d: 27.6733)
G1 X9.784 Y-9.784 Z3.300 F4800.000 A294.461 (d: 19.568)
G1 X-9.784 Y-9.784 Z3.300 F4800.000 A295.217 (d: 0)
G1 F798.000 A294.717 (snort)

(inset 1/2 )
(  path 0/1, 5 points,  )
G1 X-9.397 Y-9.397 Z3.300 F6000.000 (move into position)
G1 F798.000 A295.217 (squirt)
G1 X-9.397 Y9.397 Z3.300 F4800.000 A295.942 (d: 18.794)
G1 X9.397 Y9.397 Z3.300 F4800.000 A296.668 (d: 26.5787)
G1 X9.397 Y-9.397 Z3.300 F4800.000 A297.394 (d: 18.794)
G1 X-9.397 Y-9.397 Z3.300 F4800.000 A298.119 (d: 0)
G1 F798.000 A297.619 (snort)

(infills: 1)
(  path 0/1, 8 points,  )
G1 X-1.830 Y-9.397 Z3.300 F6000.000 (move into position)
G1 F798.000 A298.119 (squirt)
G1 X-1.830 Y9.397 Z3.300 F4800.000 A298.845 (d: 18.794)
G1 X2.255 Y9.397 Z3.300 F4800.000 A299.003 (d: 19.2328)
G1 X2.255 Y-9.397 Z3.300 F4800.000 A299.729 (d: 4.085)
G1 X6.340 Y-9.397 Z3.300 F4800.000 A299.886 (d: 8.17)
G1 X6.340 Y9.397 Z3.300 F4800.000 A300.612 (d: 20.493)
G1 X-5.915 Y9.397 Z3.300 F4800.000 A301.085 (d: 19.2328)
G1 X-5.915 Y-9.397 Z3.300 F4800.000 A301.811 (d: 4.085)
G1 F798.000 A301.311 (snort)

(Slice 12, 1 Extruder)
G1 Z3.570 F500.000 (move Z)
(   Extruder 0)
( extruder 0 )
( GSWITCH T0 )
( TODO: add offset management to Gantry )

(inset 0/2 )
(  path 0/1, 5 points,  )
G1 X-9.784 Y-9.784 Z3.570 F6000.000 (move into position)
G1 F798.000 A301.811 (squirt)
G1 X-9.784 Y9.784 Z3.570 F4800.000 A302.567 (d: 19.568)
G1 X9.784 Y9.784 Z3.570 F4800.000 A303.322 (d: 27.6733)
G1 X9.784 Y-9.784 Z3.570 F4800.000 A304.078 (d: 19.568)
G1 X-9.784 Y-9.784 Z3.570 F4800.000 A304.833 (d: 0)
G1 F798.000 A304.333 (snort)

(inset 1/2 )
(  path 0/1, 5 points,  )
G1 X-9.397 Y-9.397 Z3.570 F6000.000 (move into position)
G1 F798.000 A304.833 (squirt)
G1 X-9.397 Y9.397 Z3.570 F4800.000 A305.559 (d: 18.794)
G1 X9.397 Y9.397 Z3.570 F4800.000 A306.285 (d: 26.5787)
G1 X9.397 Y-9.397 Z3.570 F4800.000 A307.010 (d: 18.794)
G1 X-9.397 Y-9.397 Z3.570 F4800.000 A307.736 (d: 0)
G1 F798.000 A307.236 (snort)

(infills: 1)
(  path 0/1, 8 points,  )
G1 X-9.397 Y-1.830 Z3.570 F6000.000 (move into position)
G1 F798.000 A307.736 (squirt)
G1 X9.397 Y-1.830 Z3.570 F4800.000 A308.462 (d: 18.794)
G1 X9.397 Y2.255 Z3.570 F4800.000 A308.620 (d: 19.2328)
G1 X-9.397 Y2.255 Z3.570 F4800.000 A309.345 (d: 4.085)
G1 X-9.397 Y6.340 Z3.570 F4800.000 A309.503 (d: 8.17)
G1 X9.397 Y6.340 Z3.570 F4800.000 A310.229 (d: 20.493)
G1 X9.397 Y-5.915 Z3.570 F4800.000 A310.702 (d: 19.2328)
G1 X-9.397 Y-5.915 Z3.570 F4800.000 A311.428 (d: 4.085)
G1 F798.000 A310.928 (snort)

(Slice 13, 1 Extruder)
G1 Z3.840 F500.000 (move Z)
(   Extruder 0)
( extruder 0 )
( GSWITCH T0 )
( TODO: add offset management to Gantry )

(inset 0/2 )
(  path 0/1, 5 points,  )
G1 X-9.784 Y-9.784 Z3.840 F6000.000 (move into position)
G1 F798.000 A311.428 (squirt)
G1 X-9.784 Y9.784 Z3.840 F4800.000 A312.183 (d: 19.568)
G1 X9.784 Y9.784 Z3.840 F4800.000 A312.939 (d: 27.6733)
G1 X9.784 Y-9.784 Z3.840 F4800.000 A313.694 (d: 19.568)
G1 X-9.784 Y-9.784 Z3.840 F4800.000 A314.450 (d: 0)
G1 F798.000 A313.950 (snort)

(inset 1/2 )
(  path 0/1, 5 points,  )
G1 X-9.397 Y-9.397 Z3.840 F6000.000 (move into position)
G1 F798.000 A314.450 (squirt)
G1 X-9.397 Y9.397 Z3.840 F4800.000 A315.176 (d: 18.794)
G1 X9.397 Y9.397 Z3.840 F4800.000 A315.901 (d: 26.5787)
G1 X9.397 Y-9.397 Z3.840 F4800.000 A316.627 (d: 18.794)
G1 X-9.397 Y-9.397 Z3.840 F4800.000 A317.353 (d: 0)
G1 F798.000 A316.853 (snort)

(infills: 1)
(  path 0/1, 8 points,  )
G1 X-1.830 Y-9.397 Z3.840 F6000.000 (move into position)
G1 F798.000 A317.353 (squirt)
G1 X-1.830 Y9.397 Z3.840 F4800.000 A318.079 (d: 18.794)
G1 X2.255 Y9.397 Z3.840 F4800.000 A318.236 (d: 19.2328)
G1 X2.255 Y-9.397 Z3.840 F4800.000 A318.962 (d: 4.085)
G1 X6.340 Y-9.397 Z3.840 F4800.000 A319.120 (d: 8.17)
G1 X6.340 Y9.397 Z3.840 F4800.000 A319.845 (d: 20.493)
G1 X-5.915 Y9.397 Z3.840 F4800.000 A320.319 (d: 19.2328)
G1 X-5.915 Y-9.397 Z3.840 F4800.000 A321.044 (d: 4.085)
G1 F798.000 A320.544 (snort)

(Slice 14, 1 Extruder)
G1 Z4.110 F500.000 (move Z)
(   Extruder 0)
( extruder 0 )
( GSWITCH T0 )
( TODO: add offset management to Gantry )

(inset 0/2 )
(  path 0/1, 5 points,  )
G1 X-9.784 Y-9.784 Z4.110 F6000.000 (move into position)
G1 F798.000 A321.044 (squirt)
G1 X-9.784 Y9.784 Z4.110 F4800.000 A321.800 (d: 19.568)
G1 X9.784 Y9.784 Z4.110 F4800.000 A322.556 (d: 27.6733)
G1 X9.784 Y-9.784 Z4.110 F4800.000 A323.311 (d: 19.568)
G1 X-9.784 Y-9.784 Z4.110 F4800.000 A324.067 (d: 0)
G1 F798.000 A323.567 (snort)

(inset 1/2 )
(  path 0/1, 5 points,  )
G1 X-9.397 Y-9.397 Z4.110 F6000.000 (move into position)
G1 F798.000 A324.067 (squirt)
G1 X-9.397 Y9.397 Z4.110 F4800.000 A324.792 (d: 18.794)
G1 X9.397 Y9.397 Z4.110 F4800.000 A325.518 (d: 26.5787)
G1 X9.397 Y-9.397 Z4.110 F4800.000 A326.244 (d: 18.794)
G1 X-9.397 Y-9.397 Z4.110 F4800.000 A326.970 (d: 0)
G1 F798.000 A326.470 (snort)

(infills: 1)
(  path 0/1, 8 points,  )
G1 X-9.397 Y-1.830 Z4.110 F6000.000 (move into position)
G1 F798.000 A326.970 (squirt)
G1 X9.397 Y-1.830 Z4.110 F4800.000 A327.695 (d: 18.794)
G1 X9.397 Y2.255 Z4.110 F4800.000 A327.853 (d: 19.2328)
G1 X-9.397 Y2.255 Z4.110 F4800.000 A328.579 (d: 4.085)
G1 X-9.397 Y6.340 Z4.110 F4800.000 A328.736 (d: 8.17)
G1 X9.397 Y6.340 Z4.110 F4800.000 A329.462 (d: 20.493)
G1 X9.397 Y-5.915 Z4.110 F4800.000 A329.935 (d: 19.2328)
G1 X-9.397 Y-5.915 Z4.110 F4800.000 A330.661 (d: 4.085)
G1 F798.000 A330.161 (snort)

(Slice 15, 1 Extruder)
G1 Z4.380 F500.000 (move Z)
(   Extruder 0)
( extruder 0 )
( GSWITCH T0 )
( TODO: add offset management to Gantry )

(inset 0/2 )
(  path 0/1, 5 points,  )
G1 X-9.784 Y-9.784 Z4.380 F6000.000 (move into position)
G1 F798.000 A330.661 (squirt)
G1 X-9.784 Y9.784 Z4.380 F4800.000 A331.417 (d: 19.568)
G1 X9.784 Y9.784 Z4.380 F4800.000 A332.172 (d: 27.6733)
G1 X9.784 Y-9.784 Z4.380 F4800.000 A332.928 (d: 19.568)
G1 X-9.784 Y-9.784 Z4.380 F4800.000 A333.683 (d: 0)
G1 F798.000 A333.183 (snort)

(inset 1/2 )
(  path 0/1, 5 points,  )
G1 X-9.397 Y-9.397 Z4.380 F6000.000 (move into position)
G1 F798.000 A333.683 (squirt)
G1 X-9.397 Y9.397 Z4.380 F4800.000 A334.409 (d: 18.794)
G1 X9.397 Y9.397 Z4.380 F4800.000 A335.135 (d: 26.5787)
G1 X9.397 Y-9.397 Z4.380 F4800.000 A335.861 (d: 18.794)
G1 X-9.397 Y-9.397 Z4.380 F4800.000 A336.586 (d: 0)
G1 F798.000 A336.086 (snort)

(infills: 1)
(  path 0/1, 8 points,  )
G1 X-1.830 Y-9.397 Z4.380 F6000.000 (move into position)
G1 F798.000 A336.586 (squirt)
G1 X-1.830 Y9.397 Z4.380 F4800.000 A337.312 (d: 18.794)
G1 X2.255 Y9.397 Z4.380 F4800.000 A337.470 (d: 19.2328)
G1 X2.255 Y-9.397 Z4.380 F4800.000 A338.195 (d: 4.085)
G1 X6.340 Y-9.397 Z4.380 F4800.000 A338.353 (d: 8.17)
G1 X6.340 Y9.397 Z4.380 F4800.000 A339.079 (d: 20.493)
G1 X-5.915 Y9.397 Z4.380 F4800.000 A339.552 (d: 19.2328)
G1 X-5.915 Y-9.397 Z4.380 F4800.000 A340.278 (d: 4.085)
G1 F798.000 A339.778 (snort)

(Slice 16, 1 Extruder)
G1 Z4.650 F500.000 (move Z)
(   Extruder 0)
( extruder 0 )
( GSWITCH T0 )
( TODO: add offset management to Gantry )

(inset 0/2 )
(  path 0/1, 5 points,  )
G1 X-9.784 Y-9.784 Z4.650 F6000.000 (move into position)
G1 F798.000 A340.278 (squirt)
G1 X-9.784 Y9.784 Z4.650 F4800.000 A341.033 (d: 19.568)
G1 X9.784 Y9.784 Z4.650 F4800.000 A341.789 (d: 27.6733)
G1 X9.784 Y-9.784 Z4.650 F4800.000 A342.545 (d: 19.568)
G1 X-9.784 Y-9.784 Z4.650 F4800.000 A343.300 (d: 0)
G1 F798.000 A342.800 (snort)

(inset 1/2 )
(  path 0/1, 5 points,  )
G1 X-9.397 Y-9.397 Z4.650 F6000.000 (move into position)
G1 F798.000 A343.300 (squirt)
G1 X-9.397 Y9.397 Z4.650 F4800.000 A344.026 (d: 18.794)
G1 X9.397 Y9.397 Z4.650 F4800.000 A344.752 (d: 26.5787)
G1 X9.397 Y-9.397 Z4.650 F4800.000 A345.477 (d: 18.794)
G1 X-9.397 Y-9.397 Z4.650 F4800.000 A346.203 (d: 0)
G1 F798.000 A345.703 (snort)

(infills: 1)
(  path 0/1, 8 points,  )
G1 X-9.397 Y-1.830 Z4.650 F6000.000 (move into position)
G1 F798.000 A346.203 (squirt)
G1 X9.397 Y-1.830 Z4.650 F4800.000 A346.929 (d: 18.794)
G1 X9.397 Y2.255 Z4.650 F4800.000 A347.086 (d: 19.2328)
G1 X-9.397 Y2.255 Z4.650 F4800.000 A347.812 (d: 4.085)
G1 X-9.397 Y6.340 Z4.650 F4800.000 A347.970 (d: 8.17)
G1 X9.397 Y6.340 Z4.650 F4800.000 A348.696 (d: 20.493)
G1 X9.397 Y-5.915 Z4.650 F4800.000 A349.169 (d: 19.2328)
G1 X-9.397 Y-5.915 Z4.650 F4800.000 A349.894 (d: 4.085)
G1 F798.000 A349.394 (snort)

(Slice 17, 1 Extruder)
G1 Z4.920 F500.000 (move Z)
(   Extruder 0)
( extruder 0 )
( GSWITCH T0 )
( TODO: add offset management to Gantry )

(inset 0/2 )
(  path 0/1, 5 points,  )
G1 X-9.784 Y-9.784 Z4.920 F6000.000 (move into position)
G1 F798.000 A349.894 (squirt)
G1 X-9.784 Y9.784 Z4.920 F4800.000 A350.650 (d: 19.568)
G1 X9.784 Y9.784 Z4.920 F4800.000 A351.406 (d: 27.6733)
G1 X9.784 Y-9.784 Z4.920 F4800.000 A352.161 (d: 19.568)
G1 X-9.784 Y-9.784 Z4.920 F4800.000 A352.917 (d: 0)
G1 F798.000 A352.417 (snort)

(inset 1/2 )
(  path 0/1, 5 points,  )
G1 X-9.397 Y-9.397 Z4.920 F6000.000 (move into position)
G1 F798.000 A352.917 (squirt)
G1 X-9.397 Y9.397 Z4.920 F4800.000 A353.643 (d: 18.794)
G1 X9.397 Y9.397 Z4.920 F4800.000 A354.368 (d: 26.5787)
G1 X9.397 Y-9.397 Z4.920 F4800.000 A355.094 (d: 18.794)
G1 X-9.397 Y-9.397 Z4.920 F4800.000 A355.820 (d: 0)
G1 F798.000 A355.320 (snort)

(infills: 1)
(  path 0/1, 8 points,  )
G1 X-1.830 Y-9.397 Z4.920 F6000.000 (move into position)
G1 F798.000 A355.820 (squirt)
G1 X-1.830 Y9.397 Z4.920 F4800.000 A356.545 (d: 18.794)
G1 X2.255 Y9.397 Z4.920 F4800.000 A356.703 (d: 19.2328)
G1 X2.255 Y-9.397 Z4.920 F4800.000 A357.429 (d: 4.085)
G1 X6.340 Y-9.397 Z4.920 F4800.000 A357.587 (d: 8.17)
G1 X6.340 Y9.397 Z4.920 F4800.000 A358.312 (d: 20.493)
G1 X-5.915 Y9.397 Z4.920 F4800.000 A358.785 (d: 19.2328)
G1 X-5.915 Y-9.397 Z4.920 F4800.000 A359.511 (d: 4.085)
G1 F798.000 A359.011 (snort)

(Slice 18, 1 Extruder)
G1 Z5.190 F500.000 (move Z)
(   Extruder 0)
( extruder 0 )
( GSWITCH T0 )
( TODO: add offset management to Gantry )

(inset 0/2 )
(  path 0/1, 5 points,  )
G1 X-9.784 Y-9.784 Z5.190 F6000.000 (move into position)
G1 F798.000 A359.511 (squirt)
G1 X-9.784 Y9.784 Z5.190 F4800.000 A360.267 (d: 19.568)
G1 X9.784 Y9.784 Z5.190 F4800.000 A361.022 (d: 27.6733)
G1 X9.784 Y-9.784 Z5.190 F4800.000 A361.778 (d: 19.568)
G1 X-9.784 Y-9.784 Z5.190 F4800.000 A362.534 (d: 0)
G1 F798.000 A362.034 (snort)

(inset 1/2 )
(  path 0/1, 5 points,  )
G1 X-9.397 Y-9.397 Z5.190 F6000.000 (move into position)
G1 F798.000 A362.534 (squirt)
G1 X-9.397 Y9.397 Z5.190 F4800.000 A363.259 (d: 18.794)
G1 X9.397 Y9.397 Z5.190 F4800.000 A363.985 (d: 26.5787)
G1 X9.397 Y-9.397 Z5.190 F4800.000 A364.711 (d: 18.794)
G1 X-9.397 Y-9.397 Z5.190 F4800.000 A365.436 (d: 0)
G1 F798.000 A364.936 (snort)

(infills: 1)
(  path 0/1, 8 points,  )
G1 X-9.397 Y-1.830 Z5.190 F6000.000 (move into position)
G1 F798.000 A365.436 (squirt)
G1 X9.397 Y-1.830 Z5.190 F4800.000 A366.162 (d: 18.794)
G1 X9.397 Y2.255 Z5.190 F4800.000 A366.320 (d: 19.2328)
G1 X-9.397 Y2.255 Z5.190 F4800.000 A367.046 (d: 4.085)
G1 X-9.397 Y6.340 Z5.190 F4800.000 A367.203 (d: 8.17)
G1 X9.397 Y6.340 Z5.190 F4800.000 A367.929 (d: 20.493)
G1 X9.397 Y-5.915 Z5.190 F4800.000 A368.402 (d: 19.2328)
G1 X-9.397 Y-5.915 Z5.190 F4800.000 A369.128 (d: 4.085)
G1 F798.000 A368.628 (snort)

(Slice 19, 1 Extruder)
G1 Z5.460 F500.000 (move Z)
(   Extruder 0)
( extruder 0 )
( GSWITCH T0 )
( TODO: add offset management to Gantry )

(inset 0/2 )
(  path 0/1, 5 points,  )
G1 X-9.784 Y-9.784 Z5.460 F6000.000 (move into position)
G1 F798.000 A369.128 (squirt)
G1 X-9.784 Y9.784 Z5.460 F4800.000 A369.883 (d: 19.568)
G1 X9.784 Y9.784 Z5.460 F4800.000 A370.639 (d: 27.6733)
G1 X9.784 Y-9.784 Z5.460 F4800.000 A371.395 (d: 19.568)
G1 X-9.784 Y-9.784 Z5.460 F4800.000 A372.150 (d: 0)
G1 F798.000 A371.650 (snort)

(inset 1/2 )
(  path 0/1, 5 points,  )
G1 X-9.397 Y-9.397 Z5.460 F6000.000 (move into position)
G1 F798.000 A372.150 (squirt)
G1 X-9.397 Y9.397 Z5.460 F4800.000 A372.876 (d: 18.794)
G1 X9.397 Y9.397 Z5.460 F4800.000 A373.602 (d: 26.5787)
G1 X9.397 Y-9.397 Z5.460 F4800.000 A374.327 (d: 18.794)
G1 X-9.397 Y-9.397 Z5.460 F4800.000 A375.053 (d: 0)
G1 F798.000 A374.553 (snort)

(infills: 1)
(  path 0/1, 8 points,  )
G1 X-1.830 Y-9.397 Z5.460 F6000.000 (move into position)
G1 F798.000 A375.053 (squirt)
G1 X-1.830 Y9.397 Z5.460 F4800.000 A375.779 (d: 18.794)
G1 X2.255 Y9.397 Z5.460 F4800.000 A375.937 (d: 19.2328)
G1 X2.255 Y-9.397 Z5.460 F4800.000 A376.662 (d: 4.085)
G1 X6.340 Y-9.397 Z5.460 F4800.000 A376.820 (d: 8.17)
G1 X6.340 Y9.397 Z5.460 F4800.000 A377.546 (d: 20.493)
G1 X-5.915 Y9.397 Z5.460 F4800.000 A378.019 (d: 19.2328)
G1 X-5.915 Y-9.397 Z5.460 F4800.000 A378.745 (d: 4.085)
G1 F798.000 A378.245 (snort)

(Slice 20, 1 Extruder)
G1 Z5.730 F500.000 (move Z)
(   Extruder 0)
( extruder 0 )
( GSWITCH T0 )
( TODO: add offset management to Gantry )

(inset 0/2 )
(  path 0/1, 5 points,  )
G1 X-9.784 Y-9.784 Z5.730 F6000.000 (move into position)
G1 F798.000 A378.745 (squirt)
G1 X-9.784 Y9.784 Z5.730 F4800.000 A379.500 (d: 19.568)
G1 X9.784 Y9.784 Z5.730 F4800.000 A380.256 (d: 27.6733)
G1 X9.784 Y-9.784 Z5.730 F4800.000 A381.011 (d: 19.568)
G1 X-9.784 Y-9.784 Z5.730 F4800.000 A381.767 (d: 0)
G1 F798.000 A381.267 (snort)

(inset 1/2 )
(  path 0/1, 5 points,  )
G1 X-9.397 Y-9.397 Z5.730 F6000.000 (move into position)
G1 F798.000 A381.767 (squirt)
G1 X-9.397 Y9.397 Z5.730 F4800.000 A382.493 (d: 18.794)
G1 X9.397 Y9.397 Z5.730 F4800.000 A383.218 (d: 26.5787)
G1 X9.397 Y-9.397 Z5.730 F4800.000 A383.944 (d: 18.794)
G1 X-9.397 Y-9.397 Z5.730 F4800.000 A384.670 (d: 0)
G1 F798.000 A384.170 (snort)

(infills: 1)
(  path 0/1, 8 points,  )
G1 X-9.397 Y-1.830 Z5.730 F6000.000 (move into position)
G1 F798.000 A384.670 (squirt)
G1 X9.397 Y-1.830 Z5.730 F4800.000 A385.395 (d: 18.794)
G1 X9.397 Y2.255 Z5.730 F4800.000 A385.553 (d: 19.2328)
G1 X-9.397 Y2.255 Z5.730 F4800.000 A386.279 (d: 4.085)
G1 X-9.397 Y6.340 Z5.730 F4800.000 A386.437 (d: 8.17)
G1 X9.397 Y6.340 Z5.730 F4800.000 A387.162 (d: 20.493)
G1 X9.397 Y-5.915 Z5.730 F4800.000 A387.636 (d: 19.2328)
G1 X-9.397 Y-5.915 Z5.730 F4800.000 A388.361 (d: 4.085)
G1 F798.000 A387.861 (snort)

(Slice 21, 1 Extruder)
G1 Z6.000 F500.000 (move Z)
(   Extruder 0)
( extruder 0 )
( GSWITCH T0 )
( TODO: add offset management to Gantry )

(inset 0/2 )
(  path 0/1, 5 points,  )
G1 X-9.784 Y-9.784 Z6.000 F6000.000 (move into position)
G1 F798.000 A388.361 (squirt)
G1 X-9.784 Y9.784 Z6.000 F4800.000 A389.117 (d: 19.568)
G1 X9.784 Y9.784 Z6.000 F4800.000 A389.872 (d: 27.6733)
G1 X9.784 Y-9.784 Z6.000 F4800.000 A390.628 (d: 19.568)
G1 X-9.784 Y-9.784 Z6.000 F4800.000 A391.384 (d: 0)
G1 F798.000 A390.884 (snort)

(inset 1/2 )
(  path 0/1, 5 points,  )
G1 X-9.397 Y-9.397 Z6.000 F6000.000 (move into position)
G1 F798.000 A391.384 (squirt)
G1 X-9.397 Y9.397 Z6.000 F4800.000 A392.109 (d: 18.794)
G1 X9.397 Y9.397 Z6.000 F4800.000 A392.835 (d: 26.5787)
G1 X9.397 Y-9.397 Z6.000 F4800.000 A393.561 (d: 18.794)
G1 X-9.397 Y-9.397 Z6.000 F4800.000 A394.286 (d: 0)
G1 F798.000 A393.786 (snort)

(infills: 1)
(  path 0/1, 8 points,  )
G1 X-1.830 Y-9.397 Z6.000 F6000.000 (move into position)
G1 F798.000 A394.286 (squirt)
G1 X-1.830 Y9.397 Z6.000 F4800.000 A395.012 (d: 18.794)
G1 X2.255 Y9.397 Z6.000 F4800.000 A395.170 (d: 19.2328)
G1 X2.255 Y-9.397 Z6.000 F4800.000 A395.896 (d: 4.085)
G1 X6.340 Y-9.397 Z6.000 F4800.000 A396.053 (d: 8.17)
G1 X6.340 Y9.397 Z6.000 F4800.000 A396.779 (d: 20.493)
G1 X-5.915 Y9.397 Z6.000 F4800.000 A397.252 (d: 19.2328)
G1 X-5.915 Y-9.397 Z6.000 F4800.000 A397.978 (d: 4.085)
G1 F798.000 A397.478 (snort)

(Slice 22, 1 Extruder)
G1 Z6.270 F500.000 (move Z)
(   Extruder 0)
( extruder 0 )
( GSWITCH T0 )
( TODO: add offset management to Gantry )

(inset 0/2 )
(  path 0/1, 5 points,  )
G1 X-9.784 Y-9.784 Z6.270 F6000.000 (move into position)
G1 F798.000 A397.978 (squirt)
G1 X-9.784 Y9.784 Z6.270 F4800.000 A398.734 (d: 19.568)
G1 X9.784 Y9.784 Z6.270 F4800.000 A399.489 (d: 27.6733)
G1 X9.784 Y-9.784 Z6.270 F4800.000 A400.245 (d: 19.568)
G1 X-9.784 Y-9.784 Z6.270 F4800.000 A401.000 (d: 0)
G1 F798.000 A400.500 (snort)

(inset 1/2 )
(  path 0/1, 5 points,  )
G1 X-9.397 Y-9.397 Z6.270 F6000.000 (move into position)
G1 F798.000 A401.000 (squirt)
G1 X-9.397 Y9.397 Z6.270 F4800.000 A401.726 (d: 18.794)
G1 X9.397 Y9.397 Z6.270 F4800.000 A402.452 (d: 26.5787)
G1 X9.397 Y-9.397 Z6.270 F4800.000 A403.177 (d: 18.794)
G1 X-9.397 Y-9.397 Z6.270 F4800.000 A403.903 (d: 0)
G1 F798.000 A403.403 (snort)

(infills: 1)
(  path 0/1, 8 points,  )
G1 X-9.397 Y-1.830 Z6.270 F6000.000 (move into position)
G1 F798.000 A403.903 (squirt)
G1 X9.397 Y-1.830 Z6.270 F4800.000 A404.629 (d: 18.794)
G1 X9.397 Y2.255 Z6.270 F4800.000 A404.787 (d: 19.2328)
G1 X-9.397 Y2.255 Z6.270 F4800.000 A405.512 (d: 4.085)
G1 X-9.397 Y6.340 Z6.270 F4800.000 A405.670 (d: 8.17)
G1 X9.397 Y6.340 Z6.270 F4800.000 A406.396 (d: 20.493)
G1 X9.397 Y-5.915 Z6.270 F4800.000 A406.869 (d: 19.2328)
G1 X-9.397 Y-5.915 Z6.270 F4800.000 A407.595 (d: 4.085)
G1 F798.000 A407.095 (snort)

(Slice 23, 1 Extruder)
G1 Z6.540 F500.000 (move Z)
(   Extruder 0)
( extruder 0 )
( GSWITCH T0 )
( TODO: add offset management to Gantry )

(inset 0/2 )
(  path 0/1, 5 points,  )
G1 X-9.784 Y-9.784 Z6.540 F6000.000 (move into position)
G1 F798.000 A407.595 (squirt)
G1 X-9.784 Y9.784 Z6.540 F4800.000 A408.350 (d: 19.568)
G1 X9.784 Y9.784 Z6.540 F4800.000 A409.106 (d: 27.6733)
G1 X9.784 Y-9.784 Z6.540 F4800.000 A409.861 (d: 19.568)
G1 X-9.784 Y-9.784 Z6.540 F4800.000 A410.617 (d: 0)
G1 F798.000 A410.117 (snort)

(inset 1/2 )
(  path 0/1, 5 points,  )
G1 X-9.397 Y-9.397 Z6.540 F6000.000 (move into position)
G1 F798.000 A410.617 (squirt)
G1 X-9.397 Y9.397 Z6.540 F4800.000 A411.343 (d: 18.794)
G1 X9.397 Y9.397 Z6.540 F4800.000 A412.068 (d: 26.5787)
G1 X9.397 Y-9.397 Z6.540 F4800.000 A412.794 (d: 18.794)
G1 X-9.397 Y-9.397 Z6.540 F4800.000 A413.520 (d: 0)
G1 F798.000 A413.020 (snort)

(infills: 1)
(  path 0/1, 8 points,  )
G1 X-1.830 Y-9.397 Z6.540 F6000.000 (move into position)
G1 F798.000 A413.520 (squirt)
G1 X-1.830 Y9.397 Z6.540 F4800.000 A414.246 (d: 18.794)
G1 X2.255 Y9.397 Z6.540 F4800.000 A414.403 (d: 19.2328)
G1 X2.255 Y-9.397 Z6.540 F4800.000 A415.129 (d: 4.085)
G1 X6.340 Y-9.397 Z6.540 F4800.000 A415.287 (d: 8.17)
G1 X6.340 Y9.397 Z6.540 F4800.000 A416.012 (d: 20.493)
G1 X-5.915 Y9.397 Z6.540 F4800.000 A416.486 (d: 19.2328)
G1 X-5.915 Y-9.397 Z6.540 F4800.000 A417.211 (d: 4.085)
G1 F798.000 A416.711 (snort)

(Slice 24, 1 Extruder)
G1 Z6.810 F500.000 (move Z)
(   Extruder 0)
( extruder 0 )
( GSWITCH T0 )
( TODO: add offset management to Gantry )

(inset 0/2 )
(  path 0/1, 5 points,  )
G1 X-9.784 Y-9.784 Z6.810 F6000.000 (move into position)
G1 F798.000 A417.211 (squirt)
G1 X-9.784 Y9.784 Z6.810 F4800.000 A417.967 (d: 19.568)
G1 X9.784 Y9.784 Z6.810 F4800.000 A418.723 (d: 27.6733)
G1 X9.784 Y-9.784 Z6.810 F4800.000 A419.478 (d: 19.568)
G1 X-9.784 Y-9.784 Z6.810 F4800.000 A420.234 (d: 0)
G1 F798.000 A419.734 (snort)

(inset 1/2 )
(  path 0/1, 5 points,  )
G1 X-9.397 Y-9.397 Z6.810 F6000.000 (move into position)
G1 F798.000 A420.234 (squirt)
G1 X-9.397 Y9.397 Z6.810 F4800.000 A420.959 (d: 18.794)
G1 X9.397 Y9.397 Z6.810 F4800.000 A421.685 (d: 26.5787)
G1 X9.397 Y-9.397 Z6.810 F4800.000 A422.411 (d: 18.794)
G1 X-9.397 Y-9.397 Z6.810 F4800.000 A423.137 (d: 0)
G1 F798.000 A422.637 (snort)

(infills: 1)
(  path 0/1, 8 points,  )
G1 X-9.397 Y-1.830 Z6.810 F6000.000 (move into position)
G1 F798.000 A423.137 (squirt)
G1 X9.397 Y-1.830 Z6.810 F4800.000 A423.862 (d: 18.794)
G1 X9.397 Y2.255 Z6.810 F4800.000 A424.020 (d: 19.2328)
G1 X-9.397 Y2.255 Z6.810 F4800.000 A424.746 (d: 4.085)
G1 X-9.397 Y6.340 Z6.810 F4800.000 A424.903 (d: 8.17)
G1 X9.397 Y6.340 Z6.810 F4800.000 A425.629 (d: 20.493)
G1 X9.397 Y-5.915 Z6.810 F4800.000 A426.102 (d: 19.2328)
G1 X-9.397 Y-5.915 Z6.810 F4800.000 A426.828 (d: 4.085)
G1 F798.000 A426.328 (snort)

(Slice 25, 1 Extruder)
G1 Z7.080 F500.000 (move Z)
(   Extruder 0)
( extruder 0 )
( GSWITCH T0 )
( TODO: add offset management to Gantry )

(inset 0/2 )
(  path 0/1, 5 points,  )
G1 X-9.784 Y-9.784 Z7.080 F6000.000 (move into position)
G1 F798.000 A426.828 (squirt)
G1 X-9.784 Y9.784 Z7.080 F4800.000 A427.584 (d: 19.568)
G1 X9.784 Y9.784 Z7.080 F4800.000 A428.339 (d: 27.6733)
G1 X9.784 Y-9.784 Z7.080 F4800.000 A429.095 (d: 19.568)
G1 X-9.784 Y-9.784 Z7.080 F4800.000 A429.850 (d: 0)
G1 F798.000 A429.350 (snort)

(inset 1/2 )
(  path 0/1, 5 points,  )
G1 X-9.397 Y-9.397 Z7.080 F6000.000 (move into position)
G1 F798.000 A429.850 (squirt)
G1 X-9.397 Y9.397 Z7.080 F4800.000 A430.576 (d: 18.794)
G1 X9.397 Y9.397 Z7.080 F4800.000 A431.302 (d: 26.5787)
G1 X9.397 Y-9.397 Z7.080 F4800.000 A432.028 (d: 18.794)
G1 X-9.397 Y-9.397 Z7.080 F4800.000 A432.753 (d: 0)
G1 F798.000 A432.253 (snort)

(infills: 1)
(  path 0/1, 8 points,  )
G1 X-1.830 Y-9.397 Z7.080 F6000.000 (move into position)
G1 F798.000 A432.753 (squirt)
G1 X-1.830 Y9.397 Z7.080 F4800.000 A433.479 (d: 18.794)
G1 X2.255 Y9.397 Z7.080 F4800.000 A433.637 (d: 19.2328)
G1 X2.255 Y-9.397 Z7.080 F4800.000 A434.362 (d: 4.085)
G1 X6.340 Y-9.397 Z7.080 F4800.000 A434.520 (d: 8.17)
G1 X6.340 Y9.397 Z7.080 F4800.000 A435.246 (d: 20.493)
G1 X-5.915 Y9.397 Z7.080 F4800.000 A435.719 (d: 19.2328)
G1 X-5.915 Y-9.397 Z7.080 F4800.000 A436.445 (d: 4.085)
G1 F798.000 A435.945 (snort)

(Slice 26, 1 Extruder)
G1 Z7.350 F500.000 (move Z)
(   Extruder 0)
( extruder 0 )
( GSWITCH T0 )
( TODO: add offset management to Gantry )

(inset 0/2 )
(  path 0/1, 5 points,  )
G1 X-9.784 Y-9.784 Z7.350 F6000.000 (move into position)
G1 F798.000 A436.445 (squirt)
G1 X-9.784 Y9.784 Z7.350 F4800.000 A437.200 (d: 19.568)
G1 X9.784 Y9.784 Z7.350 F4800.000 A437.956 (d: 27.6733)
G1 X9.784 Y-9.784 Z7.350 F4800.000 A438.712 (d: 19.568)
G1 X-9.784 Y-9.784 Z7.350 F4800.000 A439.467 (d: 0)
G1 F798.000 A438.967 (snort)

(inset 1/2 )
(  path 0/1, 5 points,  )
G1 X-9.397 Y-9.397 Z7.350 F6000.000 (move into position)
G1 F798.000 A439.467 (squirt)
G1 X-9.397 Y9.397 Z7.350 F4800.000 A440.193 (d: 18.794)
G1 X9.397 Y9.397 Z7.350 F4800.000 A440.919 (d: 26.5787)
G1 X9.397 Y-9.397 Z7.350 F4800.000 A441.644 (d: 18.794)
G1 X-9.397 Y-9.397 Z7.350 F4800.000 A442.370 (d: 0)
G1 F798.000 A441.870 (snort)

(infills: 1)
(  path 0/1, 8 points,  )
G1 X-9.397 Y-1.830 Z7.350 F6000.000 (move into position)
G1 F798.000 A442.370 (squirt)
G1 X9.397 Y-1.830 Z7.350 F4800.000 A443.096 (d: 18.794)
G1 X9.397 Y2.255 Z7.350 F4800.000 A443.253 (d: 19.2328)
G1 X-9.397 Y2.255 Z7.350 F4800.000 A443.979 (d: 4.085)
G1 X-9.397 Y6.340 Z7.350 F4800.000 A444.137 (d: 8.17)
G1 X9.397 Y6.340 Z7.350 F4800.000 A444.863 (d: 20.493)
G1 X9.397 Y-5.915 Z7.350 F4800.000 A445.336 (d: 19.2328)
G1 X-9.397 Y-5.915 Z7.350 F4800.000 A446.061 (d: 4.085)
G1 F798.000 A445.561 (snort)

(Slice 27, 1 Extruder)
G1 Z7.620 F500.000 (move Z)
(   Extruder 0)
( extruder 0 )
( GSWITCH T0 )
( TODO: add offset management to Gantry )

(inset 0/2 )
(  path 0/1, 5 points,  )
G1 X-9.784 Y-9.784 Z7.620 F6000.000 (move into position)
G1 F798.000 A446.061 (squirt)
G1 X-9.784 Y9.784 Z7.620 F4800.000 A446.817 (d: 19.568)
G1 X9.784 Y9.784 Z7.620 F4800.000 A447.573 (d: 27.6733)
G1 X9.784 Y-9.784 Z7.620 F4800.000 A448.328 (d: 19.568)
G1 X-9.784 Y-9.784 Z7.620 F4800.000 A449.084 (d: 0)
G1 F798.000 A448.584 (snort)

(inset 1/2 )
(  path 0/1, 5 points,  )
G1 X-9.397 Y-9.397 Z7.620 F6000.000 (move into position)
G1 F798.000 A449.084 (squirt)
G1 X-9.397 Y9.397 Z7.620 F4800.000 A449.810 (d: 18.794)
G1 X9.397 Y9.397 Z7.620 F4800.000 A450.535 (d: 26.5787)
G1 X9.397 Y-9.397 Z7.620 F4800.000 A451.261 (d: 18.794)
G1 X-9.397 Y-9.397 Z7.620 F4800.000 A451.987 (d: 0)
G1 F798.000 A451.487 (snort)

(infills: 1)
(  path 0/1, 8 points,  )
G1 X-1.830 Y-9.397 Z7.620 F6000.000 (move into position)
G1 F798.000 A451.987 (squirt)
G1 X-1.830 Y9.397 Z7.620 F4800.000 A452.712 (d: 18.794)
G1 X2.255 Y9.397 Z7.620 F4800.000 A452.870 (d: 19.2328)
G1 X2.255 Y-9.397 Z7.620 F4800.000 A453.596 (d: 4.085)
G1 X6.340 Y-9.397 Z7.620 F4800.000 A453.754 (d: 8.17)
G1 X6.340 Y9.397 Z7.620 F4800.000 A454.479 (d: 20.493)
G1 X-5.915 Y9.397 Z7.620 F4800.000 A454.952 (d: 19.2328)
G1 X-5.915 Y-9.397 Z7.620 F4800.000 A455.678 (d: 4.085)
G1 F798.000 A455.178 (snort)

(Slice 28, 1 Extruder)
G1 Z7.890 F500.000 (move Z)
(   Extruder 0)
( extruder 0 )
( GSWITCH T0 )
( TODO: add offset management to Gantry )

(inset 0/2 )
(  path 0/1, 5 points,  )
G1 X-9.784 Y-9.784 Z7.890 F6000.000 (move into position)
G1 F798.000 A455.678 (squirt)
G1 X-9.784 Y9.784 Z7.890 F4800.000 A456.434 (d: 19.568)
G1 X9.784 Y9.784 Z7.890 F4800.000 A457.189 (d: 27.6733)
G1 X9.784 Y-9.784 Z7.890 F4800.000 A457.945 (d: 19.568)
G1 X-9.784 Y-9.784 Z7.890 F4800.000 A458.701 (d: 0)
G1 F798.000 A458.201 (snort)

(inset 1/2 )
(  path 0/1, 5 points,  )
G1 X-9.397 Y-9.397 Z7.890 F6000.000 (move into position)
G1 F798.000 A458.701 (squirt)
G1 X-9.397 Y9.397 Z7.890 F4800.000 A459.426 (d: 18.794)
G1 X9.397 Y9.397 Z7.890 F4800.000 A460.152 (d: 26.5787)
G1 X9.397 Y-9.397 Z7.890 F4800.000 A460.878 (d: 18.794)
G1 X-9.397 Y-9.397 Z7.890 F4800.000 A461.603 (d: 0)
G1 F798.000 A461.103 (snort)

(infills: 1)
(  path 0/1, 8 points,  )
G1 X-9.397 Y-1.830 Z7.890 F6000.000 (move into position)
G1 F798.000 A461.603 (squirt)
G1 X9.397 Y-1.830 Z7.890 F4800.000 A462.329 (d: 18.794)
G1 X9.397 Y2.255 Z7.890 F4800.000 A462.487 (d: 19.2328)
G1 X-9.397 Y2.255 Z7.890 F4800.000 A463.213 (d: 4.085)
G1 X-9.397 Y6.340 Z7.890 F4800.000 A463.370 (d: 8.17)
G1 X9.397 Y6.340 Z7.890 F4800.000 A464.096 (d: 20.493)
G1 X9.397 Y-5.915 Z7.890 F4800.000 A464.569 (d: 19.2328)
G1 X-9.397 Y-5.915 Z7.890 F4800.000 A465.295 (d: 4.085)
G1 F798.000 A464.795 (snort)

(Slice 29, 1 Extruder)
G1 Z8.160 F500.000 (move Z)
(   Extruder 0)
( extruder 0 )
( GSWITCH T0 )
( TODO: add offset management to Gantry )

(inset 0/2 )
(  path 0/1, 5 points,  )
G1 X-9.784 Y-9.784 Z8.160 F6000.000 (move into position)
G1 F798.000 A465.295 (squirt)
G1 X-9.784 Y9.784 Z8.160 F4800.000 A466.050 (d: 19.568)
G1 X9.784 Y9.784 Z8.160 F4800.000 A466.806 (d: 27.6733)
G1 X9.784 Y-9.784 Z8.160 F4800.000 A467.562 (d: 19.568)
G1 X-9.784 Y-9.784 Z8.160 F4800.000 A468.317 (d: 0)
G1 F798.000 A467.817 (snort)

(inset 1/2 )
(  path 0/1, 5 points,  )
G1 X-9.397 Y-9.397 Z8.160 F6000.000 (move into position)
G1 F798.000 A468.317 (squirt)
G1 X-9.397 Y9.397 Z8.160 F4800.000 A469.043 (d: 18.794)
G1 X9.397 Y9.397 Z8.160 F4800.000 A469.769 (d: 26.5787)
G1 X9.397 Y-9.397 Z8.160 F4800.000 A470.494 (d: 18.794)
G1 X-9.397 Y-9.397 Z8.160 F4800.000 A471.220 (d: 0)
G1 F798.000 A470.720 (snort)

(infills: 1)
(  path 0/1, 8 points,  )
G1 X-1.830 Y-9.397 Z8.160 F6000.000 (move into position)
G1 F798.000 A471.220 (squirt)
G1 X-1.830 Y9.397 Z8.160 F4800.000 A471.946 (d: 18.794)
G1 X2.255 Y9.397 Z8.160 F4800.000 A472.103 (d: 19.2328)
G1 X2.255 Y-9.397 Z8.160 F4800.000 A472.829 (d: 4.085)
G1 X6.340 Y-9.397 Z8.160 F4800.000 A472.987 (d: 8.17)
G1 X6.340 Y9.397 Z8.160 F4800.000 A473.713 (d: 20.493)
G1 X-5.915 Y9.397 Z8.160 F4800.000 A474.186 (d: 19.2328)
G1 X-5.915 Y-9.397 Z8.160 F4800.000 A474.912 (d: 4.085)
G1 F798.000 A474.412 (snort)

(Slice 30, 1 Extruder)
G1 Z8.430 F500.000 (move Z)
(   Extruder 0)
( extruder 0 )
( GSWITCH T0 )
( TODO: add offset management to Gantry )

(inset 0/2 )
(  path 0/1, 6 points,  )
G1 X-9.784 Y-9.784 Z8.430 F6000.000 (move into position)
G1 F798.000 A474.912 (squirt)
G1 X-9.784 Y9.784 Z8.430 F4800.000 A475.667 (d: 19.568)
G1 X9.784 Y9.784 Z8.430 F4800.000 A476.423 (d: 27.6733)
G1 X9.784 Y-9.785 Z8.430 F4800.000 A477.178 (d: 19.568)
G1 X-6.859 Y-9.784 Z8.430 F4800.000 A477.821 (d: 2.925)
G1 X-9.784 Y-9.784 Z8.430 F4800.000 A477.934 (d: 0)
G1 F798.000 A477.434 (snort)

(inset 1/2 )
(  path 0/1, 6 points,  )
G1 X-9.397 Y-9.397 Z8.430 F6000.000 (move into position)
G1 F798.000 A477.934 (squirt)
G1 X-9.397 Y9.397 Z8.430 F4800.000 A478.660 (d: 18.794)
G1 X9.397 Y9.397 Z8.430 F4800.000 A479.385 (d: 26.5787)
G1 X9.397 Y-9.398 Z8.430 F4800.000 A480.111 (d: 18.794)
G1 X-6.859 Y-9.397 Z8.430 F4800.000 A480.739 (d: 2.538)
G1 X-9.397 Y-9.397 Z8.430 F4800.000 A480.837 (d: 0)
G1 F798.000 A480.337 (snort)

(infills: 1)
(  path 0/1, 92 points,  )
G1 X-9.397 Y-8.775 Z8.430 F6000.000 (move into position)
G1 F798.000 A480.837 (squirt)
G1 X9.397 Y-8.775 Z8.430 F4800.000 A481.563 (d: 18.794)
G1 X9.397 Y-9.183 Z8.430 F4800.000 A481.578 (d: 18.7984)
G1 X-9.397 Y-9.183 Z8.430 F4800.000 A482.304 (d: 0.4085)
G1 X-9.397 Y-8.366 Z8.430 F4800.000 A482.336 (d: 0.4085)
G1 X9.397 Y-8.366 Z8.430 F4800.000 A483.061 (d: 18.7984)
G1 X9.397 Y-7.958 Z8.430 F4800.000 A483.077 (d: 18.8117)
G1 X-9.397 Y-7.958 Z8.430 F4800.000 A483.803 (d: 0.817)
G1 X-9.397 Y-7.549 Z8.430 F4800.000 A483.819 (d: 1.2255)
G1 X9.397 Y-7.549 Z8.430 F4800.000 A484.544 (d: 18.8339)
G1 X9.397 Y-7.141 Z8.430 F4800.000 A484.560 (d: 18.8649)
G1 X-9.397 Y-7.141 Z8.430 F4800.000 A485.286 (d: 1.634)
G1 X-9.397 Y-6.732 Z8.430 F4800.000 A485.301 (d: 2.0425)
G1 X9.397 Y-6.732 Z8.430 F4800.000 A486.027 (d: 18.9047)
G1 X9.397 Y-6.324 Z8.430 F4800.000 A486.043 (d: 18.9531)
G1 X-9.397 Y-6.324 Z8.430 F4800.000 A486.769 (d: 2.451)
G1 X-9.397 Y-5.915 Z8.430 F4800.000 A486.784 (d: 2.8595)
G1 X9.397 Y-5.915 Z8.430 F4800.000 A487.510 (d: 19.0103)
G1 X9.397 Y-5.507 Z8.430 F4800.000 A487.526 (d: 19.076)
G1 X-9.397 Y-5.507 Z8.430 F4800.000 A488.252 (d: 3.268)
G1 X-9.397 Y-5.098 Z8.430 F4800.000 A488.267 (d: 3.6765)
G1 X9.397 Y-5.098 Z8.430 F4800.000 A488.993 (d: 19.1502)
G1 X9.397 Y-4.690 Z8.430 F4800.000 A489.009 (d: 19.2328)
G1 X-9.397 Y-4.690 Z8.430 F4800.000 A489.735 (d: 4.085)
G1 X-9.397 Y-4.281 Z8.430 F4800.000 A489.750 (d: 4.4935)
G1 X9.397 Y-4.281 Z8.430 F4800.000 A490.476 (d: 19.3237)
G1 X9.397 Y-3.873 Z8.430 F4800.000 A490.492 (d: 19.4228)
G1 X-9.397 Y-3.873 Z8.430 F4800.000 A491.218 (d: 4.902)
G1 X-9.397 Y-3.464 Z8.430 F4800.000 A491.233 (d: 5.3105)
G1 X9.397 Y-3.464 Z8.430 F4800.000 A491.959 (d: 19.5299)
G1 X9.397 Y-3.056 Z8.430 F4800.000 A491.975 (d: 19.6449)
G1 X-9.397 Y-3.056 Z8.430 F4800.000 A492.700 (d: 5.719)
G1 X-9.397 Y-2.647 Z8.430 F4800.000 A492.716 (d: 6.1275)
G1 X9.397 Y-2.647 Z8.430 F4800.000 A493.442 (d: 19.7677)
G1 X9.397 Y-2.239 Z8.430 F4800.000 A493.458 (d: 19.8981)
G1 X-9.397 Y-2.239 Z8.430 F4800.000 A494.183 (d: 6.536)
G1 X-9.397 Y-1.830 Z8.430 F4800.000 A494.199 (d: 6.9445)
G1 X9.397 Y-1.830 Z8.430 F4800.000 A494.925 (d: 20.036)
G1 X9.397 Y-1.422 Z8.430 F4800.000 A494.941 (d: 20.1812)
G1 X-9.397 Y-1.422 Z8.430 F4800.000 A495.666 (d: 7.353)
G1 X-9.397 Y-1.013 Z8.430 F4800.000 A495.682 (d: 7.7615)
G1 X9.397 Y-1.013 Z8.430 F4800.000 A496.408 (d: 20.3336)
G1 X9.397 Y-0.605 Z8.430 F4800.000 A496.424 (d: 20.493)
G1 X-9.397 Y-0.605 Z8.430 F4800.000 A497.149 (d: 8.17)
G1 X-9.397 Y-0.196 Z8.430 F4800.000 A497.165 (d: 8.5785)
G1 X9.397 Y-0.196 Z8.430 F4800.000 A497.891 (d: 20.6593)
G1 X9.397 Y0.212 Z8.430 F4800.000 A497.907 (d: 20.8322)
G1 X-9.397 Y0.212 Z8.430 F4800.000 A498.632 (d: 8.987)
G1 X-9.397 Y0.621 Z8.430 F4800.000 A498.648 (d: 9.3955)
G1 X9.397 Y0.621 Z8.430 F4800.000 A499.374 (d: 21.0117)
G1 X9.397 Y1.029 Z8.430 F4800.000 A499.390 (d: 21.1975)
G1 X-9.397 Y1.029 Z8.430 F4800.000 A500.115 (d: 9.804)
G1 X-9.397 Y1.438 Z8.430 F4800.000 A500.131 (d: 10.2125)
G1 X9.397 Y1.438 Z8.430 F4800.000 A500.857 (d: 21.3895)
G1 X9.397 Y1.846 Z8.430 F4800.000 A500.873 (d: 21.5875)
G1 X-9.397 Y1.846 Z8.430 F4800.000 A501.598 (d: 10.621)
G1 X-9.397 Y2.255 Z8.430 F4800.000 A501.614 (d: 11.0295)
G1 X9.397 Y2.255 Z8.430 F4800.000 A502.340 (d: 21.7914)
G1 X9.397 Y2.663 Z8.430 F4800.000 A502.355 (d: 22.001)
G1 X-9.397 Y2.663 Z8.430 F4800.000 A503.081 (d: 11.438)
G1 X-9.397 Y3.072 Z8.430 F4800.000 A503.097 (d: 11.8465)
G1 X9.397 Y3.072 Z8.430 F4800.000 A503.823 (d: 22.2161)
G1 X9.397 Y3.480 Z8.430 F4800.000 A503.838 (d: 22.4366)
G1 X-9.397 Y3.480 Z8.430 F4800.000 A504.564 (d: 12.255)
G1 X-9.397 Y3.889 Z8.430 F4800.000 A504.580 (d: 12.6635)
G1 X9.397 Y3.889 Z8.430 F4800.000 A505.306 (d: 22.6623)
G1 X9.397 Y4.297 Z8.430 F4800.000 A505.321 (d: 22.893)
G1 X-9.397 Y4.297 Z8.430 F4800.000 A506.047 (d: 13.072)
G1 X-9.397 Y4.706 Z8.430 F4800.000 A506.063 (d: 13.4805)
G1 X9.397 Y4.706 Z8.430 F4800.000 A506.789 (d: 23.1287)
G1 X9.397 Y5.114 Z8.430 F4800.000 A506.804 (d: 23.3692)
G1 X-9.397 Y5.114 Z8.430 F4800.000 A507.530 (d: 13.889)
G1 X-9.397 Y5.523 Z8.430 F4800.000 A507.546 (d: 14.2975)
G1 X9.397 Y5.523 Z8.430 F4800.000 A508.272 (d: 23.6143)
G1 X9.397 Y5.931 Z8.430 F4800.000 A508.287 (d: 23.8638)
G1 X-9.397 Y5.931 Z8.430 F4800.000 A509.013 (d: 14.706)
G1 X-9.397 Y6.340 Z8.430 F4800.000 A509.029 (d: 15.1145)
G1 X9.397 Y6.340 Z8.430 F4800.000 A509.755 (d: 24.1177)
G1 X9.397 Y6.748 Z8.430 F4800.000 A509.770 (d: 24.3758)
G1 X-9.397 Y6.748 Z8.430 F4800.000 A510.496 (d: 15.523)
G1 X-9.397 Y7.157 Z8.430 F4800.000 A510.512 (d: 15.9315)
G1 X9.397 Y7.157 Z8.430 F4800.000 A511.237 (d: 24.6379)
G1 X9.397 Y7.565 Z8.430 F4800.000 A511.253 (d: 24.904)
G1 X-9.397 Y7.565 Z8.430 F4800.000 A511.979 (d: 16.34)
G1 X-9.397 Y7.974 Z8.430 F4800.000 A511.995 (d: 16.7485)
G1 X9.397 Y7.974 Z8.430 F4800.000 A512.720 (d: 25.1739)
G1 X9.397 Y8.382 Z8.430 F4800.000 A512.736 (d: 25.4475)
G1 X-9.397 Y8.382 Z8.430 F4800.000 A513.462 (d: 17.157)
G1 X-9.397 Y8.791 Z8.430 F4800.000 A513.478 (d: 17.5655)
G1 X9.397 Y8.791 Z8.430 F4800.000 A514.203 (d: 25.7247)
G1 X9.397 Y9.199 Z8.430 F4800.000 A514.219 (d: 26.0054)
G1 X-9.397 Y9.199 Z8.430 F4800.000 A514.945 (d: 17.974)
G1 F798.000 A514.445 (snort)

(Slice 31, 1 Extruder)
G1 Z8.700 F500.000 (move Z)
(   Extruder 0)
( extruder 0 )
( GSWITCH T0 )
( TODO: add offset management to Gantry )

(inset 0/2 )
(  path 0/1, 6 points,  )
G1 X-9.784 Y-9.784 Z8.700 F6000.000 (move into position)
G1 F798.000 A514.945 (squirt)
G1 X-9.784 Y9.784 Z8.700 F4800.000 A515.700 (d: 19.568)
G1 X9.784 Y9.784 Z8.700 F4800.000 A516.456 (d: 27.6733)
G1 X9.784 Y-9.785 Z8.700 F4800.000 A517.212 (d: 19.568)
G1 X-7.399 Y-9.784 Z8.700 F4800.000 A517.875 (d: 2.385)
G1 X-9.784 Y-9.784 Z8.700 F4800.000 A517.967 (d: 0)
G1 F798.000 A517.467 (snort)

(inset 1/2 )
(  path 0/1, 6 points,  )
G1 X-9.397 Y-9.397 Z8.700 F6000.000 (move into position)
G1 F798.000 A517.967 (squirt)
G1 X-9.397 Y9.397 Z8.700 F4800.000 A518.693 (d: 18.794)
G1 X9.397 Y9.397 Z8.700 F4800.000 A519.419 (d: 26.5787)
G1 X9.397 Y-9.398 Z8.700 F4800.000 A520.144 (d: 18.794)
G1 X-7.399 Y-9.397 Z8.700 F4800.000 A520.793 (d: 1.998)
G1 X-9.397 Y-9.397 Z8.700 F4800.000 A520.870 (d: 0)
G1 F798.000 A520.370 (snort)

(infills: 1)
(  path 0/1, 92 points,  )
G1 X-8.774 Y-9.397 Z8.700 F6000.000 (move into position)
G1 F798.000 A520.870 (squirt)
G1 X-8.774 Y9.397 Z8.700 F4800.000 A521.596 (d: 18.794)
G1 X-9.183 Y9.397 Z8.700 F4800.000 A521.612 (d: 18.7984)
G1 X-9.183 Y-9.397 Z8.700 F4800.000 A522.337 (d: 0.4085)
G1 X-8.366 Y-9.397 Z8.700 F4800.000 A522.369 (d: 0.4085)
G1 X-8.366 Y9.397 Z8.700 F4800.000 A523.095 (d: 18.7984)
G1 X-7.957 Y9.397 Z8.700 F4800.000 A523.110 (d: 18.8117)
G1 X-7.957 Y-9.397 Z8.700 F4800.000 A523.836 (d: 0.817)
G1 X-7.549 Y-9.397 Z8.700 F4800.000 A523.852 (d: 1.2255)
G1 X-7.549 Y9.397 Z8.700 F4800.000 A524.578 (d: 18.8339)
G1 X-7.140 Y9.397 Z8.700 F4800.000 A524.593 (d: 18.8649)
G1 X-7.140 Y-9.397 Z8.700 F4800.000 A525.319 (d: 1.634)
G1 X-6.732 Y-9.397 Z8.700 F4800.000 A525.335 (d: 2.0425)
G1 X-6.732 Y9.397 Z8.700 F4800.000 A526.060 (d: 18.9047)
G1 X-6.323 Y9.397 Z8.700 F4800.000 A526.076 (d: 18.9531)
G1 X-6.323 Y-9.397 Z8.700 F4800.000 A526.802 (d: 2.451)
G1 X-5.915 Y-9.397 Z8.700 F4800.000 A526.818 (d: 2.8595)
G1 X-5.915 Y9.397 Z8.700 F4800.000 A527.543 (d: 19.0103)
G1 X-5.506 Y9.397 Z8.700 F4800.000 A527.559 (d: 19.076)
G1 X-5.506 Y-9.397 Z8.700 F4800.000 A528.285 (d: 3.268)
G1 X-5.098 Y-9.397 Z8.700 F4800.000 A528.301 (d: 3.6765)
G1 X-5.098 Y9.397 Z8.700 F4800.000 A529.026 (d: 19.1502)
G1 X-4.689 Y9.397 Z8.700 F4800.000 A529.042 (d: 19.2328)
G1 X-4.689 Y-9.397 Z8.700 F4800.000 A529.768 (d: 4.085)
G1 X-4.281 Y-9.397 Z8.700 F4800.000 A529.784 (d: 4.4935)
G1 X-4.281 Y9.397 Z8.700 F4800.000 A530.509 (d: 19.3237)
G1 X-3.872 Y9.397 Z8.700 F4800.000 A530.525 (d: 19.4228)
G1 X-3.872 Y-9.397 Z8.700 F4800.000 A531.251 (d: 4.902)
G1 X-3.464 Y-9.397 Z8.700 F4800.000 A531.267 (d: 5.3105)
G1 X-3.464 Y9.397 Z8.700 F4800.000 A531.992 (d: 19.5299)
G1 X-3.055 Y9.397 Z8.700 F4800.000 A532.008 (d: 19.6449)
G1 X-3.055 Y-9.397 Z8.700 F4800.000 A532.734 (d: 5.719)
G1 X-2.647 Y-9.397 Z8.700 F4800.000 A532.750 (d: 6.1275)
G1 X-2.647 Y9.397 Z8.700 F4800.000 A533.475 (d: 19.7677)
G1 X-2.238 Y9.397 Z8.700 F4800.000 A533.491 (d: 19.8981)
G1 X-2.238 Y-9.397 Z8.700 F4800.000 A534.217 (d: 6.536)
G1 X-1.830 Y-9.397 Z8.700 F4800.000 A534.233 (d: 6.9445)
G1 X-1.830 Y9.397 Z8.700 F4800.000 A534.958 (d: 20.036)
G1 X-1.421 Y9.397 Z8.700 F4800.000 A534.974 (d: 20.1812)
G1 X-1.421 Y-9.397 Z8.700 F4800.000 A535.700 (d: 7.353)
G1 X-1.013 Y-9.397 Z8.700 F4800.000 A535.716 (d: 7.7615)
G1 X-1.013 Y9.397 Z8.700 F4800.000 A536.441 (d: 20.3336)
G1 X-0.604 Y9.397 Z8.700 F4800.000 A536.457 (d: 20.493)
G1 X-0.604 Y-9.397 Z8.700 F4800.000 A537.183 (d: 8.17)
G1 X-0.196 Y-9.397 Z8.700 F4800.000 A537.199 (d: 8.5785)
G1 X-0.196 Y9.397 Z8.700 F4800.000 A537.924 (d: 20.6593)
G1 X0.213 Y9.397 Z8.700 F4800.000 A537.940 (d: 20.8322)
G1 X0.213 Y-9.397 Z8.700 F4800.000 A538.666 (d: 8.987)
G1 X0.621 Y-9.397 Z8.700 F4800.000 A538.682 (d: 9.3955)
G1 X0.621 Y9.397 Z8.700 F4800.000 A539.407 (d: 21.0117)
G1 X1.030 Y9.397 Z8.700 F4800.000 A539.423 (d: 21.1975)
G1 X1.030 Y-9.398 Z8.700 F4800.000 A540.149 (d: 9.804)
G1 X1.438 Y-9.398 Z8.700 F4800.000 A540.165 (d: 10.2125)
G1 X1.438 Y9.397 Z8.700 F4800.000 A540.890 (d: 21.3895)
G1 X1.847 Y9.397 Z8.700 F4800.000 A540.906 (d: 21.5875)
G1 X1.847 Y-9.398 Z8.700 F4800.000 A541.632 (d: 10.621)
G1 X2.255 Y-9.398 Z8.700 F4800.000 A541.648 (d: 11.0295)
G1 X2.255 Y9.397 Z8.700 F4800.000 A542.373 (d: 21.7914)
G1 X2.664 Y9.397 Z8.700 F4800.000 A542.389 (d: 22.001)
G1 X2.664 Y-9.398 Z8.700 F4800.000 A543.115 (d: 11.438)
G1 X3.072 Y-9.398 Z8.700 F4800.000 A543.131 (d: 11.8465)
G1 X3.072 Y9.397 Z8.700 F4800.000 A543.856 (d: 22.2161)
G1 X3.481 Y9.397 Z8.700 F4800.000 A543.872 (d: 22.4366)
G1 X3.481 Y-9.398 Z8.700 F4800.000 A544.598 (d: 12.255)
G1 X3.889 Y-9.398 Z8.700 F4800.000 A544.614 (d: 12.6635)
G1 X3.889 Y9.397 Z8.700 F4800.000 A545.339 (d: 22.6623)
G1 X4.298 Y9.397 Z8.700 F4800.000 A545.355 (d: 22.893)
G1 X4.298 Y-9.398 Z8.700 F4800.000 A546.081 (d: 13.072)
G1 X4.706 Y-9.398 Z8.700 F4800.000 A546.097 (d: 13.4805)
G1 X4.706 Y9.397 Z8.700 F4800.000 A546.822 (d: 23.1287)
G1 X5.115 Y9.397 Z8.700 F4800.000 A546.838 (d: 23.3692)
G1 X5.115 Y-9.398 Z8.700 F4800.000 A547.564 (d: 13.889)
G1 X5.523 Y-9.398 Z8.700 F4800.000 A547.580 (d: 14.2975)
G1 X5.523 Y9.397 Z8.700 F4800.000 A548.305 (d: 23.6143)
G1 X5.932 Y9.397 Z8.700 F4800.000 A548.321 (d: 23.8638)
G1 X5.932 Y-9.398 Z8.700 F4800.000 A549.047 (d: 14.706)
G1 X6.340 Y-9.398 Z8.700 F4800.000 A549.063 (d: 15.1145)
G1 X6.340 Y9.397 Z8.700 F4800.000 A549.788 (d: 24.1177)
G1 X6.749 Y9.397 Z8.700 F4800.000 A549.804 (d: 24.3758)
G1 X6.749 Y-9.398 Z8.700 F4800.000 A550.530 (d: 15.523)
G1 X7.157 Y-9.398 Z8.700 F4800.000 A550.546 (d: 15.9315)
G1 X7.157 Y9.397 Z8.700 F4800.000 A551.271 (d: 24.6379)
G1 X7.566 Y9.397 Z8.700 F4800.000 A551.287 (d: 24.904)
G1 X7.566 Y-9.398 Z8.700 F4800.000 A552.013 (d: 16.34)
G1 X7.974 Y-9.398 Z8.700 F4800.000 A552.029 (d: 16.7485)
G1 X7.974 Y9.397 Z8.700 F4800.000 A552.754 (d: 25.1739)
G1 X8.383 Y9.397 Z8.700 F4800.000 A552.770 (d: 25.4475)
G1 X8.383 Y-9.398 Z8.700 F4800.000 A553.496 (d: 17.157)
G1 X8.791 Y-9.398 Z8.700 F4800.000 A553.512 (d: 17.5655)
G1 X8.791 Y9.397 Z8.700 F4800.000 A554.237 (d: 25.7247)
G1 X9.200 Y9.397 Z8.700 F4800.000 A554.253 (d: 26.0054)
G1 X9.200 Y-9.398 Z8.700 F4800.000 A554.979 (d: 17.974)
G1 F798.000 A554.479 (snort)

(Slice 32, 1 Extruder)
G1 Z8.970 F500.000 (move Z)
(   Extruder 0)
( extruder 0 )
( GSWITCH T0 )
( TODO: add offset management to Gantry )

(inset 0/2 )
(  path 0/1, 6 points,  )
G1 X-9.784 Y-9.784 Z8.970 F6000.000 (move into position)
G1 F798.000 A554.979 (squirt)
G1 X-9.784 Y9.784 Z8.970 F4800.000 A555.735 (d: 19.568)
G1 X9.784 Y9.784 Z8.970 F4800.000 A556.490 (d: 27.6733)
G1 X9.784 Y-9.785 Z8.970 F4800.000 A557.246 (d: 19.568)
G1 X-7.939 Y-9.784 Z8.970 F4800.000 A557.930 (d: 1.845)
G1 X-9.784 Y-9.784 Z8.970 F4800.000 A558.001 (d: 0)
G1 F798.000 A557.501 (snort)

(inset 1/2 )
(  path 0/1, 6 points,  )
G1 X-9.397 Y-9.397 Z8.970 F6000.000 (move into position)
G1 F798.000 A558.001 (squirt)
G1 X-9.397 Y9.397 Z8.970 F4800.000 A558.727 (d: 18.794)
G1 X9.397 Y9.397 Z8.970 F4800.000 A559.453 (d: 26.5787)
G1 X9.397 Y-9.398 Z8.970 F4800.000 A560.179 (d: 18.794)
G1 X-7.939 Y-9.397 Z8.970 F4800.000 A560.848 (d: 1.458)
G1 X-9.397 Y-9.397 Z8.970 F4800.000 A560.904 (d: 0)
G1 F798.000 A560.404 (snort)

(infills: 1)
(  path 0/1, 92 points,  )
G1 X-9.397 Y-8.775 Z8.970 F6000.000 (move into position)
G1 F798.000 A560.904 (squirt)
G1 X9.397 Y-8.775 Z8.970 F4800.000 A561.630 (d: 18.794)
G1 X9.397 Y-9.183 Z8.970 F4800.000 A561.646 (d: 18.7984)
G1 X-9.397 Y-9.183 Z8.970 F4800.000 A562.371 (d: 0.4085)
G1 X-9.397 Y-8.366 Z8.970 F4800.000 A562.403 (d: 0.4085)
G1 X9.397 Y-8.366 Z8.970 F4800.000 A563.129 (d: 18.7984)
G1 X9.397 Y-7.958 Z8.970 F4800.000 A563.144 (d: 18.8117)
G1 X-9.397 Y-7.958 Z8.970 F4800.000 A563.870 (d: 0.817)
G1 X-9.397 Y-7.549 Z8.970 F4800.000 A563.886 (d: 1.2255)
G1 X9.397 Y-7.549 Z8.970 F4800.000 A564.612 (d: 18.8339)
G1 X9.397 Y-7.141 Z8.970 F4800.000 A564.627 (d: 18.8649)
G1 X-9.397 Y-7.141 Z8.970 F4800.000 A565.353 (d: 1.634)
G1 X-9.397 Y-6.732 Z8.970 F4800.000 A565.369 (d: 2.0425)
G1 X9.397 Y-6.732 Z8.970 F4800.000 A566.095 (d: 18.9047)
G1 X9.397 Y-6.324 Z8.970 F4800.000 A566.110 (d: 18.9531)
G1 X-9.397 Y-6.324 Z8.970 F4800.000 A566.836 (d: 2.451)
G1 X-9.397 Y-5.915 Z8.970 F4800.000 A566.852 (d: 2.8595)
G1 X9.397 Y-5.915 Z8.970 F4800.000 A567.578 (d: 19.0103)
G1 X9.397 Y-5.507 Z8.970 F4800.000 A567.593 (d: 19.076)
G1 X-9.397 Y-5.507 Z8.970 F4800.000 A568.319 (d: 3.268)
G1 X-9.397 Y-5.098 Z8.970 F4800.000 A568.335 (d: 3.6765)
G1 X9.397 Y-5.098 Z8.970 F4800.000 A569.061 (d: 19.1502)
G1 X9.397 Y-4.690 Z8.970 F4800.000 A569.076 (d: 19.2328)
G1 X-9.397 Y-4.690 Z8.970 F4800.000 A569.802 (d: 4.085)
G1 X-9.397 Y-4.281 Z8.970 F4800.000 A569.818 (d: 4.4935)
G1 X9.397 Y-4.281 Z8.970 F4800.000 A570.543 (d: 19.3237)
G1 X9.397 Y-3.873 Z8.970 F4800.000 A570.559 (d: 19.4228)
G1 X-9.397 Y-3.873 Z8.970 F4800.000 A571.285 (d: 4.902)
G1 X-9.397 Y-3.464 Z8.970 F4800.000 A571.301 (d: 5.3105)
G1 X9.397 Y-3.464 Z8.970 F4800.000 A572.026 (d: 19.5299)
G1 X9.397 Y-3.056 Z8.970 F4800.000 A572.042 (d: 19.6449)
G1 X-9.397 Y-3.056 Z8.970 F4800.000 A572.768 (d: 5.719)
G1 X-9.397 Y-2.647 Z8.970 F4800.000 A572.784 (d: 6.1275)
G1 X9.397 Y-2.647 Z8.970 F4800.000 A573.509 (d: 19.7677)
G1 X9.397 Y-2.239 Z8.970 F4800.000 A573.525 (d: 19.8981)
G1 X-9.397 Y-2.239 Z8.970 F4800.000 A574.251 (d: 6.536)
G1 X-9.397 Y-1.830 Z8.970 F4800.000 A574.267 (d: 6.9445)
G1 X9.397 Y-1.830 Z8.970 F4800.000 A574.992 (d: 20.036)
G1 X9.397 Y-1.422 Z8.970 F4800.000 A575.008 (d: 20.1812)
G1 X-9.397 Y-1.422 Z8.970 F4800.000 A575.734 (d: 7.353)
G1 X-9.397 Y-1.013 Z8.970 F4800.000 A575.750 (d: 7.7615)
G1 X9.397 Y-1.013 Z8.970 F4800.000 A576.475 (d: 20.3336)
G1 X9.397 Y-0.605 Z8.970 F4800.000 A576.491 (d: 20.493)
G1 X-9.397 Y-0.605 Z8.970 F4800.000 A577.217 (d: 8.17)
G1 X-9.397 Y-0.196 Z8.970 F4800.000 A577.233 (d: 8.5785)
G1 X9.397 Y-0.196 Z8.970 F4800.000 A577.958 (d: 20.6593)
G1 X9.397 Y0.212 Z8.970 F4800.000 A577.974 (d: 20.8322)
G1 X-9.397 Y0.212 Z8.970 F4800.000 A578.700 (d: 8.987)
G1 X-9.397 Y0.621 Z8.970 F4800.000 A578.716 (d: 9.3955)
G1 X9.397 Y0.621 Z8.970 F4800.000 A579.441 (d: 21.0117)
G1 X9.397 Y1.029 Z8.970 F4800.000 A579.457 (d: 21.1975)
G1 X-9.397 Y1.029 Z8.970 F4800.000 A580.183 (d: 9.804)
G1 X-9.397 Y1.438 Z8.970 F4800.000 A580.198 (d: 10.2125)
G1 X9.397 Y1.438 Z8.970 F4800.000 A580.924 (d: 21.3895)
G1 X9.397 Y1.846 Z8.970 F4800.000 A580.940 (d: 21.5875)
G1 X-9.397 Y1.846 Z8.970 F4800.000 A581.666 (d: 10.621)
G1 X-9.397 Y2.255 Z8.970 F4800.000 A581.681 (d: 11.0295)
G1 X9.397 Y2.255 Z8.970 F4800.000 A582.407 (d: 21.7914)
G1 X9.397 Y2.663 Z8.970 F4800.000 A582.423 (d: 22.001)
G1 X-9.397 Y2.663 Z8.970 F4800.000 A583.149 (d: 11.438)
G1 X-9.397 Y3.072 Z8.970 F4800.000 A583.164 (d: 11.8465)
G1 X9.397 Y3.072 Z8.970 F4800.000 A583.890 (d: 22.2161)
G1 X9.397 Y3.480 Z8.970 F4800.000 A583.906 (d: 22.4366)
G1 X-9.397 Y3.480 Z8.970 F4800.000 A584.632 (d: 12.255)
G1 X-9.397 Y3.889 Z8.970 F4800.000 A584.647 (d: 12.6635)
G1 X9.397 Y3.889 Z8.970 F4800.000 A585.373 (d: 22.6623)
G1 X9.397 Y4.297 Z8.970 F4800.000 A585.389 (d: 22.893)
G1 X-9.397 Y4.297 Z8.970 F4800.000 A586.115 (d: 13.072)
G1 X-9.397 Y4.706 Z8.970 F4800.000 A586.130 (d: 13.4805)
G1 X9.397 Y4.706 Z8.970 F4800.000 A586.856 (d: 23.1287)
G1 X9.397 Y5.114 Z8.970 F4800.000 A586.872 (d: 23.3692)
G1 X-9.397 Y5.114 Z8.970 F4800.000 A587.597 (d: 13.889)
G1 X-9.397 Y5.523 Z8.970 F4800.000 A587.613 (d: 14.2975)
G1 X9.397 Y5.523 Z8.970 F4800.000 A588.339 (d: 23.6143)
G1 X9.397 Y5.931 Z8.970 F4800.000 A588.355 (d: 23.8638)
G1 X-9.397 Y5.931 Z8.970 F4800.000 A589.080 (d: 14.706)
G1 X-9.397 Y6.340 Z8.970 F4800.000 A589.096 (d: 15.1145)
G1 X9.397 Y6.340 Z8.970 F4800.000 A589.822 (d: 24.1177)
G1 X9.397 Y6.748 Z8.970 F4800.000 A589.838 (d: 24.3758)
G1 X-9.397 Y6.748 Z8.970 F4800.000 A590.563 (d: 15.523)
G1 X-9.397 Y7.157 Z8.970 F4800.000 A590.579 (d: 15.9315)
G1 X9.397 Y7.157 Z8.970 F4800.000 A591.305 (d: 24.6379)
G1 X9.397 Y7.565 Z8.970 F4800.000 A591.321 (d: 24.904)
G1 X-9.397 Y7.565 Z8.970 F4800.000 A592.046 (d: 16.34)
G1 X-9.397 Y7.974 Z8.970 F4800.000 A592.062 (d: 16.7485)
G1 X9.397 Y7.974 Z8.970 F4800.000 A592.788 (d: 25.1739)
G1 X9.397 Y8.382 Z8.970 F4800.000 A592.804 (d: 25.4475)
G1 X-9.397 Y8.382 Z8.970 F4800.000 A593.529 (d: 17.157)
G1 X-9.397 Y8.791 Z8.970 F4800.000 A593.545 (d: 17.5655)
G1 X9.397 Y8.791 Z8.970 F4800.000 A594.271 (d: 25.7247)
G1 X9.397 Y9.199 Z8.970 F4800.000 A594.287 (d: 26.0054)
G1 X-9.397 Y9.199 Z8.970 F4800.000 A595.012 (d: 17.974)
G1 F798.000 A594.512 (snort)

(Slice 33, 1 Extruder)
G1 Z9.240 F500.000 (move Z)
(   Extruder 0)
( extruder 0 )
( GSWITCH T0 )
( TODO: add offset management to Gantry )

(inset 0/2 )
(  path 0/1, 6 points,  )
G1 X-9.784 Y-9.784 Z9.240 F6000.000 (move into position)
G1 F798.000 A595.012 (squirt)
G1 X-9.784 Y9.784 Z9.240 F4800.000 A595.768 (d: 19.568)
G1 X9.784 Y9.784 Z9.240 F4800.000 A596.523 (d: 27.6733)
G1 X9.784 Y-9.785 Z9.240 F4800.000 A597.279 (d: 19.568)
G1 X-8.479 Y-9.784 Z9.240 F4800.000 A597.984 (d: 1.305)
G1 X-9.784 Y-9.784 Z9.240 F4800.000 A598.035 (d: 0)
G1 F798.000 A597.535 (snort)

(inset 1/2 )
(  path 0/1, 6 points,  )
G1 X-9.397 Y-9.397 Z9.240 F6000.000 (move into position)
G1 F798.000 A598.035 (squirt)
G1 X-9.397 Y9.397 Z9.240 F4800.000 A598.760 (d: 18.794)
G1 X9.397 Y9.397 Z9.240 F4800.000 A599.486 (d: 26.5787)
G1 X9.397 Y-9.398 Z9.240 F4800.000 A600.212 (d: 18.794)
G1 X-8.479 Y-9.397 Z9.240 F4800.000 A600.902 (d: 0.918)
G1 X-9.397 Y-9.397 Z9.240 F4800.000 A600.938 (d: 0)
G1 F798.000 A600.438 (snort)

(infills: 1)
(  path 0/1, 92 points,  )
G1 X-8.774 Y-9.397 Z9.240 F6000.000 (move into position)
G1 F798.000 A600.938 (squirt)
G1 X-8.774 Y9.397 Z9.240 F4800.000 A601.663 (d: 18.794)
G1 X-9.183 Y9.397 Z9.240 F4800.000 A601.679 (d: 18.7984)
G1 X-9.183 Y-9.397 Z9.240 F4800.000 A602.405 (d: 0.4085)
G1 X-8.366 Y-9.397 Z9.240 F4800.000 A602.436 (d: 0.4085)
G1 X-8.366 Y9.397 Z9.240 F4800.000 A603.162 (d: 18.7984)
G1 X-7.957 Y9.397 Z9.240 F4800.000 A603.178 (d: 18.8117)
G1 X-7.957 Y-9.397 Z9.240 F4800.000 A603.903 (d: 0.817)
G1 X-7.549 Y-9.397 Z9.240 F4800.000 A603.919 (d: 1.2255)
G1 X-7.549 Y9.397 Z9.240 F4800.000 A604.645 (d: 18.8339)
G1 X-7.140 Y9.397 Z9.240 F4800.000 A604.661 (d: 18.8649)
G1 X-7.140 Y-9.397 Z9.240 F4800.000 A605.386 (d: 1.634)
G1 X-6.732 Y-9.397 Z9.240 F4800.000 A605.402 (d: 2.0425)
G1 X-6.732 Y9.397 Z9.240 F4800.000 A606.128 (d: 18.9047)
G1 X-6.323 Y9.397 Z9.240 F4800.000 A606.144 (d: 18.9531)
G1 X-6.323 Y-9.397 Z9.240 F4800.000 A606.869 (d: 2.451)
G1 X-5.915 Y-9.397 Z9.240 F4800.000 A606.885 (d: 2.8595)
G1 X-5.915 Y9.397 Z9.240 F4800.000 A607.611 (d: 19.0103)
G1 X-5.506 Y9.397 Z9.240 F4800.000 A607.627 (d: 19.076)
G1 X-5.506 Y-9.397 Z9.240 F4800.000 A608.352 (d: 3.268)
G1 X-5.098 Y-9.397 Z9.240 F4800.000 A608.368 (d: 3.6765)
G1 X-5.098 Y9.397 Z9.240 F4800.000 A609.094 (d: 19.1502)
G1 X-4.689 Y9.397 Z9.240 F4800.000 A609.110 (d: 19.2328)
G1 X-4.689 Y-9.397 Z9.240 F4800.000 A609.835 (d: 4.085)
G1 X-4.281 Y-9.397 Z9.240 F4800.000 A609.851 (d: 4.4935)
G1 X-4.281 Y9.397 Z9.240 F4800.000 A610.577 (d: 19.3237)
G1 X-3.872 Y9.397 Z9.240 F4800.000 A610.593 (d: 19.4228)
G1 X-3.872 Y-9.397 Z9.240 F4800.000 A611.318 (d: 4.902)
G1 X-3.464 Y-9.397 Z9.240 F4800.000 A611.334 (d: 5.3105)
G1 X-3.464 Y9.397 Z9.240 F4800.000 A612.060 (d: 19.5299)
G1 X-3.055 Y9.397 Z9.240 F4800.000 A612.076 (d: 19.6449)
G1 X-3.055 Y-9.397 Z9.240 F4800.000 A612.801 (d: 5.719)
G1 X-2.647 Y-9.397 Z9.240 F4800.000 A612.817 (d: 6.1275)
G1 X-2.647 Y9.397 Z9.240 F4800.000 A613.543 (d: 19.7677)
G1 X-2.238 Y9.397 Z9.240 F4800.000 A613.559 (d: 19.8981)
G1 X-2.238 Y-9.397 Z9.240 F4800.000 A614.284 (d: 6.536)
G1 X-1.830 Y-9.397 Z9.240 F4800.000 A614.300 (d: 6.9445)
G1 X-1.830 Y9.397 Z9.240 F4800.000 A615.026 (d: 20.036)
G1 X-1.421 Y9.397 Z9.240 F4800.000 A615.042 (d: 20.1812)
G1 X-1.421 Y-9.397 Z9.240 F4800.000 A615.767 (d: 7.353)
G1 X-1.013 Y-9.397 Z9.240 F4800.000 A615.783 (d: 7.7615)
G1 X-1.013 Y9.397 Z9.240 F4800.000 A616.509 (d: 20.3336)
G1 X-0.604 Y9.397 Z9.240 F4800.000 A616.525 (d: 20.493)
G1 X-0.604 Y-9.397 Z9.240 F4800.000 A617.250 (d: 8.17)
G1 X-0.196 Y-9.397 Z9.240 F4800.000 A617.266 (d: 8.5785)
G1 X-0.196 Y9.397 Z9.240 F4800.000 A617.992 (d: 20.6593)
G1 X0.213 Y9.397 Z9.240 F4800.000 A618.008 (d: 20.8322)
G1 X0.213 Y-9.397 Z9.240 F4800.000 A618.733 (d: 8.987)
G1 X0.621 Y-9.398 Z9.240 F4800.000 A618.749 (d: 9.3955)
G1 X0.621 Y9.397 Z9.240 F4800.000 A619.475 (d: 21.0117)
G1 X1.030 Y9.397 Z9.240 F4800.000 A619.491 (d: 21.1975)
G1 X1.030 Y-9.398 Z9.240 F4800.000 A620.216 (d: 9.804)
G1 X1.438 Y-9.398 Z9.240 F4800.000 A620.232 (d: 10.2125)
G1 X1.438 Y9.397 Z9.240 F4800.000 A620.958 (d: 21.3895)
G1 X1.847 Y9.397 Z9.240 F4800.000 A620.974 (d: 21.5875)
G1 X1.847 Y-9.398 Z9.240 F4800.000 A621.699 (d: 10.621)
G1 X2.255 Y-9.398 Z9.240 F4800.000 A621.715 (d: 11.0295)
G1 X2.255 Y9.397 Z9.240 F4800.000 A622.441 (d: 21.7914)
G1 X2.664 Y9.397 Z9.240 F4800.000 A622.457 (d: 22.001)
G1 X2.664 Y-9.398 Z9.240 F4800.000 A623.182 (d: 11.438)
G1 X3.072 Y-9.398 Z9.240 F4800.000 A623.198 (d: 11.8465)
G1 X3.072 Y9.397 Z9.240 F4800.000 A623.924 (d: 22.2161)
G1 X3.481 Y9.397 Z9.240 F4800.000 A623.940 (d: 22.4366)
G1 X3.481 Y-9.398 Z9.240 F4800.000 A624.665 (d: 12.255)
G1 X3.889 Y-9.398 Z9.240 F4800.000 A624.681 (d: 12.6635)
G1 X3.889 Y9.397 Z9.240 F4800.000 A625.407 (d: 22.6623)
G1 X4.298 Y9.397 Z9.240 F4800.000 A625.423 (d: 22.893)
G1 X4.298 Y-9.398 Z9.240 F4800.000 A626.148 (d: 13.072)
G1 X4.706 Y-9.398 Z9.240 F4800.000 A626.164 (d: 13.4805)
G1 X4.706 Y9.397 Z9.240 F4800.000 A626.890 (d: 23.1287)
G1 X5.115 Y9.397 Z9.240 F4800.000 A626.906 (d: 23.3692)
G1 X5.115 Y-9.398 Z9.240 F4800.000 A627.631 (d: 13.889)
G1 X5.523 Y-9.398 Z9.240 F4800.000 A627.647 (d: 14.2975)
G1 X5.523 Y9.397 Z9.240 F4800.000 A628.373 (d: 23.6143)
G1 X5.932 Y9.397 Z9.240 F4800.000 A628.389 (d: 23.8638)
G1 X5.932 Y-9.398 Z9.240 F4800.000 A629.114 (d: 14.706)
G1 X6.340 Y-9.398 Z9.240 F4800.000 A629.130 (d: 15.1145)
G1 X6.340 Y9.397 Z9.240 F4800.000 A629.856 (d: 24.1177)
G1 X6.749 Y9.397 Z9.240 F4800.000 A629.872 (d: 24.3758)
G1 X6.749 Y-9.398 Z9.240 F4800.000 A630.597 (d: 15.523)
G1 X7.157 Y-9.398 Z9.240 F4800.000 A630.613 (d: 15.9315)
G1 X7.157 Y9.397 Z9.240 F4800.000 A631.339 (d: 24.6379)
G1 X7.566 Y9.397 Z9.240 F4800.000 A631.355 (d: 24.904)
G1 X7.566 Y-9.398 Z9.240 F4800.000 A632.080 (d: 16.34)
G1 X7.974 Y-9.398 Z9.240 F4800.000 A632.096 (d: 16.7485)
G1 X7.974 Y9.397 Z9.240 F4800.000 A632.822 (d: 25.1739)
G1 X8.383 Y9.397 Z9.240 F4800.000 A632.838 (d: 25.4475)
G1 X8.383 Y-9.398 Z9.240 F4800.000 A633.563 (d: 17.157)
G1 X8.791 Y-9.398 Z9.240 F4800.000 A633.579 (d: 17.5655)
G1 X8.791 Y9.397 Z9.240 F4800.000 A634.305 (d: 25.7247)
G1 X9.200 Y9.397 Z9.240 F4800.000 A634.321 (d: 26.0054)
G1 X9.200 Y-9.398 Z9.240 F4800.000 A635.046 (d: 17.974)
G1 F798.000 A634.546 (snort)

(Slice 34, 1 Extruder)
G1 Z9.510 F500.000 (move Z)
(   Extruder 0)
( extruder 0 )
( GSWITCH T0 )
( TODO: add offset management to Gantry )

(inset 0/2 )
(  path 0/1, 6 points,  )
G1 X-9.784 Y-9.784 Z9.510 F6000.000 (move into position)
G1 F798.000 A635.046 (squirt)
G1 X-9.784 Y9.784 Z9.510 F4800.000 A635.802 (d: 19.568)
G1 X9.784 Y9.784 Z9.510 F4800.000 A636.558 (d: 27.6733)
G1 X9.784 Y-9.785 Z9.510 F4800.000 A637.313 (d: 19.568)
G1 X-9.019 Y-9.784 Z9.510 F4800.000 A638.039 (d: 0.765)
G1 X-9.784 Y-9.784 Z9.510 F4800.000 A638.069 (d: 0)
G1 F798.000 A637.569 (snort)

(inset 1/2 )
(  path 0/1, 6 points,  )
G1 X-9.397 Y-9.397 Z9.510 F6000.000 (move into position)
G1 F798.000 A638.069 (squirt)
G1 X-9.397 Y9.397 Z9.510 F4800.000 A638.795 (d: 18.794)
G1 X9.397 Y9.397 Z9.510 F4800.000 A639.520 (d: 26.5787)
G1 X9.397 Y-9.398 Z9.510 F4800.000 A640.246 (d: 18.794)
G1 X-9.019 Y-9.397 Z9.510 F4800.000 A640.957 (d: 0.378)
G1 X-9.397 Y-9.397 Z9.510 F4800.000 A640.972 (d: 0)
G1 F798.000 A640.472 (snort)

(infills: 1)
(  path 0/1, 92 points,  )
G1 X-9.397 Y-8.775 Z9.510 F6000.000 (move into position)
G1 F798.000 A640.972 (squirt)
G1 X9.397 Y-8.775 Z9.510 F4800.000 A641.697 (d: 18.794)
G1 X9.397 Y-9.183 Z9.510 F4800.000 A641.713 (d: 18.7984)
G1 X-9.397 Y-9.183 Z9.510 F4800.000 A642.439 (d: 0.4085)
G1 X-9.397 Y-8.366 Z9.510 F4800.000 A642.470 (d: 0.4085)
G1 X9.397 Y-8.366 Z9.510 F4800.000 A643.196 (d: 18.7984)
G1 X9.397 Y-7.958 Z9.510 F4800.000 A643.212 (d: 18.8117)
G1 X-9.397 Y-7.958 Z9.510 F4800.000 A643.938 (d: 0.817)
G1 X-9.397 Y-7.549 Z9.510 F4800.000 A643.953 (d: 1.2255)
G1 X9.397 Y-7.549 Z9.510 F4800.000 A644.679 (d: 18.8339)
G1 X9.397 Y-7.141 Z9.510 F4800.000 A644.695 (d: 18.8649)
G1 X-9.397 Y-7.141 Z9.510 F4800.000 A645.421 (d: 1.634)
G1 X-9.397 Y-6.732 Z9.510 F4800.000 A645.436 (d: 2.0425)
G1 X9.397 Y-6.732 Z9.510 F4800.000 A646.162 (d: 18.9047)
G1 X9.397 Y-6.324 Z9.510 F4800.000 A646.178 (d: 18.9531)
G1 X-9.397 Y-6.324 Z9.510 F4800.000 A646.904 (d: 2.451)
G1 X-9.397 Y-5.915 Z9.510 F4800.000 A646.919 (d: 2.8595)
