
(Makerbot Industries)
(This file contains digital fabrication directives in gcode format)
(For your 3D printer)
(http://wiki.makerbot.com/gcode)
(* Generated by Miracle-Grue v 0.04 alpha)
(* 2012-7-16 14:34:42)
(* machine name: Dub dub dub)
(* firmware revision:unknown)
(* stl/baseline_tests\20mmbox.stl)
(* 2 extruder)
(* Extrude infills: 1)
(* first operation: Insets)
(* Extrude insets: 1)
(* Extrude outlines: 0)

(Slice 0, 1 Extruder)
G1 Z0.330 F500.000 (move Z)
(insets: 2)
G1 X9.784 Y9.784 Z0.330 F6000.000 (move into position)
G1 F798.000 A0.500 (squirt)
G1 X9.784 Y-9.784 Z0.330 F1800.000 A1.256 (d: 19.568)
G1 X-9.784 Y-9.784 Z0.330 F1800.000 A2.011 (d: 19.568)
G1 X-9.784 Y9.784 Z0.330 F1800.000 A2.767 (d: 19.568)
G1 X9.784 Y9.784 Z0.330 F1800.000 A3.522 (d: 19.568)
G1 F798.000 A3.022 (snort)

G1 X9.397 Y9.397 Z0.330 F6000.000 (move into position)
G1 F798.000 A3.522 (squirt)
G1 X9.397 Y-9.397 Z0.330 F1800.000 A4.248 (d: 18.794)
G1 X-9.397 Y-9.397 Z0.330 F1800.000 A4.974 (d: 18.794)
G1 X-9.397 Y9.397 Z0.330 F1800.000 A5.699 (d: 18.794)
G1 X9.397 Y9.397 Z0.330 F1800.000 A6.425 (d: 18.794)
G1 F798.000 A5.925 (snort)

(infills: 1)
G1 X-9.397 Y-8.775 Z0.330 F6000.000 (move into position)
G1 F798.000 A6.425 (squirt)
G1 X9.397 Y-8.775 Z0.330 F1800.000 A7.151 (d: 18.794)
G1 X9.397 Y-9.183 Z0.330 F1800.000 A7.167 (d: 0.4085)
G1 X-9.397 Y-9.183 Z0.330 F1800.000 A7.892 (d: 18.794)
G1 X-9.397 Y-8.366 Z0.330 F1800.000 A7.924 (d: 0.817)
G1 X9.397 Y-8.366 Z0.330 F1800.000 A8.650 (d: 18.794)
G1 X9.397 Y-7.958 Z0.330 F1800.000 A8.665 (d: 0.4085)
G1 X-9.397 Y-7.958 Z0.330 F1800.000 A9.391 (d: 18.794)
G1 X-9.397 Y-7.549 Z0.330 F1800.000 A9.407 (d: 0.4085)
G1 X9.397 Y-7.549 Z0.330 F1800.000 A10.133 (d: 18.794)
G1 X9.397 Y-7.141 Z0.330 F1800.000 A10.148 (d: 0.4085)
G1 X-9.397 Y-7.141 Z0.330 F1800.000 A10.874 (d: 18.794)
G1 X-9.397 Y-6.732 Z0.330 F1800.000 A10.890 (d: 0.4085)
G1 X9.397 Y-6.732 Z0.330 F1800.000 A11.616 (d: 18.794)
G1 X9.397 Y-6.324 Z0.330 F1800.000 A11.631 (d: 0.4085)
G1 X-9.397 Y-6.324 Z0.330 F1800.000 A12.357 (d: 18.794)
G1 X-9.397 Y-5.915 Z0.330 F1800.000 A12.373 (d: 0.4085)
G1 X9.397 Y-5.915 Z0.330 F1800.000 A13.099 (d: 18.794)
G1 X9.397 Y-5.507 Z0.330 F1800.000 A13.114 (d: 0.4085)
G1 X-9.397 Y-5.507 Z0.330 F1800.000 A13.840 (d: 18.794)
G1 X-9.397 Y-5.098 Z0.330 F1800.000 A13.856 (d: 0.4085)
G1 X9.397 Y-5.098 Z0.330 F1800.000 A14.581 (d: 18.794)
G1 X9.397 Y-4.690 Z0.330 F1800.000 A14.597 (d: 0.4085)
G1 X-9.397 Y-4.690 Z0.330 F1800.000 A15.323 (d: 18.794)
G1 X-9.397 Y-4.281 Z0.330 F1800.000 A15.339 (d: 0.4085)
G1 X9.397 Y-4.281 Z0.330 F1800.000 A16.064 (d: 18.794)
G1 X9.397 Y-3.873 Z0.330 F1800.000 A16.080 (d: 0.4085)
G1 X-9.397 Y-3.873 Z0.330 F1800.000 A16.806 (d: 18.794)
G1 X-9.397 Y-3.464 Z0.330 F1800.000 A16.822 (d: 0.4085)
G1 X9.397 Y-3.464 Z0.330 F1800.000 A17.547 (d: 18.794)
G1 X9.397 Y-3.056 Z0.330 F1800.000 A17.563 (d: 0.4085)
G1 X-9.397 Y-3.056 Z0.330 F1800.000 A18.289 (d: 18.794)
G1 X-9.397 Y-2.647 Z0.330 F1800.000 A18.305 (d: 0.4085)
G1 X9.397 Y-2.647 Z0.330 F1800.000 A19.030 (d: 18.794)
G1 X9.397 Y-2.239 Z0.330 F1800.000 A19.046 (d: 0.4085)
G1 X-9.397 Y-2.239 Z0.330 F1800.000 A19.772 (d: 18.794)
G1 X-9.397 Y-1.830 Z0.330 F1800.000 A19.788 (d: 0.4085)
G1 X9.397 Y-1.830 Z0.330 F1800.000 A20.513 (d: 18.794)
G1 X9.397 Y-1.422 Z0.330 F1800.000 A20.529 (d: 0.4085)
G1 X-9.397 Y-1.422 Z0.330 F1800.000 A21.255 (d: 18.794)
G1 X-9.397 Y-1.013 Z0.330 F1800.000 A21.271 (d: 0.4085)
G1 X9.397 Y-1.013 Z0.330 F1800.000 A21.996 (d: 18.794)
G1 X9.397 Y-0.605 Z0.330 F1800.000 A22.012 (d: 0.4085)
G1 X-9.397 Y-0.605 Z0.330 F1800.000 A22.738 (d: 18.794)
G1 X-9.397 Y-0.196 Z0.330 F1800.000 A22.754 (d: 0.4085)
G1 X9.397 Y-0.196 Z0.330 F1800.000 A23.479 (d: 18.794)
G1 X9.397 Y0.212 Z0.330 F1800.000 A23.495 (d: 0.4085)
G1 X-9.397 Y0.212 Z0.330 F1800.000 A24.221 (d: 18.794)
G1 X-9.397 Y0.621 Z0.330 F1800.000 A24.236 (d: 0.4085)
G1 X9.397 Y0.621 Z0.330 F1800.000 A24.962 (d: 18.794)
G1 X9.397 Y1.029 Z0.330 F1800.000 A24.978 (d: 0.4085)
G1 X-9.397 Y1.029 Z0.330 F1800.000 A25.704 (d: 18.794)
G1 X-9.397 Y1.438 Z0.330 F1800.000 A25.719 (d: 0.4085)
G1 X9.397 Y1.438 Z0.330 F1800.000 A26.445 (d: 18.794)
G1 X9.397 Y1.846 Z0.330 F1800.000 A26.461 (d: 0.4085)
G1 X-9.397 Y1.846 Z0.330 F1800.000 A27.187 (d: 18.794)
G1 X-9.397 Y2.255 Z0.330 F1800.000 A27.202 (d: 0.4085)
G1 X9.397 Y2.255 Z0.330 F1800.000 A27.928 (d: 18.794)
G1 X9.397 Y2.663 Z0.330 F1800.000 A27.944 (d: 0.4085)
G1 X-9.397 Y2.663 Z0.330 F1800.000 A28.670 (d: 18.794)
G1 X-9.397 Y3.072 Z0.330 F1800.000 A28.685 (d: 0.4085)
G1 X9.397 Y3.072 Z0.330 F1800.000 A29.411 (d: 18.794)
G1 X9.397 Y3.480 Z0.330 F1800.000 A29.427 (d: 0.4085)
G1 X-9.397 Y3.480 Z0.330 F1800.000 A30.153 (d: 18.794)
G1 X-9.397 Y3.889 Z0.330 F1800.000 A30.168 (d: 0.4085)
G1 X9.397 Y3.889 Z0.330 F1800.000 A30.894 (d: 18.794)
G1 X9.397 Y4.297 Z0.330 F1800.000 A30.910 (d: 0.4085)
G1 X-9.397 Y4.297 Z0.330 F1800.000 A31.635 (d: 18.794)
G1 X-9.397 Y4.706 Z0.330 F1800.000 A31.651 (d: 0.4085)
G1 X9.397 Y4.706 Z0.330 F1800.000 A32.377 (d: 18.794)
G1 X9.397 Y5.114 Z0.330 F1800.000 A32.393 (d: 0.4085)
G1 X-9.397 Y5.114 Z0.330 F1800.000 A33.118 (d: 18.794)
G1 X-9.397 Y5.523 Z0.330 F1800.000 A33.134 (d: 0.4085)
G1 X9.397 Y5.523 Z0.330 F1800.000 A33.860 (d: 18.794)
G1 X9.397 Y5.931 Z0.330 F1800.000 A33.876 (d: 0.4085)
G1 X-9.397 Y5.931 Z0.330 F1800.000 A34.601 (d: 18.794)
G1 X-9.397 Y6.340 Z0.330 F1800.000 A34.617 (d: 0.4085)
G1 X9.397 Y6.340 Z0.330 F1800.000 A35.343 (d: 18.794)
G1 X9.397 Y6.748 Z0.330 F1800.000 A35.359 (d: 0.4085)
G1 X-9.397 Y6.748 Z0.330 F1800.000 A36.084 (d: 18.794)
G1 X-9.397 Y7.157 Z0.330 F1800.000 A36.100 (d: 0.4085)
G1 X9.397 Y7.157 Z0.330 F1800.000 A36.826 (d: 18.794)
G1 X9.397 Y7.565 Z0.330 F1800.000 A36.842 (d: 0.4085)
G1 X-9.397 Y7.565 Z0.330 F1800.000 A37.567 (d: 18.794)
G1 X-9.397 Y7.974 Z0.330 F1800.000 A37.583 (d: 0.4085)
G1 X9.397 Y7.974 Z0.330 F1800.000 A38.309 (d: 18.794)
G1 X9.397 Y8.382 Z0.330 F1800.000 A38.325 (d: 0.4085)
G1 X-9.397 Y8.382 Z0.330 F1800.000 A39.050 (d: 18.794)
G1 X-9.397 Y8.791 Z0.330 F1800.000 A39.066 (d: 0.4085)
G1 X9.397 Y8.791 Z0.330 F1800.000 A39.792 (d: 18.794)
G1 X9.397 Y9.199 Z0.330 F1800.000 A39.808 (d: 0.4085)
G1 X-9.397 Y9.199 Z0.330 F1800.000 A40.533 (d: 18.794)
G1 F798.000 A40.033 (snort)

(Slice 1, 1 Extruder)
G1 Z0.600 F500.000 (move Z)
(insets: 2)
G1 X9.784 Y9.784 Z0.600 F6000.000 (move into position)
G1 F798.000 A40.533 (squirt)
G1 X9.784 Y-9.784 Z0.600 F4800.000 A41.289 (d: 19.568)
G1 X-9.784 Y-9.784 Z0.600 F4800.000 A42.044 (d: 19.568)
G1 X-9.784 Y9.784 Z0.600 F4800.000 A42.800 (d: 19.568)
G1 X9.784 Y9.784 Z0.600 F4800.000 A43.556 (d: 19.568)
G1 F798.000 A43.056 (snort)

G1 X9.397 Y9.397 Z0.600 F6000.000 (move into position)
G1 F798.000 A43.556 (squirt)
G1 X9.397 Y-9.397 Z0.600 F4800.000 A44.281 (d: 18.794)
G1 X-9.397 Y-9.397 Z0.600 F4800.000 A45.007 (d: 18.794)
G1 X-9.397 Y9.397 Z0.600 F4800.000 A45.733 (d: 18.794)
G1 X9.397 Y9.397 Z0.600 F4800.000 A46.458 (d: 18.794)
G1 F798.000 A45.958 (snort)

(infills: 1)
G1 X-8.774 Y-9.397 Z0.600 F6000.000 (move into position)
G1 F798.000 A46.458 (squirt)
G1 X-8.774 Y9.397 Z0.600 F4800.000 A47.184 (d: 18.794)
G1 X-9.183 Y9.397 Z0.600 F4800.000 A47.200 (d: 0.4085)
G1 X-9.183 Y-9.397 Z0.600 F4800.000 A47.926 (d: 18.794)
G1 X-8.366 Y-9.397 Z0.600 F4800.000 A47.957 (d: 0.817)
G1 X-8.366 Y9.397 Z0.600 F4800.000 A48.683 (d: 18.794)
G1 X-7.957 Y9.397 Z0.600 F4800.000 A48.699 (d: 0.4085)
G1 X-7.957 Y-9.397 Z0.600 F4800.000 A49.424 (d: 18.794)
G1 X-7.549 Y-9.397 Z0.600 F4800.000 A49.440 (d: 0.4085)
G1 X-7.549 Y9.397 Z0.600 F4800.000 A50.166 (d: 18.794)
G1 X-7.140 Y9.397 Z0.600 F4800.000 A50.182 (d: 0.4085)
G1 X-7.140 Y-9.397 Z0.600 F4800.000 A50.907 (d: 18.794)
G1 X-6.732 Y-9.397 Z0.600 F4800.000 A50.923 (d: 0.4085)
G1 X-6.732 Y9.397 Z0.600 F4800.000 A51.649 (d: 18.794)
G1 X-6.323 Y9.397 Z0.600 F4800.000 A51.665 (d: 0.4085)
G1 X-6.323 Y-9.397 Z0.600 F4800.000 A52.390 (d: 18.794)
G1 X-5.915 Y-9.397 Z0.600 F4800.000 A52.406 (d: 0.4085)
G1 X-5.915 Y9.397 Z0.600 F4800.000 A53.132 (d: 18.794)
G1 X-5.506 Y9.397 Z0.600 F4800.000 A53.148 (d: 0.4085)
G1 X-5.506 Y-9.397 Z0.600 F4800.000 A53.873 (d: 18.794)
G1 X-5.098 Y-9.397 Z0.600 F4800.000 A53.889 (d: 0.4085)
G1 X-5.098 Y9.397 Z0.600 F4800.000 A54.615 (d: 18.794)
G1 X-4.689 Y9.397 Z0.600 F4800.000 A54.630 (d: 0.4085)
G1 X-4.689 Y-9.397 Z0.600 F4800.000 A55.356 (d: 18.794)
G1 X-4.281 Y-9.397 Z0.600 F4800.000 A55.372 (d: 0.4085)
G1 X-4.281 Y9.397 Z0.600 F4800.000 A56.098 (d: 18.794)
G1 X-3.872 Y9.397 Z0.600 F4800.000 A56.113 (d: 0.4085)
G1 X-3.872 Y-9.397 Z0.600 F4800.000 A56.839 (d: 18.794)
G1 X-3.464 Y-9.397 Z0.600 F4800.000 A56.855 (d: 0.4085)
G1 X-3.464 Y9.397 Z0.600 F4800.000 A57.581 (d: 18.794)
G1 X-3.055 Y9.397 Z0.600 F4800.000 A57.596 (d: 0.4085)
G1 X-3.055 Y-9.397 Z0.600 F4800.000 A58.322 (d: 18.794)
G1 X-2.647 Y-9.397 Z0.600 F4800.000 A58.338 (d: 0.4085)
G1 X-2.647 Y9.397 Z0.600 F4800.000 A59.064 (d: 18.794)
G1 X-2.238 Y9.397 Z0.600 F4800.000 A59.079 (d: 0.4085)
G1 X-2.238 Y-9.397 Z0.600 F4800.000 A59.805 (d: 18.794)
G1 X-1.830 Y-9.397 Z0.600 F4800.000 A59.821 (d: 0.4085)
G1 X-1.830 Y9.397 Z0.600 F4800.000 A60.547 (d: 18.794)
G1 X-1.421 Y9.397 Z0.600 F4800.000 A60.562 (d: 0.4085)
G1 X-1.421 Y-9.397 Z0.600 F4800.000 A61.288 (d: 18.794)
G1 X-1.013 Y-9.397 Z0.600 F4800.000 A61.304 (d: 0.4085)
G1 X-1.013 Y9.397 Z0.600 F4800.000 A62.029 (d: 18.794)
G1 X-0.604 Y9.397 Z0.600 F4800.000 A62.045 (d: 0.4085)
G1 X-0.604 Y-9.397 Z0.600 F4800.000 A62.771 (d: 18.794)
G1 X-0.196 Y-9.397 Z0.600 F4800.000 A62.787 (d: 0.4085)
G1 X-0.196 Y9.397 Z0.600 F4800.000 A63.512 (d: 18.794)
G1 X0.213 Y9.397 Z0.600 F4800.000 A63.528 (d: 0.4085)
G1 X0.213 Y-9.397 Z0.600 F4800.000 A64.254 (d: 18.794)
G1 X0.621 Y-9.397 Z0.600 F4800.000 A64.270 (d: 0.4085)
G1 X0.621 Y9.397 Z0.600 F4800.000 A64.995 (d: 18.794)
G1 X1.030 Y9.397 Z0.600 F4800.000 A65.011 (d: 0.4085)
G1 X1.030 Y-9.397 Z0.600 F4800.000 A65.737 (d: 18.794)
G1 X1.438 Y-9.397 Z0.600 F4800.000 A65.753 (d: 0.4085)
G1 X1.438 Y9.397 Z0.600 F4800.000 A66.478 (d: 18.794)
G1 X1.847 Y9.397 Z0.600 F4800.000 A66.494 (d: 0.4085)
G1 X1.847 Y-9.397 Z0.600 F4800.000 A67.220 (d: 18.794)
G1 X2.255 Y-9.397 Z0.600 F4800.000 A67.236 (d: 0.4085)
G1 X2.255 Y9.397 Z0.600 F4800.000 A67.961 (d: 18.794)
G1 X2.664 Y9.397 Z0.600 F4800.000 A67.977 (d: 0.4085)
G1 X2.664 Y-9.397 Z0.600 F4800.000 A68.703 (d: 18.794)
G1 X3.072 Y-9.397 Z0.600 F4800.000 A68.719 (d: 0.4085)
G1 X3.072 Y9.397 Z0.600 F4800.000 A69.444 (d: 18.794)
G1 X3.481 Y9.397 Z0.600 F4800.000 A69.460 (d: 0.4085)
G1 X3.481 Y-9.397 Z0.600 F4800.000 A70.186 (d: 18.794)
G1 X3.889 Y-9.397 Z0.600 F4800.000 A70.202 (d: 0.4085)
G1 X3.889 Y9.397 Z0.600 F4800.000 A70.927 (d: 18.794)
G1 X4.298 Y9.397 Z0.600 F4800.000 A70.943 (d: 0.4085)
G1 X4.298 Y-9.397 Z0.600 F4800.000 A71.669 (d: 18.794)
G1 X4.706 Y-9.397 Z0.600 F4800.000 A71.684 (d: 0.4085)
G1 X4.706 Y9.397 Z0.600 F4800.000 A72.410 (d: 18.794)
G1 X5.115 Y9.397 Z0.600 F4800.000 A72.426 (d: 0.4085)
G1 X5.115 Y-9.397 Z0.600 F4800.000 A73.152 (d: 18.794)
G1 X5.523 Y-9.397 Z0.600 F4800.000 A73.167 (d: 0.4085)
G1 X5.523 Y9.397 Z0.600 F4800.000 A73.893 (d: 18.794)
G1 X5.932 Y9.397 Z0.600 F4800.000 A73.909 (d: 0.4085)
G1 X5.932 Y-9.397 Z0.600 F4800.000 A74.635 (d: 18.794)
G1 X6.340 Y-9.397 Z0.600 F4800.000 A74.650 (d: 0.4085)
G1 X6.340 Y9.397 Z0.600 F4800.000 A75.376 (d: 18.794)
G1 X6.749 Y9.397 Z0.600 F4800.000 A75.392 (d: 0.4085)
G1 X6.749 Y-9.397 Z0.600 F4800.000 A76.118 (d: 18.794)
G1 X7.157 Y-9.397 Z0.600 F4800.000 A76.133 (d: 0.4085)
G1 X7.157 Y9.397 Z0.600 F4800.000 A76.859 (d: 18.794)
G1 X7.566 Y9.397 Z0.600 F4800.000 A76.875 (d: 0.4085)
G1 X7.566 Y-9.397 Z0.600 F4800.000 A77.601 (d: 18.794)
G1 X7.974 Y-9.397 Z0.600 F4800.000 A77.616 (d: 0.4085)
G1 X7.974 Y9.397 Z0.600 F4800.000 A78.342 (d: 18.794)
G1 X8.383 Y9.397 Z0.600 F4800.000 A78.358 (d: 0.4085)
G1 X8.383 Y-9.397 Z0.600 F4800.000 A79.084 (d: 18.794)
G1 X8.791 Y-9.397 Z0.600 F4800.000 A79.099 (d: 0.4085)
G1 X8.791 Y9.397 Z0.600 F4800.000 A79.825 (d: 18.794)
G1 X9.200 Y9.397 Z0.600 F4800.000 A79.841 (d: 0.4085)
G1 X9.200 Y-9.397 Z0.600 F4800.000 A80.566 (d: 18.794)
G1 F798.000 A80.066 (snort)

(Slice 2, 1 Extruder)
G1 Z0.870 F500.000 (move Z)
(insets: 2)
G1 X9.784 Y9.784 Z0.870 F6000.000 (move into position)
G1 F798.000 A80.566 (squirt)
G1 X9.784 Y-9.784 Z0.870 F4800.000 A81.322 (d: 19.568)
G1 X-9.784 Y-9.784 Z0.870 F4800.000 A82.078 (d: 19.568)
G1 X-9.784 Y9.784 Z0.870 F4800.000 A82.833 (d: 19.568)
G1 X9.784 Y9.784 Z0.870 F4800.000 A83.589 (d: 19.568)
G1 F798.000 A83.089 (snort)

G1 X9.397 Y9.397 Z0.870 F6000.000 (move into position)
G1 F798.000 A83.589 (squirt)
G1 X9.397 Y-9.397 Z0.870 F4800.000 A84.315 (d: 18.794)
G1 X-9.397 Y-9.397 Z0.870 F4800.000 A85.040 (d: 18.794)
G1 X-9.397 Y9.397 Z0.870 F4800.000 A85.766 (d: 18.794)
G1 X9.397 Y9.397 Z0.870 F4800.000 A86.492 (d: 18.794)
G1 F798.000 A85.992 (snort)

(infills: 2)
G1 X-9.397 Y-8.775 Z0.870 F6000.000 (move into position)
G1 F798.000 A86.492 (squirt)
G1 X9.397 Y-8.775 Z0.870 F4800.000 A87.217 (d: 18.794)
G1 F798.000 A86.717 (snort)

G1 X9.397 Y-9.183 Z0.870 F6000.000 (move into position)
G1 F798.000 A87.217 (squirt)
G1 X-9.397 Y-9.183 Z0.870 F4800.000 A87.943 (d: 18.794)
G1 X-9.397 Y-8.366 Z0.870 F4800.000 A87.975 (d: 0.817)
G1 X9.397 Y-8.366 Z0.870 F4800.000 A88.700 (d: 18.794)
G1 X9.397 Y-7.958 Z0.870 F4800.000 A88.716 (d: 0.4085)
G1 X-9.397 Y-7.958 Z0.870 F4800.000 A89.442 (d: 18.794)
G1 X-9.397 Y-7.549 Z0.870 F4800.000 A89.458 (d: 0.4085)
G1 X9.397 Y-7.549 Z0.870 F4800.000 A90.183 (d: 18.794)
G1 X9.397 Y-7.141 Z0.870 F4800.000 A90.199 (d: 0.4085)
G1 X-9.397 Y-7.141 Z0.870 F4800.000 A90.925 (d: 18.794)
G1 X-9.397 Y-6.732 Z0.870 F4800.000 A90.941 (d: 0.4085)
G1 X9.397 Y-6.732 Z0.870 F4800.000 A91.666 (d: 18.794)
G1 X9.397 Y-6.324 Z0.870 F4800.000 A91.682 (d: 0.4085)
G1 X-9.397 Y-6.324 Z0.870 F4800.000 A92.408 (d: 18.794)
G1 X-9.397 Y-5.915 Z0.870 F4800.000 A92.423 (d: 0.4085)
G1 X9.397 Y-5.915 Z0.870 F4800.000 A93.149 (d: 18.794)
G1 X9.397 Y-5.507 Z0.870 F4800.000 A93.165 (d: 0.4085)
G1 X-9.397 Y-5.507 Z0.870 F4800.000 A93.891 (d: 18.794)
G1 X-9.397 Y-5.098 Z0.870 F4800.000 A93.906 (d: 0.4085)
G1 X9.397 Y-5.098 Z0.870 F4800.000 A94.632 (d: 18.794)
G1 X9.397 Y-4.690 Z0.870 F4800.000 A94.648 (d: 0.4085)
G1 X-9.397 Y-4.690 Z0.870 F4800.000 A95.374 (d: 18.794)
G1 X-9.397 Y-4.281 Z0.870 F4800.000 A95.389 (d: 0.4085)
G1 X9.397 Y-4.281 Z0.870 F4800.000 A96.115 (d: 18.794)
G1 X9.397 Y-3.873 Z0.870 F4800.000 A96.131 (d: 0.4085)
G1 X-9.397 Y-3.873 Z0.870 F4800.000 A96.857 (d: 18.794)
G1 X-9.397 Y-3.464 Z0.870 F4800.000 A96.872 (d: 0.4085)
G1 X9.397 Y-3.464 Z0.870 F4800.000 A97.598 (d: 18.794)
G1 X9.397 Y-3.056 Z0.870 F4800.000 A97.614 (d: 0.4085)
G1 X-9.397 Y-3.056 Z0.870 F4800.000 A98.340 (d: 18.794)
G1 X-9.397 Y-2.647 Z0.870 F4800.000 A98.355 (d: 0.4085)
G1 X9.397 Y-2.647 Z0.870 F4800.000 A99.081 (d: 18.794)
G1 X9.397 Y-2.239 Z0.870 F4800.000 A99.097 (d: 0.4085)
G1 X-9.397 Y-2.239 Z0.870 F4800.000 A99.823 (d: 18.794)
G1 X-9.397 Y-1.830 Z0.870 F4800.000 A99.838 (d: 0.4085)
G1 X9.397 Y-1.830 Z0.870 F4800.000 A100.564 (d: 18.794)
G1 X9.397 Y-1.422 Z0.870 F4800.000 A100.580 (d: 0.4085)
G1 X-9.397 Y-1.422 Z0.870 F4800.000 A101.305 (d: 18.794)
G1 X-9.397 Y-1.013 Z0.870 F4800.000 A101.321 (d: 0.4085)
G1 X9.397 Y-1.013 Z0.870 F4800.000 A102.047 (d: 18.794)
G1 X9.397 Y-0.605 Z0.870 F4800.000 A102.063 (d: 0.4085)
G1 X-9.397 Y-0.605 Z0.870 F4800.000 A102.788 (d: 18.794)
G1 X-9.397 Y-0.196 Z0.870 F4800.000 A102.804 (d: 0.4085)
G1 X9.397 Y-0.196 Z0.870 F4800.000 A103.530 (d: 18.794)
G1 X9.397 Y0.212 Z0.870 F4800.000 A103.546 (d: 0.4085)
G1 X-9.397 Y0.212 Z0.870 F4800.000 A104.271 (d: 18.794)
G1 X-9.397 Y0.621 Z0.870 F4800.000 A104.287 (d: 0.4085)
G1 X9.397 Y0.621 Z0.870 F4800.000 A105.013 (d: 18.794)
G1 X9.397 Y1.029 Z0.870 F4800.000 A105.029 (d: 0.4085)
G1 X-9.397 Y1.029 Z0.870 F4800.000 A105.754 (d: 18.794)
G1 X-9.397 Y1.438 Z0.870 F4800.000 A105.770 (d: 0.4085)
G1 X9.397 Y1.438 Z0.870 F4800.000 A106.496 (d: 18.794)
G1 X9.397 Y1.846 Z0.870 F4800.000 A106.512 (d: 0.4085)
G1 X-9.397 Y1.846 Z0.870 F4800.000 A107.237 (d: 18.794)
G1 X-9.397 Y2.255 Z0.870 F4800.000 A107.253 (d: 0.4085)
G1 X9.397 Y2.255 Z0.870 F4800.000 A107.979 (d: 18.794)
G1 X9.397 Y2.663 Z0.870 F4800.000 A107.995 (d: 0.4085)
G1 X-9.397 Y2.663 Z0.870 F4800.000 A108.720 (d: 18.794)
G1 X-9.397 Y3.072 Z0.870 F4800.000 A108.736 (d: 0.4085)
G1 X9.397 Y3.072 Z0.870 F4800.000 A109.462 (d: 18.794)
G1 X9.397 Y3.480 Z0.870 F4800.000 A109.478 (d: 0.4085)
G1 X-9.397 Y3.480 Z0.870 F4800.000 A110.203 (d: 18.794)
G1 X-9.397 Y3.889 Z0.870 F4800.000 A110.219 (d: 0.4085)
G1 X9.397 Y3.889 Z0.870 F4800.000 A110.945 (d: 18.794)
G1 X9.397 Y4.297 Z0.870 F4800.000 A110.960 (d: 0.4085)
G1 X-9.397 Y4.297 Z0.870 F4800.000 A111.686 (d: 18.794)
G1 X-9.397 Y4.706 Z0.870 F4800.000 A111.702 (d: 0.4085)
G1 X9.397 Y4.706 Z0.870 F4800.000 A112.428 (d: 18.794)
G1 X9.397 Y5.114 Z0.870 F4800.000 A112.443 (d: 0.4085)
G1 X-9.397 Y5.114 Z0.870 F4800.000 A113.169 (d: 18.794)
G1 X-9.397 Y5.523 Z0.870 F4800.000 A113.185 (d: 0.4085)
G1 X9.397 Y5.523 Z0.870 F4800.000 A113.911 (d: 18.794)
G1 X9.397 Y5.931 Z0.870 F4800.000 A113.926 (d: 0.4085)
G1 X-9.397 Y5.931 Z0.870 F4800.000 A114.652 (d: 18.794)
G1 X-9.397 Y6.340 Z0.870 F4800.000 A114.668 (d: 0.4085)
G1 X9.397 Y6.340 Z0.870 F4800.000 A115.394 (d: 18.794)
G1 X9.397 Y6.748 Z0.870 F4800.000 A115.409 (d: 0.4085)
G1 X-9.397 Y6.748 Z0.870 F4800.000 A116.135 (d: 18.794)
G1 X-9.397 Y7.157 Z0.870 F4800.000 A116.151 (d: 0.4085)
G1 X9.397 Y7.157 Z0.870 F4800.000 A116.877 (d: 18.794)
G1 X9.397 Y7.565 Z0.870 F4800.000 A116.892 (d: 0.4085)
G1 X-9.397 Y7.565 Z0.870 F4800.000 A117.618 (d: 18.794)
G1 X-9.397 Y7.974 Z0.870 F4800.000 A117.634 (d: 0.4085)
G1 X9.397 Y7.974 Z0.870 F4800.000 A118.359 (d: 18.794)
G1 X9.397 Y8.382 Z0.870 F4800.000 A118.375 (d: 0.4085)
G1 X-9.397 Y8.382 Z0.870 F4800.000 A119.101 (d: 18.794)
G1 X-9.397 Y8.791 Z0.870 F4800.000 A119.117 (d: 0.4085)
G1 X9.397 Y8.791 Z0.870 F4800.000 A119.842 (d: 18.794)
G1 X9.397 Y9.199 Z0.870 F4800.000 A119.858 (d: 0.4085)
G1 X-9.397 Y9.199 Z0.870 F4800.000 A120.584 (d: 18.794)
G1 F798.000 A120.084 (snort)

(Slice 3, 1 Extruder)
G1 Z1.140 F500.000 (move Z)
(insets: 2)
G1 X9.784 Y9.784 Z1.140 F6000.000 (move into position)
G1 F798.000 A120.584 (squirt)
G1 X9.784 Y-9.784 Z1.140 F4800.000 A121.340 (d: 19.568)
G1 X-9.784 Y-9.784 Z1.140 F4800.000 A122.095 (d: 19.568)
G1 X-9.784 Y9.784 Z1.140 F4800.000 A122.851 (d: 19.568)
G1 X9.784 Y9.784 Z1.140 F4800.000 A123.606 (d: 19.568)
G1 F798.000 A123.106 (snort)

G1 X9.397 Y9.397 Z1.140 F6000.000 (move into position)
G1 F798.000 A123.606 (squirt)
G1 X9.397 Y-9.397 Z1.140 F4800.000 A124.332 (d: 18.794)
G1 X-9.397 Y-9.397 Z1.140 F4800.000 A125.058 (d: 18.794)
G1 X-9.397 Y9.397 Z1.140 F4800.000 A125.783 (d: 18.794)
G1 X9.397 Y9.397 Z1.140 F4800.000 A126.509 (d: 18.794)
G1 F798.000 A126.009 (snort)

(infills: 1)
G1 X-8.774 Y-9.397 Z1.140 F6000.000 (move into position)
G1 F798.000 A126.509 (squirt)
G1 X-8.774 Y9.397 Z1.140 F4800.000 A127.235 (d: 18.794)
G1 X-9.183 Y9.397 Z1.140 F4800.000 A127.251 (d: 0.4085)
G1 X-9.183 Y-9.397 Z1.140 F4800.000 A127.976 (d: 18.794)
G1 X-8.366 Y-9.397 Z1.140 F4800.000 A128.008 (d: 0.817)
G1 X-8.366 Y9.397 Z1.140 F4800.000 A128.734 (d: 18.794)
G1 X-7.957 Y9.397 Z1.140 F4800.000 A128.749 (d: 0.4085)
G1 X-7.957 Y-9.397 Z1.140 F4800.000 A129.475 (d: 18.794)
G1 X-7.549 Y-9.397 Z1.140 F4800.000 A129.491 (d: 0.4085)
G1 X-7.549 Y9.397 Z1.140 F4800.000 A130.217 (d: 18.794)
G1 X-7.140 Y9.397 Z1.140 F4800.000 A130.232 (d: 0.4085)
G1 X-7.140 Y-9.397 Z1.140 F4800.000 A130.958 (d: 18.794)
G1 X-6.732 Y-9.397 Z1.140 F4800.000 A130.974 (d: 0.4085)
G1 X-6.732 Y9.397 Z1.140 F4800.000 A131.699 (d: 18.794)
G1 X-6.323 Y9.397 Z1.140 F4800.000 A131.715 (d: 0.4085)
G1 X-6.323 Y-9.397 Z1.140 F4800.000 A132.441 (d: 18.794)
G1 X-5.915 Y-9.397 Z1.140 F4800.000 A132.457 (d: 0.4085)
G1 X-5.915 Y9.397 Z1.140 F4800.000 A133.182 (d: 18.794)
G1 X-5.506 Y9.397 Z1.140 F4800.000 A133.198 (d: 0.4085)
G1 X-5.506 Y-9.397 Z1.140 F4800.000 A133.924 (d: 18.794)
G1 X-5.098 Y-9.397 Z1.140 F4800.000 A133.940 (d: 0.4085)
G1 X-5.098 Y9.397 Z1.140 F4800.000 A134.665 (d: 18.794)
G1 X-4.689 Y9.397 Z1.140 F4800.000 A134.681 (d: 0.4085)
G1 X-4.689 Y-9.397 Z1.140 F4800.000 A135.407 (d: 18.794)
G1 X-4.281 Y-9.397 Z1.140 F4800.000 A135.423 (d: 0.4085)
G1 X-4.281 Y9.397 Z1.140 F4800.000 A136.148 (d: 18.794)
G1 X-3.872 Y9.397 Z1.140 F4800.000 A136.164 (d: 0.4085)
G1 X-3.872 Y-9.397 Z1.140 F4800.000 A136.890 (d: 18.794)
G1 X-3.464 Y-9.397 Z1.140 F4800.000 A136.906 (d: 0.4085)
G1 X-3.464 Y9.397 Z1.140 F4800.000 A137.631 (d: 18.794)
G1 X-3.055 Y9.397 Z1.140 F4800.000 A137.647 (d: 0.4085)
G1 X-3.055 Y-9.397 Z1.140 F4800.000 A138.373 (d: 18.794)
G1 X-2.647 Y-9.397 Z1.140 F4800.000 A138.389 (d: 0.4085)
G1 X-2.647 Y9.397 Z1.140 F4800.000 A139.114 (d: 18.794)
G1 X-2.238 Y9.397 Z1.140 F4800.000 A139.130 (d: 0.4085)
G1 X-2.238 Y-9.397 Z1.140 F4800.000 A139.856 (d: 18.794)
G1 X-1.830 Y-9.397 Z1.140 F4800.000 A139.872 (d: 0.4085)
G1 X-1.830 Y9.397 Z1.140 F4800.000 A140.597 (d: 18.794)
G1 X-1.421 Y9.397 Z1.140 F4800.000 A140.613 (d: 0.4085)
G1 X-1.421 Y-9.397 Z1.140 F4800.000 A141.339 (d: 18.794)
G1 X-1.013 Y-9.397 Z1.140 F4800.000 A141.354 (d: 0.4085)
G1 X-1.013 Y9.397 Z1.140 F4800.000 A142.080 (d: 18.794)
G1 X-0.604 Y9.397 Z1.140 F4800.000 A142.096 (d: 0.4085)
G1 X-0.604 Y-9.397 Z1.140 F4800.000 A142.822 (d: 18.794)
G1 X-0.196 Y-9.397 Z1.140 F4800.000 A142.837 (d: 0.4085)
G1 X-0.196 Y9.397 Z1.140 F4800.000 A143.563 (d: 18.794)
G1 X0.213 Y9.397 Z1.140 F4800.000 A143.579 (d: 0.4085)
G1 X0.213 Y-9.397 Z1.140 F4800.000 A144.305 (d: 18.794)
G1 X0.621 Y-9.397 Z1.140 F4800.000 A144.320 (d: 0.4085)
G1 X0.621 Y9.397 Z1.140 F4800.000 A145.046 (d: 18.794)
G1 X1.030 Y9.397 Z1.140 F4800.000 A145.062 (d: 0.4085)
G1 X1.030 Y-9.397 Z1.140 F4800.000 A145.788 (d: 18.794)
G1 X1.438 Y-9.397 Z1.140 F4800.000 A145.803 (d: 0.4085)
G1 X1.438 Y9.397 Z1.140 F4800.000 A146.529 (d: 18.794)
G1 X1.847 Y9.397 Z1.140 F4800.000 A146.545 (d: 0.4085)
G1 X1.847 Y-9.397 Z1.140 F4800.000 A147.271 (d: 18.794)
G1 X2.255 Y-9.397 Z1.140 F4800.000 A147.286 (d: 0.4085)
G1 X2.255 Y9.397 Z1.140 F4800.000 A148.012 (d: 18.794)
G1 X2.664 Y9.397 Z1.140 F4800.000 A148.028 (d: 0.4085)
G1 X2.664 Y-9.397 Z1.140 F4800.000 A148.753 (d: 18.794)
G1 X3.072 Y-9.397 Z1.140 F4800.000 A148.769 (d: 0.4085)
G1 X3.072 Y9.397 Z1.140 F4800.000 A149.495 (d: 18.794)
G1 X3.481 Y9.397 Z1.140 F4800.000 A149.511 (d: 0.4085)
G1 X3.481 Y-9.397 Z1.140 F4800.000 A150.236 (d: 18.794)
G1 X3.889 Y-9.397 Z1.140 F4800.000 A150.252 (d: 0.4085)
G1 X3.889 Y9.397 Z1.140 F4800.000 A150.978 (d: 18.794)
G1 X4.298 Y9.397 Z1.140 F4800.000 A150.994 (d: 0.4085)
G1 X4.298 Y-9.397 Z1.140 F4800.000 A151.719 (d: 18.794)
G1 X4.706 Y-9.397 Z1.140 F4800.000 A151.735 (d: 0.4085)
G1 X4.706 Y9.397 Z1.140 F4800.000 A152.461 (d: 18.794)
G1 X5.115 Y9.397 Z1.140 F4800.000 A152.477 (d: 0.4085)
G1 X5.115 Y-9.397 Z1.140 F4800.000 A153.202 (d: 18.794)
G1 X5.523 Y-9.397 Z1.140 F4800.000 A153.218 (d: 0.4085)
G1 X5.523 Y9.397 Z1.140 F4800.000 A153.944 (d: 18.794)
G1 X5.932 Y9.397 Z1.140 F4800.000 A153.960 (d: 0.4085)
G1 X5.932 Y-9.397 Z1.140 F4800.000 A154.685 (d: 18.794)
G1 X6.340 Y-9.397 Z1.140 F4800.000 A154.701 (d: 0.4085)
G1 X6.340 Y9.397 Z1.140 F4800.000 A155.427 (d: 18.794)
G1 X6.749 Y9.397 Z1.140 F4800.000 A155.443 (d: 0.4085)
G1 X6.749 Y-9.397 Z1.140 F4800.000 A156.168 (d: 18.794)
G1 X7.157 Y-9.397 Z1.140 F4800.000 A156.184 (d: 0.4085)
G1 X7.157 Y9.397 Z1.140 F4800.000 A156.910 (d: 18.794)
G1 X7.566 Y9.397 Z1.140 F4800.000 A156.926 (d: 0.4085)
G1 X7.566 Y-9.397 Z1.140 F4800.000 A157.651 (d: 18.794)
G1 X7.974 Y-9.397 Z1.140 F4800.000 A157.667 (d: 0.4085)
G1 X7.974 Y9.397 Z1.140 F4800.000 A158.393 (d: 18.794)
G1 X8.383 Y9.397 Z1.140 F4800.000 A158.408 (d: 0.4085)
G1 X8.383 Y-9.397 Z1.140 F4800.000 A159.134 (d: 18.794)
G1 X8.791 Y-9.397 Z1.140 F4800.000 A159.150 (d: 0.4085)
G1 X8.791 Y9.397 Z1.140 F4800.000 A159.876 (d: 18.794)
G1 X9.200 Y9.397 Z1.140 F4800.000 A159.891 (d: 0.4085)
G1 X9.200 Y-9.397 Z1.140 F4800.000 A160.617 (d: 18.794)
G1 F798.000 A160.117 (snort)

(Slice 4, 1 Extruder)
G1 Z1.410 F500.000 (move Z)
(insets: 2)
G1 X9.784 Y9.784 Z1.410 F6000.000 (move into position)
G1 F798.000 A160.617 (squirt)
G1 X9.784 Y-9.784 Z1.410 F4800.000 A161.373 (d: 19.568)
G1 X-9.784 Y-9.784 Z1.410 F4800.000 A162.128 (d: 19.568)
G1 X-9.784 Y9.784 Z1.410 F4800.000 A162.884 (d: 19.568)
G1 X9.784 Y9.784 Z1.410 F4800.000 A163.640 (d: 19.568)
G1 F798.000 A163.140 (snort)

G1 X9.397 Y9.397 Z1.410 F6000.000 (move into position)
G1 F798.000 A163.640 (squirt)
G1 X9.397 Y-9.397 Z1.410 F4800.000 A164.365 (d: 18.794)
G1 X-9.397 Y-9.397 Z1.410 F4800.000 A165.091 (d: 18.794)
G1 X-9.397 Y9.397 Z1.410 F4800.000 A165.817 (d: 18.794)
G1 X9.397 Y9.397 Z1.410 F4800.000 A166.542 (d: 18.794)
G1 F798.000 A166.042 (snort)

(infills: 2)
G1 X-9.397 Y-8.775 Z1.410 F6000.000 (move into position)
G1 F798.000 A166.542 (squirt)
G1 X9.397 Y-8.775 Z1.410 F4800.000 A167.268 (d: 18.794)
G1 F798.000 A166.768 (snort)

G1 X9.397 Y-9.183 Z1.410 F6000.000 (move into position)
G1 F798.000 A167.268 (squirt)
G1 X-9.397 Y-9.183 Z1.410 F4800.000 A167.994 (d: 18.794)
G1 X-9.397 Y-8.366 Z1.410 F4800.000 A168.025 (d: 0.817)
G1 X9.397 Y-8.366 Z1.410 F4800.000 A168.751 (d: 18.794)
G1 X9.397 Y-7.958 Z1.410 F4800.000 A168.767 (d: 0.4085)
G1 X-9.397 Y-7.958 Z1.410 F4800.000 A169.492 (d: 18.794)
G1 X-9.397 Y-7.549 Z1.410 F4800.000 A169.508 (d: 0.4085)
G1 X9.397 Y-7.549 Z1.410 F4800.000 A170.234 (d: 18.794)
G1 X9.397 Y-7.141 Z1.410 F4800.000 A170.250 (d: 0.4085)
G1 X-9.397 Y-7.141 Z1.410 F4800.000 A170.975 (d: 18.794)
G1 X-9.397 Y-6.732 Z1.410 F4800.000 A170.991 (d: 0.4085)
G1 X9.397 Y-6.732 Z1.410 F4800.000 A171.717 (d: 18.794)
G1 X9.397 Y-6.324 Z1.410 F4800.000 A171.733 (d: 0.4085)
G1 X-9.397 Y-6.324 Z1.410 F4800.000 A172.458 (d: 18.794)
G1 X-9.397 Y-5.915 Z1.410 F4800.000 A172.474 (d: 0.4085)
G1 X9.397 Y-5.915 Z1.410 F4800.000 A173.200 (d: 18.794)
G1 X9.397 Y-5.507 Z1.410 F4800.000 A173.216 (d: 0.4085)
G1 X-9.397 Y-5.507 Z1.410 F4800.000 A173.941 (d: 18.794)
G1 X-9.397 Y-5.098 Z1.410 F4800.000 A173.957 (d: 0.4085)
G1 X9.397 Y-5.098 Z1.410 F4800.000 A174.683 (d: 18.794)
G1 X9.397 Y-4.690 Z1.410 F4800.000 A174.699 (d: 0.4085)
G1 X-9.397 Y-4.690 Z1.410 F4800.000 A175.424 (d: 18.794)
G1 X-9.397 Y-4.281 Z1.410 F4800.000 A175.440 (d: 0.4085)
G1 X9.397 Y-4.281 Z1.410 F4800.000 A176.166 (d: 18.794)
G1 X9.397 Y-3.873 Z1.410 F4800.000 A176.182 (d: 0.4085)
G1 X-9.397 Y-3.873 Z1.410 F4800.000 A176.907 (d: 18.794)
G1 X-9.397 Y-3.464 Z1.410 F4800.000 A176.923 (d: 0.4085)
G1 X9.397 Y-3.464 Z1.410 F4800.000 A177.649 (d: 18.794)
G1 X9.397 Y-3.056 Z1.410 F4800.000 A177.665 (d: 0.4085)
G1 X-9.397 Y-3.056 Z1.410 F4800.000 A178.390 (d: 18.794)
G1 X-9.397 Y-2.647 Z1.410 F4800.000 A178.406 (d: 0.4085)
G1 X9.397 Y-2.647 Z1.410 F4800.000 A179.132 (d: 18.794)
G1 X9.397 Y-2.239 Z1.410 F4800.000 A179.147 (d: 0.4085)
G1 X-9.397 Y-2.239 Z1.410 F4800.000 A179.873 (d: 18.794)
G1 X-9.397 Y-1.830 Z1.410 F4800.000 A179.889 (d: 0.4085)
G1 X9.397 Y-1.830 Z1.410 F4800.000 A180.615 (d: 18.794)
G1 X9.397 Y-1.422 Z1.410 F4800.000 A180.630 (d: 0.4085)
G1 X-9.397 Y-1.422 Z1.410 F4800.000 A181.356 (d: 18.794)
G1 X-9.397 Y-1.013 Z1.410 F4800.000 A181.372 (d: 0.4085)
G1 X9.397 Y-1.013 Z1.410 F4800.000 A182.098 (d: 18.794)
G1 X9.397 Y-0.605 Z1.410 F4800.000 A182.113 (d: 0.4085)
G1 X-9.397 Y-0.605 Z1.410 F4800.000 A182.839 (d: 18.794)
G1 X-9.397 Y-0.196 Z1.410 F4800.000 A182.855 (d: 0.4085)
G1 X9.397 Y-0.196 Z1.410 F4800.000 A183.581 (d: 18.794)
G1 X9.397 Y0.212 Z1.410 F4800.000 A183.596 (d: 0.4085)
G1 X-9.397 Y0.212 Z1.410 F4800.000 A184.322 (d: 18.794)
G1 X-9.397 Y0.621 Z1.410 F4800.000 A184.338 (d: 0.4085)
G1 X9.397 Y0.621 Z1.410 F4800.000 A185.064 (d: 18.794)
G1 X9.397 Y1.029 Z1.410 F4800.000 A185.079 (d: 0.4085)
G1 X-9.397 Y1.029 Z1.410 F4800.000 A185.805 (d: 18.794)
G1 X-9.397 Y1.438 Z1.410 F4800.000 A185.821 (d: 0.4085)
G1 X9.397 Y1.438 Z1.410 F4800.000 A186.547 (d: 18.794)
G1 X9.397 Y1.846 Z1.410 F4800.000 A186.562 (d: 0.4085)
G1 X-9.397 Y1.846 Z1.410 F4800.000 A187.288 (d: 18.794)
G1 X-9.397 Y2.255 Z1.410 F4800.000 A187.304 (d: 0.4085)
G1 X9.397 Y2.255 Z1.410 F4800.000 A188.029 (d: 18.794)
G1 X9.397 Y2.663 Z1.410 F4800.000 A188.045 (d: 0.4085)
G1 X-9.397 Y2.663 Z1.410 F4800.000 A188.771 (d: 18.794)
G1 X-9.397 Y3.072 Z1.410 F4800.000 A188.787 (d: 0.4085)
G1 X9.397 Y3.072 Z1.410 F4800.000 A189.512 (d: 18.794)
G1 X9.397 Y3.480 Z1.410 F4800.000 A189.528 (d: 0.4085)
G1 X-9.397 Y3.480 Z1.410 F4800.000 A190.254 (d: 18.794)
G1 X-9.397 Y3.889 Z1.410 F4800.000 A190.270 (d: 0.4085)
G1 X9.397 Y3.889 Z1.410 F4800.000 A190.995 (d: 18.794)
G1 X9.397 Y4.297 Z1.410 F4800.000 A191.011 (d: 0.4085)
G1 X-9.397 Y4.297 Z1.410 F4800.000 A191.737 (d: 18.794)
G1 X-9.397 Y4.706 Z1.410 F4800.000 A191.753 (d: 0.4085)
G1 X9.397 Y4.706 Z1.410 F4800.000 A192.478 (d: 18.794)
G1 X9.397 Y5.114 Z1.410 F4800.000 A192.494 (d: 0.4085)
G1 X-9.397 Y5.114 Z1.410 F4800.000 A193.220 (d: 18.794)
G1 X-9.397 Y5.523 Z1.410 F4800.000 A193.236 (d: 0.4085)
G1 X9.397 Y5.523 Z1.410 F4800.000 A193.961 (d: 18.794)
G1 X9.397 Y5.931 Z1.410 F4800.000 A193.977 (d: 0.4085)
G1 X-9.397 Y5.931 Z1.410 F4800.000 A194.703 (d: 18.794)
G1 X-9.397 Y6.340 Z1.410 F4800.000 A194.719 (d: 0.4085)
G1 X9.397 Y6.340 Z1.410 F4800.000 A195.444 (d: 18.794)
G1 X9.397 Y6.748 Z1.410 F4800.000 A195.460 (d: 0.4085)
G1 X-9.397 Y6.748 Z1.410 F4800.000 A196.186 (d: 18.794)
G1 X-9.397 Y7.157 Z1.410 F4800.000 A196.202 (d: 0.4085)
G1 X9.397 Y7.157 Z1.410 F4800.000 A196.927 (d: 18.794)
G1 X9.397 Y7.565 Z1.410 F4800.000 A196.943 (d: 0.4085)
G1 X-9.397 Y7.565 Z1.410 F4800.000 A197.669 (d: 18.794)
G1 X-9.397 Y7.974 Z1.410 F4800.000 A197.684 (d: 0.4085)
G1 X9.397 Y7.974 Z1.410 F4800.000 A198.410 (d: 18.794)
G1 X9.397 Y8.382 Z1.410 F4800.000 A198.426 (d: 0.4085)
G1 X-9.397 Y8.382 Z1.410 F4800.000 A199.152 (d: 18.794)
G1 X-9.397 Y8.791 Z1.410 F4800.000 A199.167 (d: 0.4085)
G1 X9.397 Y8.791 Z1.410 F4800.000 A199.893 (d: 18.794)
G1 X9.397 Y9.199 Z1.410 F4800.000 A199.909 (d: 0.4085)
G1 X-9.397 Y9.199 Z1.410 F4800.000 A200.635 (d: 18.794)
G1 F798.000 A200.135 (snort)

(Slice 5, 1 Extruder)
G1 Z1.680 F500.000 (move Z)
(insets: 2)
G1 X9.784 Y9.784 Z1.680 F6000.000 (move into position)
G1 F798.000 A200.635 (squirt)
G1 X9.784 Y-9.784 Z1.680 F4800.000 A201.390 (d: 19.568)
G1 X-9.784 Y-9.784 Z1.680 F4800.000 A202.146 (d: 19.568)
G1 X-9.784 Y9.784 Z1.680 F4800.000 A202.901 (d: 19.568)
G1 X9.784 Y9.784 Z1.680 F4800.000 A203.657 (d: 19.568)
G1 F798.000 A203.157 (snort)

G1 X9.397 Y9.397 Z1.680 F6000.000 (move into position)
G1 F798.000 A203.657 (squirt)
G1 X9.397 Y-9.397 Z1.680 F4800.000 A204.383 (d: 18.794)
G1 X-9.397 Y-9.397 Z1.680 F4800.000 A205.108 (d: 18.794)
G1 X-9.397 Y9.397 Z1.680 F4800.000 A205.834 (d: 18.794)
G1 X9.397 Y9.397 Z1.680 F4800.000 A206.560 (d: 18.794)
G1 F798.000 A206.060 (snort)

(infills: 1)
G1 X-8.774 Y-9.397 Z1.680 F6000.000 (move into position)
G1 F798.000 A206.560 (squirt)
G1 X-8.774 Y9.397 Z1.680 F4800.000 A207.286 (d: 18.794)
G1 X-9.183 Y9.397 Z1.680 F4800.000 A207.301 (d: 0.4085)
G1 X-9.183 Y-9.397 Z1.680 F4800.000 A208.027 (d: 18.794)
G1 X-8.366 Y-9.397 Z1.680 F4800.000 A208.059 (d: 0.817)
G1 X-8.366 Y9.397 Z1.680 F4800.000 A208.784 (d: 18.794)
G1 X-7.957 Y9.397 Z1.680 F4800.000 A208.800 (d: 0.4085)
G1 X-7.957 Y-9.397 Z1.680 F4800.000 A209.526 (d: 18.794)
G1 X-7.549 Y-9.397 Z1.680 F4800.000 A209.541 (d: 0.4085)
G1 X-7.549 Y9.397 Z1.680 F4800.000 A210.267 (d: 18.794)
G1 X-7.140 Y9.397 Z1.680 F4800.000 A210.283 (d: 0.4085)
G1 X-7.140 Y-9.397 Z1.680 F4800.000 A211.009 (d: 18.794)
G1 X-6.732 Y-9.397 Z1.680 F4800.000 A211.024 (d: 0.4085)
G1 X-6.732 Y9.397 Z1.680 F4800.000 A211.750 (d: 18.794)
G1 X-6.323 Y9.397 Z1.680 F4800.000 A211.766 (d: 0.4085)
G1 X-6.323 Y-9.397 Z1.680 F4800.000 A212.492 (d: 18.794)
G1 X-5.915 Y-9.397 Z1.680 F4800.000 A212.507 (d: 0.4085)
G1 X-5.915 Y9.397 Z1.680 F4800.000 A213.233 (d: 18.794)
G1 X-5.506 Y9.397 Z1.680 F4800.000 A213.249 (d: 0.4085)
G1 X-5.506 Y-9.397 Z1.680 F4800.000 A213.975 (d: 18.794)
G1 X-5.098 Y-9.397 Z1.680 F4800.000 A213.990 (d: 0.4085)
G1 X-5.098 Y9.397 Z1.680 F4800.000 A214.716 (d: 18.794)
G1 X-4.689 Y9.397 Z1.680 F4800.000 A214.732 (d: 0.4085)
G1 X-4.689 Y-9.397 Z1.680 F4800.000 A215.458 (d: 18.794)
G1 X-4.281 Y-9.397 Z1.680 F4800.000 A215.473 (d: 0.4085)
G1 X-4.281 Y9.397 Z1.680 F4800.000 A216.199 (d: 18.794)
G1 X-3.872 Y9.397 Z1.680 F4800.000 A216.215 (d: 0.4085)
G1 X-3.872 Y-9.397 Z1.680 F4800.000 A216.941 (d: 18.794)
G1 X-3.464 Y-9.397 Z1.680 F4800.000 A216.956 (d: 0.4085)
G1 X-3.464 Y9.397 Z1.680 F4800.000 A217.682 (d: 18.794)
G1 X-3.055 Y9.397 Z1.680 F4800.000 A217.698 (d: 0.4085)
G1 X-3.055 Y-9.397 Z1.680 F4800.000 A218.423 (d: 18.794)
G1 X-2.647 Y-9.397 Z1.680 F4800.000 A218.439 (d: 0.4085)
G1 X-2.647 Y9.397 Z1.680 F4800.000 A219.165 (d: 18.794)
G1 X-2.238 Y9.397 Z1.680 F4800.000 A219.181 (d: 0.4085)
G1 X-2.238 Y-9.397 Z1.680 F4800.000 A219.906 (d: 18.794)
G1 X-1.830 Y-9.397 Z1.680 F4800.000 A219.922 (d: 0.4085)
G1 X-1.830 Y9.397 Z1.680 F4800.000 A220.648 (d: 18.794)
G1 X-1.421 Y9.397 Z1.680 F4800.000 A220.664 (d: 0.4085)
G1 X-1.421 Y-9.397 Z1.680 F4800.000 A221.389 (d: 18.794)
G1 X-1.013 Y-9.397 Z1.680 F4800.000 A221.405 (d: 0.4085)
G1 X-1.013 Y9.397 Z1.680 F4800.000 A222.131 (d: 18.794)
G1 X-0.604 Y9.397 Z1.680 F4800.000 A222.147 (d: 0.4085)
G1 X-0.604 Y-9.397 Z1.680 F4800.000 A222.872 (d: 18.794)
G1 X-0.196 Y-9.397 Z1.680 F4800.000 A222.888 (d: 0.4085)
G1 X-0.196 Y9.397 Z1.680 F4800.000 A223.614 (d: 18.794)
G1 X0.213 Y9.397 Z1.680 F4800.000 A223.630 (d: 0.4085)
G1 X0.213 Y-9.397 Z1.680 F4800.000 A224.355 (d: 18.794)
G1 X0.621 Y-9.397 Z1.680 F4800.000 A224.371 (d: 0.4085)
G1 X0.621 Y9.397 Z1.680 F4800.000 A225.097 (d: 18.794)
G1 X1.030 Y9.397 Z1.680 F4800.000 A225.113 (d: 0.4085)
G1 X1.030 Y-9.397 Z1.680 F4800.000 A225.838 (d: 18.794)
G1 X1.438 Y-9.397 Z1.680 F4800.000 A225.854 (d: 0.4085)
G1 X1.438 Y9.397 Z1.680 F4800.000 A226.580 (d: 18.794)
G1 X1.847 Y9.397 Z1.680 F4800.000 A226.596 (d: 0.4085)
G1 X1.847 Y-9.397 Z1.680 F4800.000 A227.321 (d: 18.794)
G1 X2.255 Y-9.397 Z1.680 F4800.000 A227.337 (d: 0.4085)
G1 X2.255 Y9.397 Z1.680 F4800.000 A228.063 (d: 18.794)
G1 X2.664 Y9.397 Z1.680 F4800.000 A228.078 (d: 0.4085)
G1 X2.664 Y-9.397 Z1.680 F4800.000 A228.804 (d: 18.794)
G1 X3.072 Y-9.397 Z1.680 F4800.000 A228.820 (d: 0.4085)
G1 X3.072 Y9.397 Z1.680 F4800.000 A229.546 (d: 18.794)
G1 X3.481 Y9.397 Z1.680 F4800.000 A229.561 (d: 0.4085)
G1 X3.481 Y-9.397 Z1.680 F4800.000 A230.287 (d: 18.794)
G1 X3.889 Y-9.397 Z1.680 F4800.000 A230.303 (d: 0.4085)
G1 X3.889 Y9.397 Z1.680 F4800.000 A231.029 (d: 18.794)
G1 X4.298 Y9.397 Z1.680 F4800.000 A231.044 (d: 0.4085)
G1 X4.298 Y-9.397 Z1.680 F4800.000 A231.770 (d: 18.794)
G1 X4.706 Y-9.397 Z1.680 F4800.000 A231.786 (d: 0.4085)
G1 X4.706 Y9.397 Z1.680 F4800.000 A232.512 (d: 18.794)
G1 X5.115 Y9.397 Z1.680 F4800.000 A232.527 (d: 0.4085)
G1 X5.115 Y-9.397 Z1.680 F4800.000 A233.253 (d: 18.794)
G1 X5.523 Y-9.397 Z1.680 F4800.000 A233.269 (d: 0.4085)
G1 X5.523 Y9.397 Z1.680 F4800.000 A233.995 (d: 18.794)
G1 X5.932 Y9.397 Z1.680 F4800.000 A234.010 (d: 0.4085)
G1 X5.932 Y-9.397 Z1.680 F4800.000 A234.736 (d: 18.794)
G1 X6.340 Y-9.397 Z1.680 F4800.000 A234.752 (d: 0.4085)
G1 X6.340 Y9.397 Z1.680 F4800.000 A235.477 (d: 18.794)
G1 X6.749 Y9.397 Z1.680 F4800.000 A235.493 (d: 0.4085)
G1 X6.749 Y-9.397 Z1.680 F4800.000 A236.219 (d: 18.794)
G1 X7.157 Y-9.397 Z1.680 F4800.000 A236.235 (d: 0.4085)
G1 X7.157 Y9.397 Z1.680 F4800.000 A236.960 (d: 18.794)
G1 X7.566 Y9.397 Z1.680 F4800.000 A236.976 (d: 0.4085)
G1 X7.566 Y-9.397 Z1.680 F4800.000 A237.702 (d: 18.794)
G1 X7.974 Y-9.397 Z1.680 F4800.000 A237.718 (d: 0.4085)
G1 X7.974 Y9.397 Z1.680 F4800.000 A238.443 (d: 18.794)
G1 X8.383 Y9.397 Z1.680 F4800.000 A238.459 (d: 0.4085)
G1 X8.383 Y-9.397 Z1.680 F4800.000 A239.185 (d: 18.794)
G1 X8.791 Y-9.397 Z1.680 F4800.000 A239.201 (d: 0.4085)
G1 X8.791 Y9.397 Z1.680 F4800.000 A239.926 (d: 18.794)
G1 X9.200 Y9.397 Z1.680 F4800.000 A239.942 (d: 0.4085)
G1 X9.200 Y-9.397 Z1.680 F4800.000 A240.668 (d: 18.794)
G1 F798.000 A240.168 (snort)

(Slice 6, 1 Extruder)
G1 Z1.950 F500.000 (move Z)
(insets: 2)
G1 X9.784 Y9.784 Z1.950 F6000.000 (move into position)
G1 F798.000 A240.668 (squirt)
G1 X9.784 Y-9.784 Z1.950 F4800.000 A241.423 (d: 19.568)
G1 X-9.784 Y-9.784 Z1.950 F4800.000 A242.179 (d: 19.568)
G1 X-9.784 Y9.784 Z1.950 F4800.000 A242.935 (d: 19.568)
G1 X9.784 Y9.784 Z1.950 F4800.000 A243.690 (d: 19.568)
G1 F798.000 A243.190 (snort)

G1 X9.397 Y9.397 Z1.950 F6000.000 (move into position)
G1 F798.000 A243.690 (squirt)
G1 X9.397 Y-9.397 Z1.950 F4800.000 A244.416 (d: 18.794)
G1 X-9.397 Y-9.397 Z1.950 F4800.000 A245.142 (d: 18.794)
G1 X-9.397 Y9.397 Z1.950 F4800.000 A245.867 (d: 18.794)
G1 X9.397 Y9.397 Z1.950 F4800.000 A246.593 (d: 18.794)
G1 F798.000 A246.093 (snort)

(infills: 2)
G1 X-9.397 Y-2.647 Z1.950 F6000.000 (move into position)
G1 F798.000 A246.593 (squirt)
G1 X9.397 Y-2.647 Z1.950 F4800.000 A247.319 (d: 18.794)
G1 X9.397 Y1.029 Z1.950 F4800.000 A247.461 (d: 3.6765)
G1 X-9.397 Y1.029 Z1.950 F4800.000 A248.186 (d: 18.794)
G1 X-9.397 Y4.706 Z1.950 F4800.000 A248.328 (d: 3.6765)
G1 X9.397 Y4.706 Z1.950 F4800.000 A249.054 (d: 18.794)
G1 X9.397 Y8.382 Z1.950 F4800.000 A249.196 (d: 3.6765)
G1 X-9.397 Y8.382 Z1.950 F4800.000 A249.922 (d: 18.794)
G1 F798.000 A249.422 (snort)

G1 X9.397 Y-6.324 Z1.950 F6000.000 (move into position)
G1 F798.000 A249.922 (squirt)
G1 X-9.397 Y-6.324 Z1.950 F4800.000 A250.647 (d: 18.794)
G1 F798.000 A250.147 (snort)

(Slice 7, 1 Extruder)
G1 Z2.220 F500.000 (move Z)
(insets: 2)
G1 X9.784 Y9.784 Z2.220 F6000.000 (move into position)
G1 F798.000 A250.647 (squirt)
G1 X9.784 Y-9.784 Z2.220 F4800.000 A251.403 (d: 19.568)
G1 X-9.784 Y-9.784 Z2.220 F4800.000 A252.159 (d: 19.568)
G1 X-9.784 Y9.784 Z2.220 F4800.000 A252.914 (d: 19.568)
G1 X9.784 Y9.784 Z2.220 F4800.000 A253.670 (d: 19.568)
G1 F798.000 A253.170 (snort)

G1 X9.397 Y9.397 Z2.220 F6000.000 (move into position)
G1 F798.000 A253.670 (squirt)
G1 X9.397 Y-9.397 Z2.220 F4800.000 A254.396 (d: 18.794)
G1 X-9.397 Y-9.397 Z2.220 F4800.000 A255.121 (d: 18.794)
G1 X-9.397 Y9.397 Z2.220 F4800.000 A255.847 (d: 18.794)
G1 X9.397 Y9.397 Z2.220 F4800.000 A256.573 (d: 18.794)
G1 F798.000 A256.073 (snort)

(infills: 2)
G1 X-2.647 Y-9.397 Z2.220 F6000.000 (move into position)
G1 F798.000 A256.573 (squirt)
G1 X-2.647 Y9.397 Z2.220 F4800.000 A257.298 (d: 18.794)
G1 F798.000 A256.798 (snort)

G1 X1.030 Y9.397 Z2.220 F6000.000 (move into position)
G1 F798.000 A257.298 (squirt)
G1 X1.030 Y-9.397 Z2.220 F4800.000 A258.024 (d: 18.794)
G1 X4.706 Y-9.397 Z2.220 F4800.000 A258.166 (d: 3.6765)
G1 X4.706 Y9.397 Z2.220 F4800.000 A258.892 (d: 18.794)
G1 X8.383 Y9.397 Z2.220 F4800.000 A259.034 (d: 3.6765)
G1 X8.383 Y-9.397 Z2.220 F4800.000 A259.759 (d: 18.794)
G1 X-6.323 Y9.397 Z2.220 F4800.000 A260.681 (d: 23.8638)
G1 X-6.323 Y-9.397 Z2.220 F4800.000 A261.407 (d: 18.794)
G1 F798.000 A260.907 (snort)

(Slice 8, 1 Extruder)
G1 Z2.490 F500.000 (move Z)
(insets: 2)
G1 X9.784 Y9.784 Z2.490 F6000.000 (move into position)
G1 F798.000 A261.407 (squirt)
G1 X9.784 Y-9.784 Z2.490 F4800.000 A262.162 (d: 19.568)
G1 X-9.784 Y-9.784 Z2.490 F4800.000 A262.918 (d: 19.568)
G1 X-9.784 Y9.784 Z2.490 F4800.000 A263.673 (d: 19.568)
G1 X9.784 Y9.784 Z2.490 F4800.000 A264.429 (d: 19.568)
G1 F798.000 A263.929 (snort)

G1 X9.397 Y9.397 Z2.490 F6000.000 (move into position)
G1 F798.000 A264.429 (squirt)
G1 X9.397 Y-9.397 Z2.490 F4800.000 A265.155 (d: 18.794)
G1 X-9.397 Y-9.397 Z2.490 F4800.000 A265.880 (d: 18.794)
G1 X-9.397 Y9.397 Z2.490 F4800.000 A266.606 (d: 18.794)
G1 X9.397 Y9.397 Z2.490 F4800.000 A267.332 (d: 18.794)
G1 F798.000 A266.832 (snort)

(infills: 2)
G1 X-9.397 Y-2.647 Z2.490 F6000.000 (move into position)
G1 F798.000 A267.332 (squirt)
G1 X9.397 Y-2.647 Z2.490 F4800.000 A268.057 (d: 18.794)
G1 X9.397 Y1.029 Z2.490 F4800.000 A268.199 (d: 3.6765)
G1 X-9.397 Y1.029 Z2.490 F4800.000 A268.925 (d: 18.794)
G1 X-9.397 Y4.706 Z2.490 F4800.000 A269.067 (d: 3.6765)
G1 X9.397 Y4.706 Z2.490 F4800.000 A269.793 (d: 18.794)
G1 X9.397 Y8.382 Z2.490 F4800.000 A269.935 (d: 3.6765)
G1 X-9.397 Y8.382 Z2.490 F4800.000 A270.660 (d: 18.794)
G1 F798.000 A270.160 (snort)

G1 X9.397 Y-6.324 Z2.490 F6000.000 (move into position)
G1 F798.000 A270.660 (squirt)
G1 X-9.397 Y-6.324 Z2.490 F4800.000 A271.386 (d: 18.794)
G1 F798.000 A270.886 (snort)

(Slice 9, 1 Extruder)
G1 Z2.760 F500.000 (move Z)
(insets: 2)
G1 X9.784 Y9.784 Z2.760 F6000.000 (move into position)
G1 F798.000 A271.386 (squirt)
G1 X9.784 Y-9.784 Z2.760 F4800.000 A272.142 (d: 19.568)
G1 X-9.784 Y-9.784 Z2.760 F4800.000 A272.897 (d: 19.568)
G1 X-9.784 Y9.784 Z2.760 F4800.000 A273.653 (d: 19.568)
G1 X9.784 Y9.784 Z2.760 F4800.000 A274.409 (d: 19.568)
G1 F798.000 A273.909 (snort)

G1 X9.397 Y9.397 Z2.760 F6000.000 (move into position)
G1 F798.000 A274.409 (squirt)
G1 X9.397 Y-9.397 Z2.760 F4800.000 A275.134 (d: 18.794)
G1 X-9.397 Y-9.397 Z2.760 F4800.000 A275.860 (d: 18.794)
G1 X-9.397 Y9.397 Z2.760 F4800.000 A276.586 (d: 18.794)
G1 X9.397 Y9.397 Z2.760 F4800.000 A277.311 (d: 18.794)
G1 F798.000 A276.811 (snort)

(infills: 2)
G1 X-2.647 Y-9.397 Z2.760 F6000.000 (move into position)
G1 F798.000 A277.311 (squirt)
G1 X-2.647 Y9.397 Z2.760 F4800.000 A278.037 (d: 18.794)
G1 F798.000 A277.537 (snort)

G1 X1.030 Y9.397 Z2.760 F6000.000 (move into position)
G1 F798.000 A278.037 (squirt)
G1 X1.030 Y-9.397 Z2.760 F4800.000 A278.763 (d: 18.794)
G1 X4.706 Y-9.397 Z2.760 F4800.000 A278.905 (d: 3.6765)
G1 X4.706 Y9.397 Z2.760 F4800.000 A279.630 (d: 18.794)
G1 X8.383 Y9.397 Z2.760 F4800.000 A279.772 (d: 3.6765)
G1 X8.383 Y-9.397 Z2.760 F4800.000 A280.498 (d: 18.794)
G1 X-6.323 Y9.397 Z2.760 F4800.000 A281.420 (d: 23.8638)
G1 X-6.323 Y-9.397 Z2.760 F4800.000 A282.145 (d: 18.794)
G1 F798.000 A281.645 (snort)

(Slice 10, 1 Extruder)
G1 Z3.030 F500.000 (move Z)
(insets: 2)
G1 X9.784 Y9.784 Z3.030 F6000.000 (move into position)
G1 F798.000 A282.145 (squirt)
G1 X9.784 Y-9.784 Z3.030 F4800.000 A282.901 (d: 19.568)
G1 X-9.784 Y-9.784 Z3.030 F4800.000 A283.656 (d: 19.568)
G1 X-9.784 Y9.784 Z3.030 F4800.000 A284.412 (d: 19.568)
G1 X9.784 Y9.784 Z3.030 F4800.000 A285.168 (d: 19.568)
G1 F798.000 A284.668 (snort)

G1 X9.397 Y9.397 Z3.030 F6000.000 (move into position)
G1 F798.000 A285.168 (squirt)
G1 X9.397 Y-9.397 Z3.030 F4800.000 A285.893 (d: 18.794)
G1 X-9.397 Y-9.397 Z3.030 F4800.000 A286.619 (d: 18.794)
G1 X-9.397 Y9.397 Z3.030 F4800.000 A287.345 (d: 18.794)
G1 X9.397 Y9.397 Z3.030 F4800.000 A288.070 (d: 18.794)
G1 F798.000 A287.570 (snort)

(infills: 2)
G1 X-9.397 Y-2.647 Z3.030 F6000.000 (move into position)
G1 F798.000 A288.070 (squirt)
G1 X9.397 Y-2.647 Z3.030 F4800.000 A288.796 (d: 18.794)
G1 X9.397 Y1.029 Z3.030 F4800.000 A288.938 (d: 3.6765)
G1 X-9.397 Y1.029 Z3.030 F4800.000 A289.664 (d: 18.794)
G1 X-9.397 Y4.706 Z3.030 F4800.000 A289.806 (d: 3.6765)
G1 X9.397 Y4.706 Z3.030 F4800.000 A290.532 (d: 18.794)
G1 X9.397 Y8.382 Z3.030 F4800.000 A290.673 (d: 3.6765)
G1 X-9.397 Y8.382 Z3.030 F4800.000 A291.399 (d: 18.794)
G1 F798.000 A290.899 (snort)

G1 X9.397 Y-6.324 Z3.030 F6000.000 (move into position)
G1 F798.000 A291.399 (squirt)
G1 X-9.397 Y-6.324 Z3.030 F4800.000 A292.125 (d: 18.794)
G1 F798.000 A291.625 (snort)

(Slice 11, 1 Extruder)
G1 Z3.300 F500.000 (move Z)
(insets: 2)
G1 X9.784 Y9.784 Z3.300 F6000.000 (move into position)
G1 F798.000 A292.125 (squirt)
G1 X9.784 Y-9.784 Z3.300 F4800.000 A292.880 (d: 19.568)
G1 X-9.784 Y-9.784 Z3.300 F4800.000 A293.636 (d: 19.568)
G1 X-9.784 Y9.784 Z3.300 F4800.000 A294.392 (d: 19.568)
G1 X9.784 Y9.784 Z3.300 F4800.000 A295.147 (d: 19.568)
G1 F798.000 A294.647 (snort)

G1 X9.397 Y9.397 Z3.300 F6000.000 (move into position)
G1 F798.000 A295.147 (squirt)
G1 X9.397 Y-9.397 Z3.300 F4800.000 A295.873 (d: 18.794)
G1 X-9.397 Y-9.397 Z3.300 F4800.000 A296.599 (d: 18.794)
G1 X-9.397 Y9.397 Z3.300 F4800.000 A297.324 (d: 18.794)
G1 X9.397 Y9.397 Z3.300 F4800.000 A298.050 (d: 18.794)
G1 F798.000 A297.550 (snort)

(infills: 2)
G1 X-2.647 Y-9.397 Z3.300 F6000.000 (move into position)
G1 F798.000 A298.050 (squirt)
G1 X-2.647 Y9.397 Z3.300 F4800.000 A298.776 (d: 18.794)
G1 X1.030 Y9.397 Z3.300 F4800.000 A298.918 (d: 3.6765)
G1 X1.030 Y-9.397 Z3.300 F4800.000 A299.643 (d: 18.794)
G1 X4.706 Y-9.397 Z3.300 F4800.000 A299.785 (d: 3.6765)
G1 X4.706 Y9.397 Z3.300 F4800.000 A300.511 (d: 18.794)
G1 X8.383 Y9.397 Z3.300 F4800.000 A300.653 (d: 3.6765)
G1 X8.383 Y-9.397 Z3.300 F4800.000 A301.379 (d: 18.794)
G1 F798.000 A300.879 (snort)

G1 X-6.323 Y9.397 Z3.300 F6000.000 (move into position)
G1 F798.000 A301.379 (squirt)
G1 X-6.323 Y-9.397 Z3.300 F4800.000 A302.105 (d: 18.794)
G1 F798.000 A301.605 (snort)

(Slice 12, 1 Extruder)
G1 Z3.570 F500.000 (move Z)
(insets: 2)
G1 X9.784 Y9.784 Z3.570 F6000.000 (move into position)
G1 F798.000 A302.105 (squirt)
G1 X9.784 Y-9.784 Z3.570 F4800.000 A302.860 (d: 19.568)
G1 X-9.784 Y-9.784 Z3.570 F4800.000 A303.616 (d: 19.568)
G1 X-9.784 Y9.784 Z3.570 F4800.000 A304.371 (d: 19.568)
G1 X9.784 Y9.784 Z3.570 F4800.000 A305.127 (d: 19.568)
G1 F798.000 A304.627 (snort)

G1 X9.397 Y9.397 Z3.570 F6000.000 (move into position)
G1 F798.000 A305.127 (squirt)
G1 X9.397 Y-9.397 Z3.570 F4800.000 A305.853 (d: 18.794)
G1 X-9.397 Y-9.397 Z3.570 F4800.000 A306.578 (d: 18.794)
G1 X-9.397 Y9.397 Z3.570 F4800.000 A307.304 (d: 18.794)
G1 X9.397 Y9.397 Z3.570 F4800.000 A308.030 (d: 18.794)
G1 F798.000 A307.530 (snort)

(infills: 2)
G1 X-9.397 Y-2.647 Z3.570 F6000.000 (move into position)
G1 F798.000 A308.030 (squirt)
G1 X9.397 Y-2.647 Z3.570 F4800.000 A308.755 (d: 18.794)
G1 X9.397 Y1.029 Z3.570 F4800.000 A308.897 (d: 3.6765)
G1 X-9.397 Y1.029 Z3.570 F4800.000 A309.623 (d: 18.794)
G1 X-9.397 Y4.706 Z3.570 F4800.000 A309.765 (d: 3.6765)
G1 X9.397 Y4.706 Z3.570 F4800.000 A310.491 (d: 18.794)
G1 X9.397 Y8.382 Z3.570 F4800.000 A310.633 (d: 3.6765)
G1 X-9.397 Y8.382 Z3.570 F4800.000 A311.358 (d: 18.794)
G1 F798.000 A310.858 (snort)

G1 X9.397 Y-6.324 Z3.570 F6000.000 (move into position)
G1 F798.000 A311.358 (squirt)
G1 X-9.397 Y-6.324 Z3.570 F4800.000 A312.084 (d: 18.794)
G1 F798.000 A311.584 (snort)

(Slice 13, 1 Extruder)
G1 Z3.840 F500.000 (move Z)
(insets: 2)
G1 X9.784 Y9.784 Z3.840 F6000.000 (move into position)
G1 F798.000 A312.084 (squirt)
G1 X9.784 Y-9.784 Z3.840 F4800.000 A312.840 (d: 19.568)
G1 X-9.784 Y-9.784 Z3.840 F4800.000 A313.595 (d: 19.568)
G1 X-9.784 Y9.784 Z3.840 F4800.000 A314.351 (d: 19.568)
G1 X9.784 Y9.784 Z3.840 F4800.000 A315.106 (d: 19.568)
G1 F798.000 A314.606 (snort)

G1 X9.397 Y9.397 Z3.840 F6000.000 (move into position)
G1 F798.000 A315.106 (squirt)
G1 X9.397 Y-9.397 Z3.840 F4800.000 A315.832 (d: 18.794)
G1 X-9.397 Y-9.397 Z3.840 F4800.000 A316.558 (d: 18.794)
G1 X-9.397 Y9.397 Z3.840 F4800.000 A317.284 (d: 18.794)
G1 X9.397 Y9.397 Z3.840 F4800.000 A318.009 (d: 18.794)
G1 F798.000 A317.509 (snort)

(infills: 2)
G1 X-2.647 Y-9.397 Z3.840 F6000.000 (move into position)
G1 F798.000 A318.009 (squirt)
G1 X-2.647 Y9.397 Z3.840 F4800.000 A318.735 (d: 18.794)
G1 X1.030 Y9.397 Z3.840 F4800.000 A318.877 (d: 3.6765)
G1 X1.030 Y-9.397 Z3.840 F4800.000 A319.603 (d: 18.794)
G1 X4.706 Y-9.397 Z3.840 F4800.000 A319.745 (d: 3.6765)
G1 X4.706 Y9.397 Z3.840 F4800.000 A320.470 (d: 18.794)
G1 X8.383 Y9.397 Z3.840 F4800.000 A320.612 (d: 3.6765)
G1 X8.383 Y-9.397 Z3.840 F4800.000 A321.338 (d: 18.794)
G1 F798.000 A320.838 (snort)

G1 X-6.323 Y9.397 Z3.840 F6000.000 (move into position)
G1 F798.000 A321.338 (squirt)
G1 X-6.323 Y-9.397 Z3.840 F4800.000 A322.064 (d: 18.794)
G1 F798.000 A321.564 (snort)

(Slice 14, 1 Extruder)
G1 Z4.110 F500.000 (move Z)
(insets: 2)
G1 X9.784 Y9.784 Z4.110 F6000.000 (move into position)
G1 F798.000 A322.064 (squirt)
G1 X9.784 Y-9.784 Z4.110 F4800.000 A322.819 (d: 19.568)
G1 X-9.784 Y-9.784 Z4.110 F4800.000 A323.575 (d: 19.568)
G1 X-9.784 Y9.784 Z4.110 F4800.000 A324.331 (d: 19.568)
G1 X9.784 Y9.784 Z4.110 F4800.000 A325.086 (d: 19.568)
G1 F798.000 A324.586 (snort)

G1 X9.397 Y9.397 Z4.110 F6000.000 (move into position)
G1 F798.000 A325.086 (squirt)
G1 X9.397 Y-9.397 Z4.110 F4800.000 A325.812 (d: 18.794)
G1 X-9.397 Y-9.397 Z4.110 F4800.000 A326.538 (d: 18.794)
G1 X-9.397 Y9.397 Z4.110 F4800.000 A327.263 (d: 18.794)
G1 X9.397 Y9.397 Z4.110 F4800.000 A327.989 (d: 18.794)
G1 F798.000 A327.489 (snort)

(infills: 1)
G1 X-9.397 Y-2.647 Z4.110 F6000.000 (move into position)
G1 F798.000 A327.989 (squirt)
G1 X9.397 Y-2.647 Z4.110 F4800.000 A328.715 (d: 18.794)
G1 X9.397 Y1.029 Z4.110 F4800.000 A328.857 (d: 3.6765)
G1 X-9.397 Y1.029 Z4.110 F4800.000 A329.582 (d: 18.794)
G1 X-9.397 Y4.706 Z4.110 F4800.000 A329.724 (d: 3.6765)
G1 X9.397 Y4.706 Z4.110 F4800.000 A330.450 (d: 18.794)
G1 X9.397 Y8.382 Z4.110 F4800.000 A330.592 (d: 3.6765)
G1 X-9.397 Y8.382 Z4.110 F4800.000 A331.318 (d: 18.794)
G1 X9.397 Y-6.324 Z4.110 F4800.000 A332.239 (d: 23.8638)
G1 X-9.397 Y-6.324 Z4.110 F4800.000 A332.965 (d: 18.794)
G1 F798.000 A332.465 (snort)

(Slice 15, 1 Extruder)
G1 Z4.380 F500.000 (move Z)
(insets: 2)
G1 X9.784 Y9.784 Z4.380 F6000.000 (move into position)
G1 F798.000 A332.965 (squirt)
G1 X9.784 Y-9.784 Z4.380 F4800.000 A333.720 (d: 19.568)
G1 X-9.784 Y-9.784 Z4.380 F4800.000 A334.476 (d: 19.568)
G1 X-9.784 Y9.784 Z4.380 F4800.000 A335.232 (d: 19.568)
G1 X9.784 Y9.784 Z4.380 F4800.000 A335.987 (d: 19.568)
G1 F798.000 A335.487 (snort)

G1 X9.397 Y9.397 Z4.380 F6000.000 (move into position)
G1 F798.000 A335.987 (squirt)
G1 X9.397 Y-9.397 Z4.380 F4800.000 A336.713 (d: 18.794)
G1 X-9.397 Y-9.397 Z4.380 F4800.000 A337.439 (d: 18.794)
G1 X-9.397 Y9.397 Z4.380 F4800.000 A338.164 (d: 18.794)
G1 X9.397 Y9.397 Z4.380 F4800.000 A338.890 (d: 18.794)
G1 F798.000 A338.390 (snort)

(infills: 2)
G1 X-2.647 Y-9.397 Z4.380 F6000.000 (move into position)
G1 F798.000 A338.890 (squirt)
G1 X-2.647 Y9.397 Z4.380 F4800.000 A339.616 (d: 18.794)
G1 F798.000 A339.116 (snort)

G1 X1.030 Y9.397 Z4.380 F6000.000 (move into position)
G1 F798.000 A339.616 (squirt)
G1 X1.030 Y-9.397 Z4.380 F4800.000 A340.341 (d: 18.794)
G1 X4.706 Y-9.397 Z4.380 F4800.000 A340.483 (d: 3.6765)
G1 X4.706 Y9.397 Z4.380 F4800.000 A341.209 (d: 18.794)
G1 X8.383 Y9.397 Z4.380 F4800.000 A341.351 (d: 3.6765)
G1 X8.383 Y-9.397 Z4.380 F4800.000 A342.077 (d: 18.794)
G1 X-6.323 Y9.397 Z4.380 F4800.000 A342.998 (d: 23.8638)
G1 X-6.323 Y-9.397 Z4.380 F4800.000 A343.724 (d: 18.794)
G1 F798.000 A343.224 (snort)

(Slice 16, 1 Extruder)
G1 Z4.650 F500.000 (move Z)
(insets: 2)
G1 X9.784 Y9.784 Z4.650 F6000.000 (move into position)
G1 F798.000 A343.724 (squirt)
G1 X9.784 Y-9.784 Z4.650 F4800.000 A344.480 (d: 19.568)
G1 X-9.784 Y-9.784 Z4.650 F4800.000 A345.235 (d: 19.568)
G1 X-9.784 Y9.784 Z4.650 F4800.000 A345.991 (d: 19.568)
G1 X9.784 Y9.784 Z4.650 F4800.000 A346.746 (d: 19.568)
G1 F798.000 A346.246 (snort)

G1 X9.397 Y9.397 Z4.650 F6000.000 (move into position)
G1 F798.000 A346.746 (squirt)
G1 X9.397 Y-9.397 Z4.650 F4800.000 A347.472 (d: 18.794)
G1 X-9.397 Y-9.397 Z4.650 F4800.000 A348.198 (d: 18.794)
G1 X-9.397 Y9.397 Z4.650 F4800.000 A348.923 (d: 18.794)
G1 X9.397 Y9.397 Z4.650 F4800.000 A349.649 (d: 18.794)
G1 F798.000 A349.149 (snort)

(infills: 2)
G1 X-9.397 Y-2.647 Z4.650 F6000.000 (move into position)
G1 F798.000 A349.649 (squirt)
G1 X9.397 Y-2.647 Z4.650 F4800.000 A350.375 (d: 18.794)
G1 X9.397 Y1.029 Z4.650 F4800.000 A350.517 (d: 3.6765)
G1 X-9.397 Y1.029 Z4.650 F4800.000 A351.242 (d: 18.794)
G1 X-9.397 Y4.706 Z4.650 F4800.000 A351.384 (d: 3.6765)
G1 X9.397 Y4.706 Z4.650 F4800.000 A352.110 (d: 18.794)
G1 X9.397 Y8.382 Z4.650 F4800.000 A352.252 (d: 3.6765)
G1 X-9.397 Y8.382 Z4.650 F4800.000 A352.978 (d: 18.794)
G1 F798.000 A352.478 (snort)

G1 X9.397 Y-6.324 Z4.650 F6000.000 (move into position)
G1 F798.000 A352.978 (squirt)
G1 X-9.397 Y-6.324 Z4.650 F4800.000 A353.704 (d: 18.794)
G1 F798.000 A353.204 (snort)

(Slice 17, 1 Extruder)
G1 Z4.920 F500.000 (move Z)
(insets: 2)
G1 X9.784 Y9.784 Z4.920 F6000.000 (move into position)
G1 F798.000 A353.704 (squirt)
G1 X9.784 Y-9.784 Z4.920 F4800.000 A354.459 (d: 19.568)
G1 X-9.784 Y-9.784 Z4.920 F4800.000 A355.215 (d: 19.568)
G1 X-9.784 Y9.784 Z4.920 F4800.000 A355.970 (d: 19.568)
G1 X9.784 Y9.784 Z4.920 F4800.000 A356.726 (d: 19.568)
G1 F798.000 A356.226 (snort)

G1 X9.397 Y9.397 Z4.920 F6000.000 (move into position)
G1 F798.000 A356.726 (squirt)
G1 X9.397 Y-9.397 Z4.920 F4800.000 A357.452 (d: 18.794)
G1 X-9.397 Y-9.397 Z4.920 F4800.000 A358.177 (d: 18.794)
G1 X-9.397 Y9.397 Z4.920 F4800.000 A358.903 (d: 18.794)
G1 X9.397 Y9.397 Z4.920 F4800.000 A359.629 (d: 18.794)
G1 F798.000 A359.129 (snort)

(infills: 2)
G1 X-2.647 Y-9.397 Z4.920 F6000.000 (move into position)
G1 F798.000 A359.629 (squirt)
G1 X-2.647 Y9.397 Z4.920 F4800.000 A360.354 (d: 18.794)
G1 F798.000 A359.854 (snort)

G1 X1.030 Y9.397 Z4.920 F6000.000 (move into position)
G1 F798.000 A360.354 (squirt)
G1 X1.030 Y-9.397 Z4.920 F4800.000 A361.080 (d: 18.794)
G1 X4.706 Y-9.397 Z4.920 F4800.000 A361.222 (d: 3.6765)
G1 X4.706 Y9.397 Z4.920 F4800.000 A361.948 (d: 18.794)
G1 X8.383 Y9.397 Z4.920 F4800.000 A362.090 (d: 3.6765)
G1 X8.383 Y-9.397 Z4.920 F4800.000 A362.815 (d: 18.794)
G1 X-6.323 Y9.397 Z4.920 F4800.000 A363.737 (d: 23.8638)
G1 X-6.323 Y-9.397 Z4.920 F4800.000 A364.463 (d: 18.794)
G1 F798.000 A363.963 (snort)

(Slice 18, 1 Extruder)
G1 Z5.190 F500.000 (move Z)
(insets: 2)
G1 X9.784 Y9.784 Z5.190 F6000.000 (move into position)
G1 F798.000 A364.463 (squirt)
G1 X9.784 Y-9.784 Z5.190 F4800.000 A365.218 (d: 19.568)
G1 X-9.784 Y-9.784 Z5.190 F4800.000 A365.974 (d: 19.568)
G1 X-9.784 Y9.784 Z5.190 F4800.000 A366.729 (d: 19.568)
G1 X9.784 Y9.784 Z5.190 F4800.000 A367.485 (d: 19.568)
G1 F798.000 A366.985 (snort)

G1 X9.397 Y9.397 Z5.190 F6000.000 (move into position)
G1 F798.000 A367.485 (squirt)
G1 X9.397 Y-9.397 Z5.190 F4800.000 A368.211 (d: 18.794)
G1 X-9.397 Y-9.397 Z5.190 F4800.000 A368.936 (d: 18.794)
G1 X-9.397 Y9.397 Z5.190 F4800.000 A369.662 (d: 18.794)
G1 X9.397 Y9.397 Z5.190 F4800.000 A370.388 (d: 18.794)
G1 F798.000 A369.888 (snort)

(infills: 2)
G1 X-9.397 Y-2.647 Z5.190 F6000.000 (move into position)
G1 F798.000 A370.388 (squirt)
G1 X9.397 Y-2.647 Z5.190 F4800.000 A371.114 (d: 18.794)
G1 X9.397 Y1.029 Z5.190 F4800.000 A371.256 (d: 3.6765)
G1 X-9.397 Y1.029 Z5.190 F4800.000 A371.981 (d: 18.794)
G1 X-9.397 Y4.706 Z5.190 F4800.000 A372.123 (d: 3.6765)
G1 X9.397 Y4.706 Z5.190 F4800.000 A372.849 (d: 18.794)
G1 X9.397 Y8.382 Z5.190 F4800.000 A372.991 (d: 3.6765)
G1 X-9.397 Y8.382 Z5.190 F4800.000 A373.717 (d: 18.794)
G1 F798.000 A373.217 (snort)

G1 X9.397 Y-6.324 Z5.190 F6000.000 (move into position)
G1 F798.000 A373.717 (squirt)
G1 X-9.397 Y-6.324 Z5.190 F4800.000 A374.442 (d: 18.794)
G1 F798.000 A373.942 (snort)

(Slice 19, 1 Extruder)
G1 Z5.460 F500.000 (move Z)
(insets: 2)
G1 X9.784 Y9.784 Z5.460 F6000.000 (move into position)
G1 F798.000 A374.442 (squirt)
G1 X9.784 Y-9.784 Z5.460 F4800.000 A375.198 (d: 19.568)
G1 X-9.784 Y-9.784 Z5.460 F4800.000 A375.953 (d: 19.568)
G1 X-9.784 Y9.784 Z5.460 F4800.000 A376.709 (d: 19.568)
G1 X9.784 Y9.784 Z5.460 F4800.000 A377.465 (d: 19.568)
G1 F798.000 A376.965 (snort)

G1 X9.397 Y9.397 Z5.460 F6000.000 (move into position)
G1 F798.000 A377.465 (squirt)
G1 X9.397 Y-9.397 Z5.460 F4800.000 A378.190 (d: 18.794)
G1 X-9.397 Y-9.397 Z5.460 F4800.000 A378.916 (d: 18.794)
G1 X-9.397 Y9.397 Z5.460 F4800.000 A379.642 (d: 18.794)
G1 X9.397 Y9.397 Z5.460 F4800.000 A380.367 (d: 18.794)
G1 F798.000 A379.867 (snort)

(infills: 2)
G1 X-2.647 Y-9.397 Z5.460 F6000.000 (move into position)
G1 F798.000 A380.367 (squirt)
G1 X-2.647 Y9.397 Z5.460 F4800.000 A381.093 (d: 18.794)
G1 F798.000 A380.593 (snort)

G1 X1.030 Y9.397 Z5.460 F6000.000 (move into position)
G1 F798.000 A381.093 (squirt)
G1 X1.030 Y-9.397 Z5.460 F4800.000 A381.819 (d: 18.794)
G1 X4.706 Y-9.397 Z5.460 F4800.000 A381.961 (d: 3.6765)
G1 X4.706 Y9.397 Z5.460 F4800.000 A382.687 (d: 18.794)
G1 X8.383 Y9.397 Z5.460 F4800.000 A382.828 (d: 3.6765)
G1 X8.383 Y-9.397 Z5.460 F4800.000 A383.554 (d: 18.794)
G1 X-6.323 Y9.397 Z5.460 F4800.000 A384.476 (d: 23.8638)
G1 X-6.323 Y-9.397 Z5.460 F4800.000 A385.201 (d: 18.794)
G1 F798.000 A384.701 (snort)

(Slice 20, 1 Extruder)
G1 Z5.730 F500.000 (move Z)
(insets: 2)
G1 X9.784 Y9.784 Z5.730 F6000.000 (move into position)
G1 F798.000 A385.201 (squirt)
G1 X9.784 Y-9.784 Z5.730 F4800.000 A385.957 (d: 19.568)
G1 X-9.784 Y-9.784 Z5.730 F4800.000 A386.713 (d: 19.568)
G1 X-9.784 Y9.784 Z5.730 F4800.000 A387.468 (d: 19.568)
G1 X9.784 Y9.784 Z5.730 F4800.000 A388.224 (d: 19.568)
G1 F798.000 A387.724 (snort)

G1 X9.397 Y9.397 Z5.730 F6000.000 (move into position)
G1 F798.000 A388.224 (squirt)
G1 X9.397 Y-9.397 Z5.730 F4800.000 A388.949 (d: 18.794)
G1 X-9.397 Y-9.397 Z5.730 F4800.000 A389.675 (d: 18.794)
G1 X-9.397 Y9.397 Z5.730 F4800.000 A390.401 (d: 18.794)
G1 X9.397 Y9.397 Z5.730 F4800.000 A391.127 (d: 18.794)
G1 F798.000 A390.627 (snort)

(infills: 2)
G1 X-9.397 Y-2.647 Z5.730 F6000.000 (move into position)
G1 F798.000 A391.127 (squirt)
G1 X9.397 Y-2.647 Z5.730 F4800.000 A391.852 (d: 18.794)
G1 X9.397 Y1.029 Z5.730 F4800.000 A391.994 (d: 3.6765)
G1 X-9.397 Y1.029 Z5.730 F4800.000 A392.720 (d: 18.794)
G1 X-9.397 Y4.706 Z5.730 F4800.000 A392.862 (d: 3.6765)
G1 X9.397 Y4.706 Z5.730 F4800.000 A393.588 (d: 18.794)
G1 X9.397 Y8.382 Z5.730 F4800.000 A393.730 (d: 3.6765)
G1 X-9.397 Y8.382 Z5.730 F4800.000 A394.455 (d: 18.794)
G1 F798.000 A393.955 (snort)

G1 X9.397 Y-6.324 Z5.730 F6000.000 (move into position)
G1 F798.000 A394.455 (squirt)
G1 X-9.397 Y-6.324 Z5.730 F4800.000 A395.181 (d: 18.794)
G1 F798.000 A394.681 (snort)

(Slice 21, 1 Extruder)
G1 Z6.000 F500.000 (move Z)
(insets: 2)
G1 X9.784 Y9.784 Z6.000 F6000.000 (move into position)
G1 F798.000 A395.181 (squirt)
G1 X9.784 Y-9.784 Z6.000 F4800.000 A395.937 (d: 19.568)
G1 X-9.784 Y-9.784 Z6.000 F4800.000 A396.692 (d: 19.568)
G1 X-9.784 Y9.784 Z6.000 F4800.000 A397.448 (d: 19.568)
G1 X9.784 Y9.784 Z6.000 F4800.000 A398.203 (d: 19.568)
G1 F798.000 A397.703 (snort)

G1 X9.397 Y9.397 Z6.000 F6000.000 (move into position)
G1 F798.000 A398.203 (squirt)
G1 X9.397 Y-9.397 Z6.000 F4800.000 A398.929 (d: 18.794)
G1 X-9.397 Y-9.397 Z6.000 F4800.000 A399.655 (d: 18.794)
G1 X-9.397 Y9.397 Z6.000 F4800.000 A400.380 (d: 18.794)
G1 X9.397 Y9.397 Z6.000 F4800.000 A401.106 (d: 18.794)
G1 F798.000 A400.606 (snort)

(infills: 2)
G1 X-2.647 Y-9.397 Z6.000 F6000.000 (move into position)
G1 F798.000 A401.106 (squirt)
G1 X-2.647 Y9.397 Z6.000 F4800.000 A401.832 (d: 18.794)
G1 F798.000 A401.332 (snort)

G1 X1.030 Y9.397 Z6.000 F6000.000 (move into position)
G1 F798.000 A401.832 (squirt)
G1 X1.030 Y-9.397 Z6.000 F4800.000 A402.558 (d: 18.794)
G1 X4.706 Y-9.397 Z6.000 F4800.000 A402.700 (d: 3.6765)
G1 X4.706 Y9.397 Z6.000 F4800.000 A403.425 (d: 18.794)
G1 X8.383 Y9.397 Z6.000 F4800.000 A403.567 (d: 3.6765)
G1 X8.383 Y-9.397 Z6.000 F4800.000 A404.293 (d: 18.794)
G1 X-6.323 Y9.397 Z6.000 F4800.000 A405.214 (d: 23.8638)
G1 X-6.323 Y-9.397 Z6.000 F4800.000 A405.940 (d: 18.794)
G1 F798.000 A405.440 (snort)

(Slice 22, 1 Extruder)
G1 Z6.270 F500.000 (move Z)
(insets: 2)
G1 X9.784 Y9.784 Z6.270 F6000.000 (move into position)
G1 F798.000 A405.940 (squirt)
G1 X9.784 Y-9.784 Z6.270 F4800.000 A406.696 (d: 19.568)
G1 X-9.784 Y-9.784 Z6.270 F4800.000 A407.451 (d: 19.568)
G1 X-9.784 Y9.784 Z6.270 F4800.000 A408.207 (d: 19.568)
G1 X9.784 Y9.784 Z6.270 F4800.000 A408.962 (d: 19.568)
G1 F798.000 A408.462 (snort)

G1 X9.397 Y9.397 Z6.270 F6000.000 (move into position)
G1 F798.000 A408.962 (squirt)
G1 X9.397 Y-9.397 Z6.270 F4800.000 A409.688 (d: 18.794)
G1 X-9.397 Y-9.397 Z6.270 F4800.000 A410.414 (d: 18.794)
G1 X-9.397 Y9.397 Z6.270 F4800.000 A411.140 (d: 18.794)
G1 X9.397 Y9.397 Z6.270 F4800.000 A411.865 (d: 18.794)
G1 F798.000 A411.365 (snort)

(infills: 2)
G1 X-9.397 Y-2.647 Z6.270 F6000.000 (move into position)
G1 F798.000 A411.865 (squirt)
G1 X9.397 Y-2.647 Z6.270 F4800.000 A412.591 (d: 18.794)
G1 X9.397 Y1.029 Z6.270 F4800.000 A412.733 (d: 3.6765)
G1 X-9.397 Y1.029 Z6.270 F4800.000 A413.459 (d: 18.794)
G1 X-9.397 Y4.706 Z6.270 F4800.000 A413.601 (d: 3.6765)
G1 X9.397 Y4.706 Z6.270 F4800.000 A414.326 (d: 18.794)
G1 X9.397 Y8.382 Z6.270 F4800.000 A414.468 (d: 3.6765)
G1 X-9.397 Y8.382 Z6.270 F4800.000 A415.194 (d: 18.794)
G1 F798.000 A414.694 (snort)

G1 X9.397 Y-6.324 Z6.270 F6000.000 (move into position)
G1 F798.000 A415.194 (squirt)
G1 X-9.397 Y-6.324 Z6.270 F4800.000 A415.920 (d: 18.794)
G1 F798.000 A415.420 (snort)

(Slice 23, 1 Extruder)
G1 Z6.540 F500.000 (move Z)
(insets: 2)
G1 X9.784 Y9.784 Z6.540 F6000.000 (move into position)
G1 F798.000 A415.920 (squirt)
G1 X9.784 Y-9.784 Z6.540 F4800.000 A416.675 (d: 19.568)
G1 X-9.784 Y-9.784 Z6.540 F4800.000 A417.431 (d: 19.568)
G1 X-9.784 Y9.784 Z6.540 F4800.000 A418.186 (d: 19.568)
G1 X9.784 Y9.784 Z6.540 F4800.000 A418.942 (d: 19.568)
G1 F798.000 A418.442 (snort)

G1 X9.397 Y9.397 Z6.540 F6000.000 (move into position)
G1 F798.000 A418.942 (squirt)
G1 X9.397 Y-9.397 Z6.540 F4800.000 A419.668 (d: 18.794)
G1 X-9.397 Y-9.397 Z6.540 F4800.000 A420.393 (d: 18.794)
G1 X-9.397 Y9.397 Z6.540 F4800.000 A421.119 (d: 18.794)
G1 X9.397 Y9.397 Z6.540 F4800.000 A421.845 (d: 18.794)
G1 F798.000 A421.345 (snort)

(infills: 2)
G1 X-2.647 Y-9.397 Z6.540 F6000.000 (move into position)
G1 F798.000 A421.845 (squirt)
G1 X-2.647 Y9.397 Z6.540 F4800.000 A422.571 (d: 18.794)
G1 F798.000 A422.071 (snort)

G1 X1.030 Y9.397 Z6.540 F6000.000 (move into position)
G1 F798.000 A422.571 (squirt)
G1 X1.030 Y-9.397 Z6.540 F4800.000 A423.296 (d: 18.794)
G1 X4.706 Y-9.397 Z6.540 F4800.000 A423.438 (d: 3.6765)
G1 X4.706 Y9.397 Z6.540 F4800.000 A424.164 (d: 18.794)
G1 X8.383 Y9.397 Z6.540 F4800.000 A424.306 (d: 3.6765)
G1 X8.383 Y-9.397 Z6.540 F4800.000 A425.032 (d: 18.794)
G1 X-6.323 Y9.397 Z6.540 F4800.000 A425.953 (d: 23.8638)
G1 X-6.323 Y-9.397 Z6.540 F4800.000 A426.679 (d: 18.794)
G1 F798.000 A426.179 (snort)

(Slice 24, 1 Extruder)
G1 Z6.810 F500.000 (move Z)
(insets: 2)
G1 X9.784 Y9.784 Z6.810 F6000.000 (move into position)
G1 F798.000 A426.679 (squirt)
G1 X9.784 Y-9.784 Z6.810 F4800.000 A427.434 (d: 19.568)
G1 X-9.784 Y-9.784 Z6.810 F4800.000 A428.190 (d: 19.568)
G1 X-9.784 Y9.784 Z6.810 F4800.000 A428.946 (d: 19.568)
G1 X9.784 Y9.784 Z6.810 F4800.000 A429.701 (d: 19.568)
G1 F798.000 A429.201 (snort)

G1 X9.397 Y9.397 Z6.810 F6000.000 (move into position)
G1 F798.000 A429.701 (squirt)
G1 X9.397 Y-9.397 Z6.810 F4800.000 A430.427 (d: 18.794)
G1 X-9.397 Y-9.397 Z6.810 F4800.000 A431.153 (d: 18.794)
G1 X-9.397 Y9.397 Z6.810 F4800.000 A431.878 (d: 18.794)
G1 X9.397 Y9.397 Z6.810 F4800.000 A432.604 (d: 18.794)
G1 F798.000 A432.104 (snort)

(infills: 2)
G1 X-9.397 Y-2.647 Z6.810 F6000.000 (move into position)
G1 F798.000 A432.604 (squirt)
G1 X9.397 Y-2.647 Z6.810 F4800.000 A433.330 (d: 18.794)
G1 X9.397 Y1.029 Z6.810 F4800.000 A433.472 (d: 3.6765)
G1 X-9.397 Y1.029 Z6.810 F4800.000 A434.197 (d: 18.794)
G1 X-9.397 Y4.706 Z6.810 F4800.000 A434.339 (d: 3.6765)
G1 X9.397 Y4.706 Z6.810 F4800.000 A435.065 (d: 18.794)
G1 X9.397 Y8.382 Z6.810 F4800.000 A435.207 (d: 3.6765)
G1 X-9.397 Y8.382 Z6.810 F4800.000 A435.933 (d: 18.794)
G1 F798.000 A435.433 (snort)

G1 X9.397 Y-6.324 Z6.810 F6000.000 (move into position)
G1 F798.000 A435.933 (squirt)
G1 X-9.397 Y-6.324 Z6.810 F4800.000 A436.658 (d: 18.794)
G1 F798.000 A436.158 (snort)

(Slice 25, 1 Extruder)
G1 Z7.080 F500.000 (move Z)
(insets: 2)
G1 X9.784 Y9.784 Z7.080 F6000.000 (move into position)
G1 F798.000 A436.658 (squirt)
G1 X9.784 Y-9.784 Z7.080 F4800.000 A437.414 (d: 19.568)
G1 X-9.784 Y-9.784 Z7.080 F4800.000 A438.170 (d: 19.568)
G1 X-9.784 Y9.784 Z7.080 F4800.000 A438.925 (d: 19.568)
G1 X9.784 Y9.784 Z7.080 F4800.000 A439.681 (d: 19.568)
G1 F798.000 A439.181 (snort)

G1 X9.397 Y9.397 Z7.080 F6000.000 (move into position)
G1 F798.000 A439.681 (squirt)
G1 X9.397 Y-9.397 Z7.080 F4800.000 A440.407 (d: 18.794)
G1 X-9.397 Y-9.397 Z7.080 F4800.000 A441.132 (d: 18.794)
G1 X-9.397 Y9.397 Z7.080 F4800.000 A441.858 (d: 18.794)
G1 X9.397 Y9.397 Z7.080 F4800.000 A442.584 (d: 18.794)
G1 F798.000 A442.084 (snort)

(infills: 2)
G1 X-2.647 Y-9.397 Z7.080 F6000.000 (move into position)
G1 F798.000 A442.584 (squirt)
G1 X-2.647 Y9.397 Z7.080 F4800.000 A443.309 (d: 18.794)
G1 F798.000 A442.809 (snort)

G1 X1.030 Y9.397 Z7.080 F6000.000 (move into position)
G1 F798.000 A443.309 (squirt)
G1 X1.030 Y-9.397 Z7.080 F4800.000 A444.035 (d: 18.794)
G1 X4.706 Y-9.397 Z7.080 F4800.000 A444.177 (d: 3.6765)
G1 X4.706 Y9.397 Z7.080 F4800.000 A444.903 (d: 18.794)
G1 X8.383 Y9.397 Z7.080 F4800.000 A445.045 (d: 3.6765)
G1 X8.383 Y-9.397 Z7.080 F4800.000 A445.770 (d: 18.794)
G1 X-6.323 Y9.397 Z7.080 F4800.000 A446.692 (d: 23.8638)
G1 X-6.323 Y-9.397 Z7.080 F4800.000 A447.418 (d: 18.794)
G1 F798.000 A446.918 (snort)

(Slice 26, 1 Extruder)
G1 Z7.350 F500.000 (move Z)
(insets: 2)
G1 X9.784 Y9.784 Z7.350 F6000.000 (move into position)
G1 F798.000 A447.418 (squirt)
G1 X9.784 Y-9.784 Z7.350 F4800.000 A448.173 (d: 19.568)
G1 X-9.784 Y-9.784 Z7.350 F4800.000 A448.929 (d: 19.568)
G1 X-9.784 Y9.784 Z7.350 F4800.000 A449.684 (d: 19.568)
G1 X9.784 Y9.784 Z7.350 F4800.000 A450.440 (d: 19.568)
G1 F798.000 A449.940 (snort)

G1 X9.397 Y9.397 Z7.350 F6000.000 (move into position)
G1 F798.000 A450.440 (squirt)
G1 X9.397 Y-9.397 Z7.350 F4800.000 A451.166 (d: 18.794)
G1 X-9.397 Y-9.397 Z7.350 F4800.000 A451.891 (d: 18.794)
G1 X-9.397 Y9.397 Z7.350 F4800.000 A452.617 (d: 18.794)
G1 X9.397 Y9.397 Z7.350 F4800.000 A453.343 (d: 18.794)
G1 F798.000 A452.843 (snort)

(infills: 2)
G1 X-9.397 Y-2.647 Z7.350 F6000.000 (move into position)
G1 F798.000 A453.343 (squirt)
G1 X9.397 Y-2.647 Z7.350 F4800.000 A454.068 (d: 18.794)
G1 X9.397 Y1.029 Z7.350 F4800.000 A454.210 (d: 3.6765)
G1 X-9.397 Y1.029 Z7.350 F4800.000 A454.936 (d: 18.794)
G1 X-9.397 Y4.706 Z7.350 F4800.000 A455.078 (d: 3.6765)
G1 X9.397 Y4.706 Z7.350 F4800.000 A455.804 (d: 18.794)
G1 X9.397 Y8.382 Z7.350 F4800.000 A455.946 (d: 3.6765)
G1 X-9.397 Y8.382 Z7.350 F4800.000 A456.671 (d: 18.794)
G1 F798.000 A456.171 (snort)

G1 X9.397 Y-6.324 Z7.350 F6000.000 (move into position)
G1 F798.000 A456.671 (squirt)
G1 X-9.397 Y-6.324 Z7.350 F4800.000 A457.397 (d: 18.794)
G1 F798.000 A456.897 (snort)

(Slice 27, 1 Extruder)
G1 Z7.620 F500.000 (move Z)
(insets: 2)
G1 X9.784 Y9.784 Z7.620 F6000.000 (move into position)
G1 F798.000 A457.397 (squirt)
G1 X9.784 Y-9.784 Z7.620 F4800.000 A458.153 (d: 19.568)
G1 X-9.784 Y-9.784 Z7.620 F4800.000 A458.908 (d: 19.568)
G1 X-9.784 Y9.784 Z7.620 F4800.000 A459.664 (d: 19.568)
G1 X9.784 Y9.784 Z7.620 F4800.000 A460.420 (d: 19.568)
G1 F798.000 A459.920 (snort)

G1 X9.397 Y9.397 Z7.620 F6000.000 (move into position)
G1 F798.000 A460.420 (squirt)
G1 X9.397 Y-9.397 Z7.620 F4800.000 A461.145 (d: 18.794)
G1 X-9.397 Y-9.397 Z7.620 F4800.000 A461.871 (d: 18.794)
G1 X-9.397 Y9.397 Z7.620 F4800.000 A462.597 (d: 18.794)
G1 X9.397 Y9.397 Z7.620 F4800.000 A463.322 (d: 18.794)
G1 F798.000 A462.822 (snort)

(infills: 2)
G1 X-2.647 Y-9.397 Z7.620 F6000.000 (move into position)
G1 F798.000 A463.322 (squirt)
G1 X-2.647 Y9.397 Z7.620 F4800.000 A464.048 (d: 18.794)
G1 F798.000 A463.548 (snort)

G1 X1.030 Y9.397 Z7.620 F6000.000 (move into position)
G1 F798.000 A464.048 (squirt)
G1 X1.030 Y-9.397 Z7.620 F4800.000 A464.774 (d: 18.794)
G1 X4.706 Y-9.397 Z7.620 F4800.000 A464.916 (d: 3.6765)
G1 X4.706 Y9.397 Z7.620 F4800.000 A465.641 (d: 18.794)
G1 X8.383 Y9.397 Z7.620 F4800.000 A465.783 (d: 3.6765)
G1 X8.383 Y-9.397 Z7.620 F4800.000 A466.509 (d: 18.794)
G1 X-6.323 Y9.397 Z7.620 F4800.000 A467.431 (d: 23.8638)
G1 X-6.323 Y-9.397 Z7.620 F4800.000 A468.156 (d: 18.794)
G1 F798.000 A467.656 (snort)

(Slice 28, 1 Extruder)
G1 Z7.890 F500.000 (move Z)
(insets: 2)
G1 X9.784 Y9.784 Z7.890 F6000.000 (move into position)
G1 F798.000 A468.156 (squirt)
G1 X9.784 Y-9.784 Z7.890 F4800.000 A468.912 (d: 19.568)
G1 X-9.784 Y-9.784 Z7.890 F4800.000 A469.667 (d: 19.568)
G1 X-9.784 Y9.784 Z7.890 F4800.000 A470.423 (d: 19.568)
G1 X9.784 Y9.784 Z7.890 F4800.000 A471.179 (d: 19.568)
G1 F798.000 A470.679 (snort)

G1 X9.397 Y9.397 Z7.890 F6000.000 (move into position)
G1 F798.000 A471.179 (squirt)
G1 X9.397 Y-9.397 Z7.890 F4800.000 A471.904 (d: 18.794)
G1 X-9.397 Y-9.397 Z7.890 F4800.000 A472.630 (d: 18.794)
G1 X-9.397 Y9.397 Z7.890 F4800.000 A473.356 (d: 18.794)
G1 X9.397 Y9.397 Z7.890 F4800.000 A474.081 (d: 18.794)
G1 F798.000 A473.581 (snort)

(infills: 2)
G1 X-9.397 Y-2.647 Z7.890 F6000.000 (move into position)
G1 F798.000 A474.081 (squirt)
G1 X9.397 Y-2.647 Z7.890 F4800.000 A474.807 (d: 18.794)
G1 X9.397 Y1.029 Z7.890 F4800.000 A474.949 (d: 3.6765)
G1 X-9.397 Y1.029 Z7.890 F4800.000 A475.675 (d: 18.794)
G1 X-9.397 Y4.706 Z7.890 F4800.000 A475.817 (d: 3.6765)
G1 X9.397 Y4.706 Z7.890 F4800.000 A476.542 (d: 18.794)
G1 X9.397 Y8.382 Z7.890 F4800.000 A476.684 (d: 3.6765)
G1 X-9.397 Y8.382 Z7.890 F4800.000 A477.410 (d: 18.794)
G1 F798.000 A476.910 (snort)

G1 X9.397 Y-6.324 Z7.890 F6000.000 (move into position)
G1 F798.000 A477.410 (squirt)
G1 X-9.397 Y-6.324 Z7.890 F4800.000 A478.136 (d: 18.794)
G1 F798.000 A477.636 (snort)

(Slice 29, 1 Extruder)
G1 Z8.160 F500.000 (move Z)
(insets: 2)
G1 X9.784 Y9.784 Z8.160 F6000.000 (move into position)
G1 F798.000 A478.136 (squirt)
G1 X9.784 Y-9.784 Z8.160 F4800.000 A478.891 (d: 19.568)
G1 X-9.784 Y-9.784 Z8.160 F4800.000 A479.647 (d: 19.568)
G1 X-9.784 Y9.784 Z8.160 F4800.000 A480.403 (d: 19.568)
G1 X9.784 Y9.784 Z8.160 F4800.000 A481.158 (d: 19.568)
G1 F798.000 A480.658 (snort)

G1 X9.397 Y9.397 Z8.160 F6000.000 (move into position)
G1 F798.000 A481.158 (squirt)
G1 X9.397 Y-9.397 Z8.160 F4800.000 A481.884 (d: 18.794)
G1 X-9.397 Y-9.397 Z8.160 F4800.000 A482.610 (d: 18.794)
G1 X-9.397 Y9.397 Z8.160 F4800.000 A483.335 (d: 18.794)
G1 X9.397 Y9.397 Z8.160 F4800.000 A484.061 (d: 18.794)
G1 F798.000 A483.561 (snort)

(infills: 2)
G1 X-2.647 Y-9.397 Z8.160 F6000.000 (move into position)
G1 F798.000 A484.061 (squirt)
G1 X-2.647 Y9.397 Z8.160 F4800.000 A484.787 (d: 18.794)
G1 F798.000 A484.287 (snort)

G1 X1.030 Y9.397 Z8.160 F6000.000 (move into position)
G1 F798.000 A484.787 (squirt)
G1 X1.030 Y-9.397 Z8.160 F4800.000 A485.512 (d: 18.794)
G1 X4.706 Y-9.397 Z8.160 F4800.000 A485.654 (d: 3.6765)
G1 X4.706 Y9.397 Z8.160 F4800.000 A486.380 (d: 18.794)
G1 X8.383 Y9.397 Z8.160 F4800.000 A486.522 (d: 3.6765)
G1 X8.383 Y-9.397 Z8.160 F4800.000 A487.248 (d: 18.794)
G1 X-6.323 Y9.397 Z8.160 F4800.000 A488.169 (d: 23.8638)
G1 X-6.323 Y-9.397 Z8.160 F4800.000 A488.895 (d: 18.794)
G1 F798.000 A488.395 (snort)

(Slice 30, 1 Extruder)
G1 Z8.430 F500.000 (move Z)
(insets: 2)
G1 X9.784 Y9.784 Z8.430 F6000.000 (move into position)
G1 F798.000 A488.895 (squirt)
G1 X9.784 Y-9.785 Z8.430 F4800.000 A489.651 (d: 19.569)
G1 X-6.859 Y-9.784 Z8.430 F4800.000 A490.293 (d: 16.643)
G1 X-9.784 Y-9.784 Z8.430 F4800.000 A490.406 (d: 2.925)
G1 X-9.784 Y9.784 Z8.430 F4800.000 A491.162 (d: 19.568)
G1 X9.784 Y9.784 Z8.430 F4800.000 A491.917 (d: 19.568)
G1 F798.000 A491.417 (snort)

G1 X9.397 Y9.397 Z8.430 F6000.000 (move into position)
G1 F798.000 A491.917 (squirt)
G1 X9.397 Y-9.398 Z8.430 F4800.000 A492.643 (d: 18.795)
G1 X-6.858 Y-9.397 Z8.430 F4800.000 A493.271 (d: 16.255)
G1 X-9.397 Y-9.397 Z8.430 F4800.000 A493.369 (d: 2.539)
G1 X-9.397 Y9.397 Z8.430 F4800.000 A494.095 (d: 18.794)
G1 X9.397 Y9.397 Z8.430 F4800.000 A494.820 (d: 18.794)
G1 F798.000 A494.320 (snort)

(infills: 2)
G1 X-9.397 Y-8.775 Z8.430 F6000.000 (move into position)
G1 F798.000 A494.820 (squirt)
G1 X9.397 Y-8.775 Z8.430 F4800.000 A495.546 (d: 18.794)
G1 F798.000 A495.046 (snort)

G1 X9.397 Y-9.183 Z8.430 F6000.000 (move into position)
G1 F798.000 A495.546 (squirt)
G1 X-9.397 Y-9.183 Z8.430 F4800.000 A496.272 (d: 18.794)
G1 X-9.397 Y-8.366 Z8.430 F4800.000 A496.303 (d: 0.817)
G1 X9.397 Y-8.366 Z8.430 F4800.000 A497.029 (d: 18.794)
G1 X9.397 Y-7.958 Z8.430 F4800.000 A497.045 (d: 0.4085)
G1 X-9.397 Y-7.958 Z8.430 F4800.000 A497.770 (d: 18.794)
G1 X-9.397 Y-7.549 Z8.430 F4800.000 A497.786 (d: 0.4085)
G1 X9.397 Y-7.549 Z8.430 F4800.000 A498.512 (d: 18.794)
G1 X9.397 Y-7.141 Z8.430 F4800.000 A498.528 (d: 0.4085)
G1 X-9.397 Y-7.141 Z8.430 F4800.000 A499.253 (d: 18.794)
G1 X-9.397 Y-6.732 Z8.430 F4800.000 A499.269 (d: 0.4085)
G1 X9.397 Y-6.732 Z8.430 F4800.000 A499.995 (d: 18.794)
G1 X9.397 Y-6.324 Z8.430 F4800.000 A500.011 (d: 0.4085)
G1 X-9.397 Y-6.324 Z8.430 F4800.000 A500.736 (d: 18.794)
G1 X-9.397 Y-5.915 Z8.430 F4800.000 A500.752 (d: 0.4085)
G1 X9.397 Y-5.915 Z8.430 F4800.000 A501.478 (d: 18.794)
G1 X9.397 Y-5.507 Z8.430 F4800.000 A501.494 (d: 0.4085)
G1 X-9.397 Y-5.507 Z8.430 F4800.000 A502.219 (d: 18.794)
G1 X-9.397 Y-5.098 Z8.430 F4800.000 A502.235 (d: 0.4085)
G1 X9.397 Y-5.098 Z8.430 F4800.000 A502.961 (d: 18.794)
G1 X9.397 Y-4.690 Z8.430 F4800.000 A502.977 (d: 0.4085)
G1 X-9.397 Y-4.690 Z8.430 F4800.000 A503.702 (d: 18.794)
G1 X-9.397 Y-4.281 Z8.430 F4800.000 A503.718 (d: 0.4085)
G1 X9.397 Y-4.281 Z8.430 F4800.000 A504.444 (d: 18.794)
G1 X9.397 Y-3.873 Z8.430 F4800.000 A504.459 (d: 0.4085)
G1 X-9.397 Y-3.873 Z8.430 F4800.000 A505.185 (d: 18.794)
G1 X-9.397 Y-3.464 Z8.430 F4800.000 A505.201 (d: 0.4085)
G1 X9.397 Y-3.464 Z8.430 F4800.000 A505.927 (d: 18.794)
G1 X9.397 Y-3.056 Z8.430 F4800.000 A505.942 (d: 0.4085)
G1 X-9.397 Y-3.056 Z8.430 F4800.000 A506.668 (d: 18.794)
G1 X-9.397 Y-2.647 Z8.430 F4800.000 A506.684 (d: 0.4085)
G1 X9.397 Y-2.647 Z8.430 F4800.000 A507.410 (d: 18.794)
G1 X9.397 Y-2.239 Z8.430 F4800.000 A507.425 (d: 0.4085)
G1 X-9.397 Y-2.239 Z8.430 F4800.000 A508.151 (d: 18.794)
G1 X-9.397 Y-1.830 Z8.430 F4800.000 A508.167 (d: 0.4085)
G1 X9.397 Y-1.830 Z8.430 F4800.000 A508.893 (d: 18.794)
G1 X9.397 Y-1.422 Z8.430 F4800.000 A508.908 (d: 0.4085)
G1 X-9.397 Y-1.422 Z8.430 F4800.000 A509.634 (d: 18.794)
G1 X-9.397 Y-1.013 Z8.430 F4800.000 A509.650 (d: 0.4085)
G1 X9.397 Y-1.013 Z8.430 F4800.000 A510.376 (d: 18.794)
G1 X9.397 Y-0.605 Z8.430 F4800.000 A510.391 (d: 0.4085)
G1 X-9.397 Y-0.605 Z8.430 F4800.000 A511.117 (d: 18.794)
G1 X-9.397 Y-0.196 Z8.430 F4800.000 A511.133 (d: 0.4085)
G1 X9.397 Y-0.196 Z8.430 F4800.000 A511.859 (d: 18.794)
G1 X9.397 Y0.212 Z8.430 F4800.000 A511.874 (d: 0.4085)
G1 X-9.397 Y0.212 Z8.430 F4800.000 A512.600 (d: 18.794)
G1 X-9.397 Y0.621 Z8.430 F4800.000 A512.616 (d: 0.4085)
G1 X9.397 Y0.621 Z8.430 F4800.000 A513.341 (d: 18.794)
G1 X9.397 Y1.029 Z8.430 F4800.000 A513.357 (d: 0.4085)
G1 X-9.397 Y1.029 Z8.430 F4800.000 A514.083 (d: 18.794)
G1 X-9.397 Y1.438 Z8.430 F4800.000 A514.099 (d: 0.4085)
G1 X9.397 Y1.438 Z8.430 F4800.000 A514.824 (d: 18.794)
G1 X9.397 Y1.846 Z8.430 F4800.000 A514.840 (d: 0.4085)
G1 X-9.397 Y1.846 Z8.430 F4800.000 A515.566 (d: 18.794)
G1 X-9.397 Y2.255 Z8.430 F4800.000 A515.582 (d: 0.4085)
G1 X9.397 Y2.255 Z8.430 F4800.000 A516.307 (d: 18.794)
G1 X9.397 Y2.663 Z8.430 F4800.000 A516.323 (d: 0.4085)
G1 X-9.397 Y2.663 Z8.430 F4800.000 A517.049 (d: 18.794)
G1 X-9.397 Y3.072 Z8.430 F4800.000 A517.065 (d: 0.4085)
G1 X9.397 Y3.072 Z8.430 F4800.000 A517.790 (d: 18.794)
G1 X9.397 Y3.480 Z8.430 F4800.000 A517.806 (d: 0.4085)
G1 X-9.397 Y3.480 Z8.430 F4800.000 A518.532 (d: 18.794)
G1 X-9.397 Y3.889 Z8.430 F4800.000 A518.548 (d: 0.4085)
G1 X9.397 Y3.889 Z8.430 F4800.000 A519.273 (d: 18.794)
G1 X9.397 Y4.297 Z8.430 F4800.000 A519.289 (d: 0.4085)
G1 X-9.397 Y4.297 Z8.430 F4800.000 A520.015 (d: 18.794)
G1 X-9.397 Y4.706 Z8.430 F4800.000 A520.031 (d: 0.4085)
G1 X9.397 Y4.706 Z8.430 F4800.000 A520.756 (d: 18.794)
G1 X9.397 Y5.114 Z8.430 F4800.000 A520.772 (d: 0.4085)
G1 X-9.397 Y5.114 Z8.430 F4800.000 A521.498 (d: 18.794)
G1 X-9.397 Y5.523 Z8.430 F4800.000 A521.514 (d: 0.4085)
G1 X9.397 Y5.523 Z8.430 F4800.000 A522.239 (d: 18.794)
G1 X9.397 Y5.931 Z8.430 F4800.000 A522.255 (d: 0.4085)
G1 X-9.397 Y5.931 Z8.430 F4800.000 A522.981 (d: 18.794)
G1 X-9.397 Y6.340 Z8.430 F4800.000 A522.996 (d: 0.4085)
G1 X9.397 Y6.340 Z8.430 F4800.000 A523.722 (d: 18.794)
G1 X9.397 Y6.748 Z8.430 F4800.000 A523.738 (d: 0.4085)
G1 X-9.397 Y6.748 Z8.430 F4800.000 A524.464 (d: 18.794)
G1 X-9.397 Y7.157 Z8.430 F4800.000 A524.479 (d: 0.4085)
G1 X9.397 Y7.157 Z8.430 F4800.000 A525.205 (d: 18.794)
G1 X9.397 Y7.565 Z8.430 F4800.000 A525.221 (d: 0.4085)
G1 X-9.397 Y7.565 Z8.430 F4800.000 A525.947 (d: 18.794)
G1 X-9.397 Y7.974 Z8.430 F4800.000 A525.962 (d: 0.4085)
G1 X9.397 Y7.974 Z8.430 F4800.000 A526.688 (d: 18.794)
G1 X9.397 Y8.382 Z8.430 F4800.000 A526.704 (d: 0.4085)
G1 X-9.397 Y8.382 Z8.430 F4800.000 A527.430 (d: 18.794)
G1 X-9.397 Y8.791 Z8.430 F4800.000 A527.445 (d: 0.4085)
G1 X9.397 Y8.791 Z8.430 F4800.000 A528.171 (d: 18.794)
G1 X9.397 Y9.199 Z8.430 F4800.000 A528.187 (d: 0.4085)
G1 X-9.397 Y9.199 Z8.430 F4800.000 A528.913 (d: 18.794)
G1 F798.000 A528.413 (snort)

(Slice 31, 1 Extruder)
G1 Z8.700 F500.000 (move Z)
(insets: 2)
G1 X9.784 Y9.784 Z8.700 F6000.000 (move into position)
G1 F798.000 A528.913 (squirt)
G1 X9.784 Y-9.785 Z8.700 F4800.000 A529.668 (d: 19.569)
G1 X-7.399 Y-9.784 Z8.700 F4800.000 A530.332 (d: 17.183)
G1 X-9.784 Y-9.784 Z8.700 F4800.000 A530.424 (d: 2.385)
G1 X-9.784 Y9.784 Z8.700 F4800.000 A531.179 (d: 19.568)
G1 X9.784 Y9.784 Z8.700 F4800.000 A531.935 (d: 19.568)
G1 F798.000 A531.435 (snort)

G1 X9.397 Y9.397 Z8.700 F6000.000 (move into position)
G1 F798.000 A531.935 (squirt)
G1 X9.397 Y-9.398 Z8.700 F4800.000 A532.661 (d: 18.795)
G1 X-7.399 Y-9.397 Z8.700 F4800.000 A533.309 (d: 16.796)
G1 X-9.397 Y-9.397 Z8.700 F4800.000 A533.386 (d: 1.998)
G1 X-9.397 Y9.397 Z8.700 F4800.000 A534.112 (d: 18.794)
G1 X9.397 Y9.397 Z8.700 F4800.000 A534.838 (d: 18.794)
G1 F798.000 A534.338 (snort)

(infills: 1)
G1 X-8.774 Y-9.397 Z8.700 F6000.000 (move into position)
G1 F798.000 A534.838 (squirt)
G1 X-8.774 Y9.397 Z8.700 F4800.000 A535.563 (d: 18.794)
G1 X-9.183 Y9.397 Z8.700 F4800.000 A535.579 (d: 0.4085)
G1 X-9.183 Y-9.397 Z8.700 F4800.000 A536.305 (d: 18.794)
G1 X-8.366 Y-9.397 Z8.700 F4800.000 A536.337 (d: 0.817)
G1 X-8.366 Y9.397 Z8.700 F4800.000 A537.062 (d: 18.794)
G1 X-7.957 Y9.397 Z8.700 F4800.000 A537.078 (d: 0.4085)
G1 X-7.957 Y-9.397 Z8.700 F4800.000 A537.804 (d: 18.794)
G1 X-7.549 Y-9.397 Z8.700 F4800.000 A537.819 (d: 0.4085)
G1 X-7.549 Y9.397 Z8.700 F4800.000 A538.545 (d: 18.794)
G1 X-7.140 Y9.397 Z8.700 F4800.000 A538.561 (d: 0.4085)
G1 X-7.140 Y-9.397 Z8.700 F4800.000 A539.287 (d: 18.794)
G1 X-6.732 Y-9.397 Z8.700 F4800.000 A539.302 (d: 0.4085)
G1 X-6.732 Y9.397 Z8.700 F4800.000 A540.028 (d: 18.794)
G1 X-6.323 Y9.397 Z8.700 F4800.000 A540.044 (d: 0.4085)
G1 X-6.323 Y-9.397 Z8.700 F4800.000 A540.770 (d: 18.7941)
G1 X-5.915 Y-9.397 Z8.700 F4800.000 A540.785 (d: 0.4085)
G1 X-5.915 Y9.397 Z8.700 F4800.000 A541.511 (d: 18.7941)
G1 X-5.506 Y9.397 Z8.700 F4800.000 A541.527 (d: 0.4085)
G1 X-5.506 Y-9.397 Z8.700 F4800.000 A542.253 (d: 18.7941)
G1 X-5.098 Y-9.397 Z8.700 F4800.000 A542.268 (d: 0.4085)
G1 X-5.098 Y9.397 Z8.700 F4800.000 A542.994 (d: 18.7941)
G1 X-4.689 Y9.397 Z8.700 F4800.000 A543.010 (d: 0.4085)
G1 X-4.689 Y-9.397 Z8.700 F4800.000 A543.736 (d: 18.7942)
G1 X-4.281 Y-9.397 Z8.700 F4800.000 A543.751 (d: 0.4085)
G1 X-4.281 Y9.397 Z8.700 F4800.000 A544.477 (d: 18.7942)
G1 X-3.872 Y9.397 Z8.700 F4800.000 A544.493 (d: 0.4085)
G1 X-3.872 Y-9.397 Z8.700 F4800.000 A545.219 (d: 18.7942)
G1 X-3.464 Y-9.397 Z8.700 F4800.000 A545.234 (d: 0.4085)
G1 X-3.464 Y9.397 Z8.700 F4800.000 A545.960 (d: 18.7942)
G1 X-3.055 Y9.397 Z8.700 F4800.000 A545.976 (d: 0.4085)
G1 X-3.055 Y-9.397 Z8.700 F4800.000 A546.702 (d: 18.7943)
G1 X-2.647 Y-9.397 Z8.700 F4800.000 A546.717 (d: 0.4085)
G1 X-2.647 Y9.397 Z8.700 F4800.000 A547.443 (d: 18.7943)
G1 X-2.238 Y9.397 Z8.700 F4800.000 A547.459 (d: 0.4085)
G1 X-2.238 Y-9.397 Z8.700 F4800.000 A548.184 (d: 18.7943)
G1 X-1.830 Y-9.397 Z8.700 F4800.000 A548.200 (d: 0.4085)
G1 X-1.830 Y9.397 Z8.700 F4800.000 A548.926 (d: 18.7943)
G1 X-1.421 Y9.397 Z8.700 F4800.000 A548.942 (d: 0.4085)
G1 X-1.421 Y-9.397 Z8.700 F4800.000 A549.667 (d: 18.7944)
G1 X-1.013 Y-9.397 Z8.700 F4800.000 A549.683 (d: 0.4085)
G1 X-1.013 Y9.397 Z8.700 F4800.000 A550.409 (d: 18.7944)
G1 X-0.604 Y9.397 Z8.700 F4800.000 A550.425 (d: 0.4085)
G1 X-0.604 Y-9.397 Z8.700 F4800.000 A551.150 (d: 18.7944)
G1 X-0.196 Y-9.397 Z8.700 F4800.000 A551.166 (d: 0.4085)
G1 X-0.196 Y9.397 Z8.700 F4800.000 A551.892 (d: 18.7944)
G1 X0.213 Y9.397 Z8.700 F4800.000 A551.908 (d: 0.4085)
G1 X0.213 Y-9.397 Z8.700 F4800.000 A552.633 (d: 18.7945)
G1 X0.621 Y-9.397 Z8.700 F4800.000 A552.649 (d: 0.4085)
G1 X0.621 Y9.397 Z8.700 F4800.000 A553.375 (d: 18.7945)
G1 X1.030 Y9.397 Z8.700 F4800.000 A553.391 (d: 0.4085)
G1 X1.030 Y-9.398 Z8.700 F4800.000 A554.116 (d: 18.7945)
G1 X1.438 Y-9.398 Z8.700 F4800.000 A554.132 (d: 0.4085)
G1 X1.438 Y9.397 Z8.700 F4800.000 A554.858 (d: 18.7945)
G1 X1.847 Y9.397 Z8.700 F4800.000 A554.874 (d: 0.4085)
G1 X1.847 Y-9.398 Z8.700 F4800.000 A555.599 (d: 18.7946)
G1 X2.255 Y-9.398 Z8.700 F4800.000 A555.615 (d: 0.4085)
G1 X2.255 Y9.397 Z8.700 F4800.000 A556.341 (d: 18.7946)
G1 X2.664 Y9.397 Z8.700 F4800.000 A556.357 (d: 0.4085)
G1 X2.664 Y-9.398 Z8.700 F4800.000 A557.082 (d: 18.7946)
G1 X3.072 Y-9.398 Z8.700 F4800.000 A557.098 (d: 0.4085)
G1 X3.072 Y9.397 Z8.700 F4800.000 A557.824 (d: 18.7946)
G1 X3.481 Y9.397 Z8.700 F4800.000 A557.840 (d: 0.4085)
G1 X3.481 Y-9.398 Z8.700 F4800.000 A558.565 (d: 18.7946)
G1 X3.889 Y-9.398 Z8.700 F4800.000 A558.581 (d: 0.4085)
G1 X3.889 Y9.397 Z8.700 F4800.000 A559.307 (d: 18.7947)
G1 X4.298 Y9.397 Z8.700 F4800.000 A559.323 (d: 0.4085)
G1 X4.298 Y-9.398 Z8.700 F4800.000 A560.048 (d: 18.7947)
G1 X4.706 Y-9.398 Z8.700 F4800.000 A560.064 (d: 0.4085)
G1 X4.706 Y9.397 Z8.700 F4800.000 A560.790 (d: 18.7947)
G1 X5.115 Y9.397 Z8.700 F4800.000 A560.806 (d: 0.4085)
G1 X5.115 Y-9.398 Z8.700 F4800.000 A561.531 (d: 18.7947)
G1 X5.523 Y-9.398 Z8.700 F4800.000 A561.547 (d: 0.4085)
G1 X5.523 Y9.397 Z8.700 F4800.000 A562.273 (d: 18.7948)
G1 X5.932 Y9.397 Z8.700 F4800.000 A562.289 (d: 0.4085)
G1 X5.932 Y-9.398 Z8.700 F4800.000 A563.015 (d: 18.7948)
G1 X6.340 Y-9.398 Z8.700 F4800.000 A563.030 (d: 0.4085)
G1 X6.340 Y9.397 Z8.700 F4800.000 A563.756 (d: 18.7948)
G1 X6.749 Y9.397 Z8.700 F4800.000 A563.772 (d: 0.4085)
G1 X6.749 Y-9.398 Z8.700 F4800.000 A564.498 (d: 18.7948)
G1 X7.157 Y-9.398 Z8.700 F4800.000 A564.513 (d: 0.4085)
G1 X7.157 Y9.397 Z8.700 F4800.000 A565.239 (d: 18.7949)
G1 X7.566 Y9.397 Z8.700 F4800.000 A565.255 (d: 0.4085)
G1 X7.566 Y-9.398 Z8.700 F4800.000 A565.981 (d: 18.7949)
G1 X7.974 Y-9.398 Z8.700 F4800.000 A565.996 (d: 0.4085)
G1 X7.974 Y9.397 Z8.700 F4800.000 A566.722 (d: 18.7949)
G1 X8.383 Y9.397 Z8.700 F4800.000 A566.738 (d: 0.4085)
G1 X8.383 Y-9.398 Z8.700 F4800.000 A567.464 (d: 18.7949)
G1 X8.791 Y-9.398 Z8.700 F4800.000 A567.479 (d: 0.4085)
G1 X8.791 Y9.397 Z8.700 F4800.000 A568.205 (d: 18.795)
G1 X9.200 Y9.397 Z8.700 F4800.000 A568.221 (d: 0.4085)
G1 X9.200 Y-9.398 Z8.700 F4800.000 A568.947 (d: 18.795)
G1 F798.000 A568.447 (snort)

(Slice 32, 1 Extruder)
G1 Z8.970 F500.000 (move Z)
(insets: 2)
G1 X9.784 Y9.784 Z8.970 F6000.000 (move into position)
G1 F798.000 A568.947 (squirt)
G1 X9.784 Y-9.785 Z8.970 F4800.000 A569.702 (d: 19.569)
G1 X-7.939 Y-9.784 Z8.970 F4800.000 A570.387 (d: 17.723)
G1 X-9.784 Y-9.784 Z8.970 F4800.000 A570.458 (d: 1.845)
G1 X-9.784 Y9.784 Z8.970 F4800.000 A571.213 (d: 19.568)
G1 X9.784 Y9.784 Z8.970 F4800.000 A571.969 (d: 19.568)
G1 F798.000 A571.469 (snort)

G1 X9.397 Y9.397 Z8.970 F6000.000 (move into position)
G1 F798.000 A571.969 (squirt)
G1 X9.397 Y-9.398 Z8.970 F4800.000 A572.695 (d: 18.795)
G1 X-7.939 Y-9.397 Z8.970 F4800.000 A573.364 (d: 17.336)
G1 X-9.397 Y-9.397 Z8.970 F4800.000 A573.420 (d: 1.458)
G1 X-9.397 Y9.397 Z8.970 F4800.000 A574.146 (d: 18.794)
G1 X9.397 Y9.397 Z8.970 F4800.000 A574.872 (d: 18.794)
G1 F798.000 A574.372 (snort)

(infills: 2)
G1 X-9.397 Y-8.775 Z8.970 F6000.000 (move into position)
G1 F798.000 A574.872 (squirt)
G1 X9.397 Y-8.775 Z8.970 F4800.000 A575.598 (d: 18.794)
G1 F798.000 A575.098 (snort)

G1 X9.397 Y-9.183 Z8.970 F6000.000 (move into position)
G1 F798.000 A575.598 (squirt)
G1 X-9.397 Y-9.183 Z8.970 F4800.000 A576.323 (d: 18.794)
G1 X-9.397 Y-8.366 Z8.970 F4800.000 A576.355 (d: 0.817)
G1 X9.397 Y-8.366 Z8.970 F4800.000 A577.081 (d: 18.794)
G1 X9.397 Y-7.958 Z8.970 F4800.000 A577.096 (d: 0.4085)
G1 X-9.397 Y-7.958 Z8.970 F4800.000 A577.822 (d: 18.794)
G1 X-9.397 Y-7.549 Z8.970 F4800.000 A577.838 (d: 0.4085)
G1 X9.397 Y-7.549 Z8.970 F4800.000 A578.564 (d: 18.794)
G1 X9.397 Y-7.141 Z8.970 F4800.000 A578.579 (d: 0.4085)
G1 X-9.397 Y-7.141 Z8.970 F4800.000 A579.305 (d: 18.794)
G1 X-9.397 Y-6.732 Z8.970 F4800.000 A579.321 (d: 0.4085)
G1 X9.397 Y-6.732 Z8.970 F4800.000 A580.046 (d: 18.794)
G1 X9.397 Y-6.324 Z8.970 F4800.000 A580.062 (d: 0.4085)
G1 X-9.397 Y-6.324 Z8.970 F4800.000 A580.788 (d: 18.794)
G1 X-9.397 Y-5.915 Z8.970 F4800.000 A580.804 (d: 0.4085)
G1 X9.397 Y-5.915 Z8.970 F4800.000 A581.529 (d: 18.794)
G1 X9.397 Y-5.507 Z8.970 F4800.000 A581.545 (d: 0.4085)
G1 X-9.397 Y-5.507 Z8.970 F4800.000 A582.271 (d: 18.794)
G1 X-9.397 Y-5.098 Z8.970 F4800.000 A582.287 (d: 0.4085)
G1 X9.397 Y-5.098 Z8.970 F4800.000 A583.012 (d: 18.794)
G1 X9.397 Y-4.690 Z8.970 F4800.000 A583.028 (d: 0.4085)
G1 X-9.397 Y-4.690 Z8.970 F4800.000 A583.754 (d: 18.794)
G1 X-9.397 Y-4.281 Z8.970 F4800.000 A583.770 (d: 0.4085)
G1 X9.397 Y-4.281 Z8.970 F4800.000 A584.495 (d: 18.794)
G1 X9.397 Y-3.873 Z8.970 F4800.000 A584.511 (d: 0.4085)
G1 X-9.397 Y-3.873 Z8.970 F4800.000 A585.237 (d: 18.794)
G1 X-9.397 Y-3.464 Z8.970 F4800.000 A585.253 (d: 0.4085)
G1 X9.397 Y-3.464 Z8.970 F4800.000 A585.978 (d: 18.794)
G1 X9.397 Y-3.056 Z8.970 F4800.000 A585.994 (d: 0.4085)
G1 X-9.397 Y-3.056 Z8.970 F4800.000 A586.720 (d: 18.794)
G1 X-9.397 Y-2.647 Z8.970 F4800.000 A586.736 (d: 0.4085)
G1 X9.397 Y-2.647 Z8.970 F4800.000 A587.461 (d: 18.794)
G1 X9.397 Y-2.239 Z8.970 F4800.000 A587.477 (d: 0.4085)
G1 X-9.397 Y-2.239 Z8.970 F4800.000 A588.203 (d: 18.794)
G1 X-9.397 Y-1.830 Z8.970 F4800.000 A588.219 (d: 0.4085)
G1 X9.397 Y-1.830 Z8.970 F4800.000 A588.944 (d: 18.794)
G1 X9.397 Y-1.422 Z8.970 F4800.000 A588.960 (d: 0.4085)
G1 X-9.397 Y-1.422 Z8.970 F4800.000 A589.686 (d: 18.794)
G1 X-9.397 Y-1.013 Z8.970 F4800.000 A589.701 (d: 0.4085)
G1 X9.397 Y-1.013 Z8.970 F4800.000 A590.427 (d: 18.794)
G1 X9.397 Y-0.605 Z8.970 F4800.000 A590.443 (d: 0.4085)
G1 X-9.397 Y-0.605 Z8.970 F4800.000 A591.169 (d: 18.794)
G1 X-9.397 Y-0.196 Z8.970 F4800.000 A591.184 (d: 0.4085)
G1 X9.397 Y-0.196 Z8.970 F4800.000 A591.910 (d: 18.794)
G1 X9.397 Y0.212 Z8.970 F4800.000 A591.926 (d: 0.4085)
G1 X-9.397 Y0.212 Z8.970 F4800.000 A592.652 (d: 18.794)
G1 X-9.397 Y0.621 Z8.970 F4800.000 A592.667 (d: 0.4085)
G1 X9.397 Y0.621 Z8.970 F4800.000 A593.393 (d: 18.794)
G1 X9.397 Y1.029 Z8.970 F4800.000 A593.409 (d: 0.4085)
G1 X-9.397 Y1.029 Z8.970 F4800.000 A594.135 (d: 18.794)
G1 X-9.397 Y1.438 Z8.970 F4800.000 A594.150 (d: 0.4085)
G1 X9.397 Y1.438 Z8.970 F4800.000 A594.876 (d: 18.794)
G1 X9.397 Y1.846 Z8.970 F4800.000 A594.892 (d: 0.4085)
G1 X-9.397 Y1.846 Z8.970 F4800.000 A595.618 (d: 18.794)
G1 X-9.397 Y2.255 Z8.970 F4800.000 A595.633 (d: 0.4085)
G1 X9.397 Y2.255 Z8.970 F4800.000 A596.359 (d: 18.794)
G1 X9.397 Y2.663 Z8.970 F4800.000 A596.375 (d: 0.4085)
G1 X-9.397 Y2.663 Z8.970 F4800.000 A597.100 (d: 18.794)
G1 X-9.397 Y3.072 Z8.970 F4800.000 A597.116 (d: 0.4085)
G1 X9.397 Y3.072 Z8.970 F4800.000 A597.842 (d: 18.794)
G1 X9.397 Y3.480 Z8.970 F4800.000 A597.858 (d: 0.4085)
G1 X-9.397 Y3.480 Z8.970 F4800.000 A598.583 (d: 18.794)
G1 X-9.397 Y3.889 Z8.970 F4800.000 A598.599 (d: 0.4085)
G1 X9.397 Y3.889 Z8.970 F4800.000 A599.325 (d: 18.794)
G1 X9.397 Y4.297 Z8.970 F4800.000 A599.341 (d: 0.4085)
G1 X-9.397 Y4.297 Z8.970 F4800.000 A600.066 (d: 18.794)
G1 X-9.397 Y4.706 Z8.970 F4800.000 A600.082 (d: 0.4085)
G1 X9.397 Y4.706 Z8.970 F4800.000 A600.808 (d: 18.794)
G1 X9.397 Y5.114 Z8.970 F4800.000 A600.824 (d: 0.4085)
G1 X-9.397 Y5.114 Z8.970 F4800.000 A601.549 (d: 18.794)
G1 X-9.397 Y5.523 Z8.970 F4800.000 A601.565 (d: 0.4085)
G1 X9.397 Y5.523 Z8.970 F4800.000 A602.291 (d: 18.794)
G1 X9.397 Y5.931 Z8.970 F4800.000 A602.307 (d: 0.4085)
G1 X-9.397 Y5.931 Z8.970 F4800.000 A603.032 (d: 18.794)
G1 X-9.397 Y6.340 Z8.970 F4800.000 A603.048 (d: 0.4085)
G1 X9.397 Y6.340 Z8.970 F4800.000 A603.774 (d: 18.794)
G1 X9.397 Y6.748 Z8.970 F4800.000 A603.790 (d: 0.4085)
G1 X-9.397 Y6.748 Z8.970 F4800.000 A604.515 (d: 18.794)
G1 X-9.397 Y7.157 Z8.970 F4800.000 A604.531 (d: 0.4085)
G1 X9.397 Y7.157 Z8.970 F4800.000 A605.257 (d: 18.794)
G1 X9.397 Y7.565 Z8.970 F4800.000 A605.273 (d: 0.4085)
G1 X-9.397 Y7.565 Z8.970 F4800.000 A605.998 (d: 18.794)
G1 X-9.397 Y7.974 Z8.970 F4800.000 A606.014 (d: 0.4085)
G1 X9.397 Y7.974 Z8.970 F4800.000 A606.740 (d: 18.794)
G1 X9.397 Y8.382 Z8.970 F4800.000 A606.756 (d: 0.4085)
G1 X-9.397 Y8.382 Z8.970 F4800.000 A607.481 (d: 18.794)
G1 X-9.397 Y8.791 Z8.970 F4800.000 A607.497 (d: 0.4085)
G1 X9.397 Y8.791 Z8.970 F4800.000 A608.223 (d: 18.794)
G1 X9.397 Y9.199 Z8.970 F4800.000 A608.238 (d: 0.4085)
G1 X-9.397 Y9.199 Z8.970 F4800.000 A608.964 (d: 18.794)
G1 F798.000 A608.464 (snort)

(Slice 33, 1 Extruder)
G1 Z9.240 F500.000 (move Z)
(insets: 2)
G1 X9.784 Y9.784 Z9.240 F6000.000 (move into position)
G1 F798.000 A608.964 (squirt)
G1 X9.784 Y-9.785 Z9.240 F4800.000 A609.720 (d: 19.569)
G1 X-8.479 Y-9.784 Z9.240 F4800.000 A610.425 (d: 18.263)
G1 X-9.784 Y-9.784 Z9.240 F4800.000 A610.475 (d: 1.305)
G1 X-9.784 Y9.784 Z9.240 F4800.000 A611.231 (d: 19.568)
G1 X9.784 Y9.784 Z9.240 F4800.000 A611.987 (d: 19.568)
G1 F798.000 A611.487 (snort)

G1 X9.397 Y9.397 Z9.240 F6000.000 (move into position)
G1 F798.000 A611.987 (squirt)
G1 X9.397 Y-9.398 Z9.240 F4800.000 A612.712 (d: 18.795)
G1 X-8.478 Y-9.397 Z9.240 F4800.000 A613.403 (d: 17.875)
G1 X-9.397 Y-9.397 Z9.240 F4800.000 A613.438 (d: 0.919)
G1 X-9.397 Y9.397 Z9.240 F4800.000 A614.164 (d: 18.794)
G1 X9.397 Y9.397 Z9.240 F4800.000 A614.889 (d: 18.794)
G1 F798.000 A614.389 (snort)

(infills: 1)
G1 X-8.774 Y-9.397 Z9.240 F6000.000 (move into position)
G1 F798.000 A614.889 (squirt)
G1 X-8.774 Y9.397 Z9.240 F4800.000 A615.615 (d: 18.794)
G1 X-9.183 Y9.397 Z9.240 F4800.000 A615.631 (d: 0.4085)
G1 X-9.183 Y-9.397 Z9.240 F4800.000 A616.357 (d: 18.794)
G1 X-8.366 Y-9.397 Z9.240 F4800.000 A616.388 (d: 0.817)
G1 X-8.366 Y9.397 Z9.240 F4800.000 A617.114 (d: 18.794)
G1 X-7.957 Y9.397 Z9.240 F4800.000 A617.130 (d: 0.4085)
G1 X-7.957 Y-9.397 Z9.240 F4800.000 A617.855 (d: 18.794)
G1 X-7.549 Y-9.397 Z9.240 F4800.000 A617.871 (d: 0.4085)
G1 X-7.549 Y9.397 Z9.240 F4800.000 A618.597 (d: 18.7941)
G1 X-7.140 Y9.397 Z9.240 F4800.000 A618.613 (d: 0.4085)
G1 X-7.140 Y-9.397 Z9.240 F4800.000 A619.338 (d: 18.7941)
G1 X-6.732 Y-9.397 Z9.240 F4800.000 A619.354 (d: 0.4085)
G1 X-6.732 Y9.397 Z9.240 F4800.000 A620.080 (d: 18.7941)
G1 X-6.323 Y9.397 Z9.240 F4800.000 A620.096 (d: 0.4085)
G1 X-6.323 Y-9.397 Z9.240 F4800.000 A620.821 (d: 18.7941)
G1 X-5.915 Y-9.397 Z9.240 F4800.000 A620.837 (d: 0.4085)
G1 X-5.915 Y9.397 Z9.240 F4800.000 A621.563 (d: 18.7941)
G1 X-5.506 Y9.397 Z9.240 F4800.000 A621.579 (d: 0.4085)
G1 X-5.506 Y-9.397 Z9.240 F4800.000 A622.304 (d: 18.7942)
G1 X-5.098 Y-9.397 Z9.240 F4800.000 A622.320 (d: 0.4085)
G1 X-5.098 Y9.397 Z9.240 F4800.000 A623.046 (d: 18.7942)
G1 X-4.689 Y9.397 Z9.240 F4800.000 A623.062 (d: 0.4085)
G1 X-4.689 Y-9.397 Z9.240 F4800.000 A623.787 (d: 18.7942)
G1 X-4.281 Y-9.397 Z9.240 F4800.000 A623.803 (d: 0.4085)
G1 X-4.281 Y9.397 Z9.240 F4800.000 A624.529 (d: 18.7942)
G1 X-3.872 Y9.397 Z9.240 F4800.000 A624.544 (d: 0.4085)
G1 X-3.872 Y-9.397 Z9.240 F4800.000 A625.270 (d: 18.7943)
G1 X-3.464 Y-9.397 Z9.240 F4800.000 A625.286 (d: 0.4085)
G1 X-3.464 Y9.397 Z9.240 F4800.000 A626.012 (d: 18.7943)
G1 X-3.055 Y9.397 Z9.240 F4800.000 A626.027 (d: 0.4085)
G1 X-3.055 Y-9.397 Z9.240 F4800.000 A626.753 (d: 18.7943)
G1 X-2.647 Y-9.397 Z9.240 F4800.000 A626.769 (d: 0.4085)
G1 X-2.647 Y9.397 Z9.240 F4800.000 A627.495 (d: 18.7943)
G1 X-2.238 Y9.397 Z9.240 F4800.000 A627.510 (d: 0.4085)
G1 X-2.238 Y-9.397 Z9.240 F4800.000 A628.236 (d: 18.7943)
G1 X-1.830 Y-9.397 Z9.240 F4800.000 A628.252 (d: 0.4085)
G1 X-1.830 Y9.397 Z9.240 F4800.000 A628.978 (d: 18.7944)
G1 X-1.421 Y9.397 Z9.240 F4800.000 A628.993 (d: 0.4085)
G1 X-1.421 Y-9.397 Z9.240 F4800.000 A629.719 (d: 18.7944)
G1 X-1.013 Y-9.397 Z9.240 F4800.000 A629.735 (d: 0.4085)
G1 X-1.013 Y9.397 Z9.240 F4800.000 A630.461 (d: 18.7944)
G1 X-0.604 Y9.397 Z9.240 F4800.000 A630.476 (d: 0.4085)
G1 X-0.604 Y-9.397 Z9.240 F4800.000 A631.202 (d: 18.7944)
G1 X-0.196 Y-9.397 Z9.240 F4800.000 A631.218 (d: 0.4085)
G1 X-0.196 Y9.397 Z9.240 F4800.000 A631.944 (d: 18.7945)
G1 X0.213 Y9.397 Z9.240 F4800.000 A631.959 (d: 0.4085)
G1 X0.213 Y-9.397 Z9.240 F4800.000 A632.685 (d: 18.7945)
G1 X0.621 Y-9.398 Z9.240 F4800.000 A632.701 (d: 0.4085)
G1 X0.621 Y9.397 Z9.240 F4800.000 A633.427 (d: 18.7945)
G1 X1.030 Y9.397 Z9.240 F4800.000 A633.442 (d: 0.4085)
G1 X1.030 Y-9.398 Z9.240 F4800.000 A634.168 (d: 18.7945)
G1 X1.438 Y-9.398 Z9.240 F4800.000 A634.184 (d: 0.4085)
G1 X1.438 Y9.397 Z9.240 F4800.000 A634.910 (d: 18.7946)
G1 X1.847 Y9.397 Z9.240 F4800.000 A634.925 (d: 0.4085)
G1 X1.847 Y-9.398 Z9.240 F4800.000 A635.651 (d: 18.7946)
G1 X2.255 Y-9.398 Z9.240 F4800.000 A635.667 (d: 0.4085)
G1 X2.255 Y9.397 Z9.240 F4800.000 A636.393 (d: 18.7946)
G1 X2.664 Y9.397 Z9.240 F4800.000 A636.408 (d: 0.4085)
G1 X2.664 Y-9.398 Z9.240 F4800.000 A637.134 (d: 18.7946)
G1 X3.072 Y-9.398 Z9.240 F4800.000 A637.150 (d: 0.4085)
G1 X3.072 Y9.397 Z9.240 F4800.000 A637.876 (d: 18.7946)
G1 X3.481 Y9.397 Z9.240 F4800.000 A637.891 (d: 0.4085)
G1 X3.481 Y-9.398 Z9.240 F4800.000 A638.617 (d: 18.7947)
G1 X3.889 Y-9.398 Z9.240 F4800.000 A638.633 (d: 0.4085)
G1 X3.889 Y9.397 Z9.240 F4800.000 A639.359 (d: 18.7947)
G1 X4.298 Y9.397 Z9.240 F4800.000 A639.374 (d: 0.4085)
G1 X4.298 Y-9.398 Z9.240 F4800.000 A640.100 (d: 18.7947)
G1 X4.706 Y-9.398 Z9.240 F4800.000 A640.116 (d: 0.4085)
G1 X4.706 Y9.397 Z9.240 F4800.000 A640.842 (d: 18.7947)
G1 X5.115 Y9.397 Z9.240 F4800.000 A640.857 (d: 0.4085)
G1 X5.115 Y-9.398 Z9.240 F4800.000 A641.583 (d: 18.7948)
G1 X5.523 Y-9.398 Z9.240 F4800.000 A641.599 (d: 0.4085)
G1 X5.523 Y9.397 Z9.240 F4800.000 A642.325 (d: 18.7948)
G1 X5.932 Y9.397 Z9.240 F4800.000 A642.340 (d: 0.4085)
G1 X5.932 Y-9.398 Z9.240 F4800.000 A643.066 (d: 18.7948)
G1 X6.340 Y-9.398 Z9.240 F4800.000 A643.082 (d: 0.4085)
G1 X6.340 Y9.397 Z9.240 F4800.000 A643.808 (d: 18.7948)
G1 X6.749 Y9.397 Z9.240 F4800.000 A643.823 (d: 0.4085)
G1 X6.749 Y-9.398 Z9.240 F4800.000 A644.549 (d: 18.7949)
G1 X7.157 Y-9.398 Z9.240 F4800.000 A644.565 (d: 0.4085)
G1 X7.157 Y9.397 Z9.240 F4800.000 A645.291 (d: 18.7949)
G1 X7.566 Y9.397 Z9.240 F4800.000 A645.307 (d: 0.4085)
G1 X7.566 Y-9.398 Z9.240 F4800.000 A646.032 (d: 18.7949)
G1 X7.974 Y-9.398 Z9.240 F4800.000 A646.048 (d: 0.4085)
G1 X7.974 Y9.397 Z9.240 F4800.000 A646.774 (d: 18.7949)
G1 X8.383 Y9.397 Z9.240 F4800.000 A646.790 (d: 0.4085)
G1 X8.383 Y-9.398 Z9.240 F4800.000 A647.515 (d: 18.7949)
G1 X8.791 Y-9.398 Z9.240 F4800.000 A647.531 (d: 0.4085)
G1 X8.791 Y9.397 Z9.240 F4800.000 A648.257 (d: 18.795)
G1 X9.200 Y9.397 Z9.240 F4800.000 A648.273 (d: 0.4085)
G1 X9.200 Y-9.398 Z9.240 F4800.000 A648.998 (d: 18.795)
G1 F798.000 A648.498 (snort)

(Slice 34, 1 Extruder)
G1 Z9.510 F500.000 (move Z)
(insets: 2)
G1 X9.784 Y9.784 Z9.510 F6000.000 (move into position)
G1 F798.000 A648.998 (squirt)
G1 X9.784 Y-9.785 Z9.510 F4800.000 A649.754 (d: 19.569)
G1 X-9.019 Y-9.784 Z9.510 F4800.000 A650.480 (d: 18.803)
G1 X-9.784 Y-9.784 Z9.510 F4800.000 A650.510 (d: 0.765)
G1 X-9.784 Y9.784 Z9.510 F4800.000 A651.265 (d: 19.568)
G1 X9.784 Y9.784 Z9.510 F4800.000 A652.021 (d: 19.568)
G1 F798.000 A651.521 (snort)

G1 X9.397 Y9.397 Z9.510 F6000.000 (move into position)
G1 F798.000 A652.021 (squirt)
G1 X9.397 Y-9.398 Z9.510 F4800.000 A652.746 (d: 18.795)
G1 X-9.019 Y-9.397 Z9.510 F4800.000 A653.458 (d: 18.416)
G1 X-9.397 Y-9.397 Z9.510 F4800.000 A653.472 (d: 0.378)
G1 X-9.397 Y9.397 Z9.510 F4800.000 A654.198 (d: 18.794)
G1 X9.397 Y9.397 Z9.510 F4800.000 A654.924 (d: 18.794)
G1 F798.000 A654.424 (snort)

(infills: 2)
G1 X-9.397 Y-8.775 Z9.510 F6000.000 (move into position)
G1 F798.000 A654.924 (squirt)
G1 X9.397 Y-8.775 Z9.510 F4800.000 A655.649 (d: 18.794)
G1 F798.000 A655.149 (snort)

G1 X9.397 Y-9.183 Z9.510 F6000.000 (move into position)
G1 F798.000 A655.649 (squirt)
G1 X-9.397 Y-9.183 Z9.510 F4800.000 A656.375 (d: 18.794)
G1 X-9.397 Y-8.366 Z9.510 F4800.000 A656.407 (d: 0.817)
G1 X9.397 Y-8.366 Z9.510 F4800.000 A657.132 (d: 18.794)
G1 X9.397 Y-7.958 Z9.510 F4800.000 A657.148 (d: 0.4085)
G1 X-9.397 Y-7.958 Z9.510 F4800.000 A657.874 (d: 18.794)
G1 X-9.397 Y-7.549 Z9.510 F4800.000 A657.890 (d: 0.4085)
G1 X9.397 Y-7.549 Z9.510 F4800.000 A658.615 (d: 18.794)
G1 X9.397 Y-7.141 Z9.510 F4800.000 A658.631 (d: 0.4085)
G1 X-9.397 Y-7.141 Z9.510 F4800.000 A659.357 (d: 18.794)
G1 X-9.397 Y-6.732 Z9.510 F4800.000 A659.372 (d: 0.4085)
G1 X9.397 Y-6.732 Z9.510 F4800.000 A660.098 (d: 18.794)
G1 X9.397 Y-6.324 Z9.510 F4800.000 A660.114 (d: 0.4085)
G1 X-9.397 Y-6.324 Z9.510 F4800.000 A660.840 (d: 18.794)
G1 X-9.397 Y-5.915 Z9.510 F4800.000 A660.855 (d: 0.4085)
G1 X9.397 Y-5.915 Z9.510 F4800.000 A661.581 (d: 18.794)
G1 X9.397 Y-5.507 Z9.510 F4800.000 A661.597 (d: 0.4085)
G1 X-9.397 Y-5.507 Z9.510 F4800.000 A662.323 (d: 18.794)
G1 X-9.397 Y-5.098 Z9.510 F4800.000 A662.338 (d: 0.4085)
G1 X9.397 Y-5.098 Z9.510 F4800.000 A663.064 (d: 18.794)
G1 X9.397 Y-4.690 Z9.510 F4800.000 A663.080 (d: 0.4085)
G1 X-9.397 Y-4.690 Z9.510 F4800.000 A663.806 (d: 18.794)
G1 X-9.397 Y-4.281 Z9.510 F4800.000 A663.821 (d: 0.4085)
G1 X9.397 Y-4.281 Z9.510 F4800.000 A664.547 (d: 18.794)
G1 X9.397 Y-3.873 Z9.510 F4800.000 A664.563 (d: 0.4085)
G1 X-9.397 Y-3.873 Z9.510 F4800.000 A665.289 (d: 18.794)
G1 X-9.397 Y-3.464 Z9.510 F4800.000 A665.304 (d: 0.4085)
G1 X9.397 Y-3.464 Z9.510 F4800.000 A666.030 (d: 18.794)
G1 X9.397 Y-3.056 Z9.510 F4800.000 A666.046 (d: 0.4085)
G1 X-9.397 Y-3.056 Z9.510 F4800.000 A666.771 (d: 18.794)
G1 X-9.397 Y-2.647 Z9.510 F4800.000 A666.787 (d: 0.4085)
G1 X9.397 Y-2.647 Z9.510 F4800.000 A667.513 (d: 18.794)
G1 X9.397 Y-2.239 Z9.510 F4800.000 A667.529 (d: 0.4085)
G1 X-9.397 Y-2.239 Z9.510 F4800.000 A668.254 (d: 18.794)
G1 X-9.397 Y-1.830 Z9.510 F4800.000 A668.270 (d: 0.4085)
G1 X9.397 Y-1.830 Z9.510 F4800.000 A668.996 (d: 18.794)
G1 X9.397 Y-1.422 Z9.510 F4800.000 A669.012 (d: 0.4085)
G1 X-9.397 Y-1.422 Z9.510 F4800.000 A669.737 (d: 18.794)
G1 X-9.397 Y-1.013 Z9.510 F4800.000 A669.753 (d: 0.4085)
G1 X9.397 Y-1.013 Z9.510 F4800.000 A670.479 (d: 18.794)
G1 X9.397 Y-0.605 Z9.510 F4800.000 A670.495 (d: 0.4085)
G1 X-9.397 Y-0.605 Z9.510 F4800.000 A671.220 (d: 18.794)
G1 X-9.397 Y-0.196 Z9.510 F4800.000 A671.236 (d: 0.4085)
G1 X9.397 Y-0.196 Z9.510 F4800.000 A671.962 (d: 18.794)
G1 X9.397 Y0.212 Z9.510 F4800.000 A671.978 (d: 0.4085)
G1 X-9.397 Y0.212 Z9.510 F4800.000 A672.703 (d: 18.794)
G1 X-9.397 Y0.621 Z9.510 F4800.000 A672.719 (d: 0.4085)
G1 X9.397 Y0.621 Z9.510 F4800.000 A673.445 (d: 18.794)
G1 X9.397 Y1.029 Z9.510 F4800.000 A673.461 (d: 0.4085)
G1 X-9.397 Y1.029 Z9.510 F4800.000 A674.186 (d: 18.794)
G1 X-9.397 Y1.438 Z9.510 F4800.000 A674.202 (d: 0.4085)
G1 X9.397 Y1.438 Z9.510 F4800.000 A674.928 (d: 18.794)
G1 X9.397 Y1.846 Z9.510 F4800.000 A674.944 (d: 0.4085)
G1 X-9.397 Y1.846 Z9.510 F4800.000 A675.669 (d: 18.794)
G1 X-9.397 Y2.255 Z9.510 F4800.000 A675.685 (d: 0.4085)
G1 X9.397 Y2.255 Z9.510 F4800.000 A676.411 (d: 18.794)
G1 X9.397 Y2.663 Z9.510 F4800.000 A676.426 (d: 0.4085)
G1 X-9.397 Y2.663 Z9.510 F4800.000 A677.152 (d: 18.794)
G1 X-9.397 Y3.072 Z9.510 F4800.000 A677.168 (d: 0.4085)
G1 X9.397 Y3.072 Z9.510 F4800.000 A677.894 (d: 18.794)
G1 X9.397 Y3.480 Z9.510 F4800.000 A677.909 (d: 0.4085)
G1 X-9.397 Y3.480 Z9.510 F4800.000 A678.635 (d: 18.794)
G1 X-9.397 Y3.889 Z9.510 F4800.000 A678.651 (d: 0.4085)
G1 X9.397 Y3.889 Z9.510 F4800.000 A679.377 (d: 18.794)
G1 X9.397 Y4.297 Z9.510 F4800.000 A679.392 (d: 0.4085)
G1 X-9.397 Y4.297 Z9.510 F4800.000 A680.118 (d: 18.794)
G1 X-9.397 Y4.706 Z9.510 F4800.000 A680.134 (d: 0.4085)
G1 X9.397 Y4.706 Z9.510 F4800.000 A680.860 (d: 18.794)
G1 X9.397 Y5.114 Z9.510 F4800.000 A680.875 (d: 0.4085)
G1 X-9.397 Y5.114 Z9.510 F4800.000 A681.601 (d: 18.794)
G1 X-9.397 Y5.523 Z9.510 F4800.000 A681.617 (d: 0.4085)
G1 X9.397 Y5.523 Z9.510 F4800.000 A682.343 (d: 18.794)
