
(Makerbot Industries)
(This file contains digital fabrication directives in gcode format)
(For your 3D printer)
(http://wiki.makerbot.com/gcode)
(* Generated by Miracle-Grue v 0.04 alpha)
(* 2012-6-11 13:15:43)
(* machine name: Dub dub dub)
(* firmware revision:unknown)
(* /home/farmckon/dev_makerbot/TestFiles/stl/baseline_tests/LargeBox.stl)
(* 1 extruder)
(* Extrude infills: 1)
(* first operation: Insets)
(* Extrude insets: 1)
(* Extrude outlines: 0)

G21 (set units to mm)
G90 (absolute positioning mode)

(setup extruder)
M103 T0 (Make sure motor for extruder 0 is stopped)
M104 S220.000 T0 (set temperature of extruder 0 to 220.000 degrees Celsius)


M109 S100.000 T0 (heat the build-platform to 100.000 Celsius)


(go to home position)
G162 X Y F6000.000 (home XY axes maximum)
G161 Z F1400.000 (home Z axis minimum)
G92 Z5 (set Z to 5)
G1 Z0.0 (move Z down 0)
G161 Z F100.000 (home Z axis minimum)
M132 X Y Z A B (Recall stored home offsets for XYZAB axis)

G92 A0
G1 X52.000 Y-57.000 Z1.000 F6000.000 (go to waiting position)

M6 T0 (wait for tool 0 to reach temperature)
(note: the heated build platform temperature is tied to tool 0 for now)

(Create Anchor)
G1 Z0.6 F300    (Position Height)
M108 R4.0   (Set Extruder Speed)
M101        (Start Extruder)
G4 P1600
G1 X52.000 Y-57.000 Z0.600 F6000.000
G1 X49.000 Y-57.000 Z0.600 F600.000
M103 (Stop extruder)

G1 F798.000 A0.500 (squirt)
G1 X-34.784 Y-34.784 Z0.600 F1800.000 A3.847 (Extrude into position)
(Slice 0, 1 Extruder)
G1 Z0.330 F500.000 (move Z)
(   Extruder 0)
( extruder 0 )
( GSWITCH T0 )
( TODO: add offset management to Gantry )

(inset 0/2 )
(  path 0/1, 5 points,  )
G1 X-34.784 Y-34.784 Z0.330 F6000.000 A3.847 (move into position)
G1 F798.000 A4.347 (squirt)
G1 X-34.784 Y34.784 Z0.330 F1800.000 A7.033 (d: 69.568)
G1 X34.784 Y34.784 Z0.330 F1800.000 A9.720 (d: 98.384)
G1 X34.784 Y-34.784 Z0.330 F1800.000 A12.406 (d: 69.568)
G1 X-34.784 Y-34.784 Z0.330 F1800.000 A15.092 (d: 0)
G1 F798.000 A14.592 (snort)

(inset 1/2 )
(  path 0/1, 5 points,  )
G1 X-34.397 Y-34.397 Z0.330 F6000.000 (move into position)
G1 F798.000 A15.092 (squirt)
G1 X-34.397 Y34.397 Z0.330 F1800.000 A17.749 (d: 68.794)
G1 X34.397 Y34.397 Z0.330 F1800.000 A20.405 (d: 97.2894)
G1 X34.397 Y-34.397 Z0.330 F1800.000 A23.061 (d: 68.794)
G1 X-34.397 Y-34.397 Z0.330 F1800.000 A25.718 (d: 0)
G1 F798.000 A25.218 (snort)

(infills: 1)
(  path 0/1, 336 points,  )
G1 X-34.397 Y-33.775 Z0.330 F6000.000 (move into position)
G1 F798.000 A25.718 (squirt)
G1 X34.397 Y-33.775 Z0.330 F1800.000 A28.374 (d: 68.794)
G1 X34.397 Y-34.183 Z0.330 F1800.000 A28.390 (d: 68.7952)
G1 X-34.397 Y-34.183 Z0.330 F1800.000 A31.046 (d: 0.4085)
G1 X-34.397 Y-33.366 Z0.330 F1800.000 A31.078 (d: 0.4085)
G1 X34.397 Y-33.366 Z0.330 F1800.000 A33.734 (d: 68.7952)
G1 X34.397 Y-32.958 Z0.330 F1800.000 A33.750 (d: 68.7989)
G1 X-34.397 Y-32.958 Z0.330 F1800.000 A36.406 (d: 0.817)
G1 X-34.397 Y-32.549 Z0.330 F1800.000 A36.422 (d: 1.2255)
G1 X34.397 Y-32.549 Z0.330 F1800.000 A39.078 (d: 68.8049)
G1 X34.397 Y-32.141 Z0.330 F1800.000 A39.094 (d: 68.8134)
G1 X-34.397 Y-32.141 Z0.330 F1800.000 A41.751 (d: 1.634)
G1 X-34.397 Y-31.732 Z0.330 F1800.000 A41.766 (d: 2.0425)
G1 X34.397 Y-31.732 Z0.330 F1800.000 A44.423 (d: 68.8243)
G1 X34.397 Y-31.323 Z0.330 F1800.000 A44.439 (d: 68.8376)
G1 X-34.397 Y-31.323 Z0.330 F1800.000 A47.095 (d: 2.451)
G1 X-34.397 Y-30.915 Z0.330 F1800.000 A47.111 (d: 2.8595)
G1 X34.397 Y-30.915 Z0.330 F1800.000 A49.767 (d: 68.8534)
G1 X34.397 Y-30.506 Z0.330 F1800.000 A49.783 (d: 68.8716)
G1 X-34.397 Y-30.506 Z0.330 F1800.000 A52.439 (d: 3.268)
G1 X-34.397 Y-30.098 Z0.330 F1800.000 A52.455 (d: 3.6765)
G1 X34.397 Y-30.098 Z0.330 F1800.000 A55.111 (d: 68.8922)
G1 X34.397 Y-29.690 Z0.330 F1800.000 A55.127 (d: 68.9152)
G1 X-34.397 Y-29.690 Z0.330 F1800.000 A57.784 (d: 4.085)
G1 X-34.397 Y-29.281 Z0.330 F1800.000 A57.799 (d: 4.4935)
G1 X34.397 Y-29.281 Z0.330 F1800.000 A60.456 (d: 68.9406)
G1 X34.397 Y-28.873 Z0.330 F1800.000 A60.472 (d: 68.9684)
G1 X-34.397 Y-28.873 Z0.330 F1800.000 A63.128 (d: 4.902)
G1 X-34.397 Y-28.464 Z0.330 F1800.000 A63.144 (d: 5.3105)
G1 X34.397 Y-28.464 Z0.330 F1800.000 A65.800 (d: 68.9987)
G1 X34.397 Y-28.056 Z0.330 F1800.000 A65.816 (d: 69.0313)
G1 X-34.397 Y-28.056 Z0.330 F1800.000 A68.472 (d: 5.719)
G1 X-34.397 Y-27.647 Z0.330 F1800.000 A68.488 (d: 6.1275)
G1 X34.397 Y-27.647 Z0.330 F1800.000 A71.144 (d: 69.0663)
G1 X34.397 Y-27.239 Z0.330 F1800.000 A71.160 (d: 69.1038)
G1 X-34.397 Y-27.239 Z0.330 F1800.000 A73.817 (d: 6.536)
G1 X-34.397 Y-26.830 Z0.330 F1800.000 A73.832 (d: 6.9445)
G1 X34.397 Y-26.830 Z0.330 F1800.000 A76.489 (d: 69.1436)
G1 X34.397 Y-26.422 Z0.330 F1800.000 A76.505 (d: 69.1858)
G1 X-34.397 Y-26.422 Z0.330 F1800.000 A79.161 (d: 7.353)
G1 X-34.397 Y-26.013 Z0.330 F1800.000 A79.177 (d: 7.7615)
G1 X34.397 Y-26.013 Z0.330 F1800.000 A81.833 (d: 69.2305)
G1 X34.397 Y-25.605 Z0.330 F1800.000 A81.849 (d: 69.2774)
G1 X-34.397 Y-25.605 Z0.330 F1800.000 A84.505 (d: 8.17)
G1 X-34.397 Y-25.196 Z0.330 F1800.000 A84.521 (d: 8.5785)
G1 X34.397 Y-25.196 Z0.330 F1800.000 A87.177 (d: 69.3268)
G1 X34.397 Y-24.788 Z0.330 F1800.000 A87.193 (d: 69.3785)
G1 X-34.397 Y-24.788 Z0.330 F1800.000 A89.850 (d: 8.987)
G1 X-34.397 Y-24.379 Z0.330 F1800.000 A89.865 (d: 9.3955)
G1 X34.397 Y-24.379 Z0.330 F1800.000 A92.522 (d: 69.4326)
G1 X34.397 Y-23.971 Z0.330 F1800.000 A92.538 (d: 69.4891)
G1 X-34.397 Y-23.971 Z0.330 F1800.000 A95.194 (d: 9.804)
G1 X-34.397 Y-23.562 Z0.330 F1800.000 A95.210 (d: 10.2125)
G1 X34.397 Y-23.562 Z0.330 F1800.000 A97.866 (d: 69.5479)
G1 X34.397 Y-23.154 Z0.330 F1800.000 A97.882 (d: 69.6091)
G1 X-34.397 Y-23.154 Z0.330 F1800.000 A100.538 (d: 10.621)
G1 X-34.397 Y-22.745 Z0.330 F1800.000 A100.554 (d: 11.0295)
G1 X34.397 Y-22.745 Z0.330 F1800.000 A103.210 (d: 69.6726)
G1 X34.397 Y-22.337 Z0.330 F1800.000 A103.226 (d: 69.7384)
G1 X-34.397 Y-22.337 Z0.330 F1800.000 A105.883 (d: 11.438)
G1 X-34.397 Y-21.928 Z0.330 F1800.000 A105.898 (d: 11.8465)
G1 X34.397 Y-21.928 Z0.330 F1800.000 A108.555 (d: 69.8065)
G1 X34.397 Y-21.520 Z0.330 F1800.000 A108.571 (d: 69.877)
G1 X-34.397 Y-21.520 Z0.330 F1800.000 A111.227 (d: 12.255)
G1 X-34.397 Y-21.111 Z0.330 F1800.000 A111.243 (d: 12.6635)
G1 X34.397 Y-21.111 Z0.330 F1800.000 A113.899 (d: 69.9498)
G1 X34.397 Y-20.703 Z0.330 F1800.000 A113.915 (d: 70.0249)
G1 X-34.397 Y-20.703 Z0.330 F1800.000 A116.571 (d: 13.072)
G1 X-34.397 Y-20.294 Z0.330 F1800.000 A116.587 (d: 13.4805)
G1 X34.397 Y-20.294 Z0.330 F1800.000 A119.243 (d: 70.1023)
G1 X34.397 Y-19.886 Z0.330 F1800.000 A119.259 (d: 70.182)
G1 X-34.397 Y-19.886 Z0.330 F1800.000 A121.916 (d: 13.889)
G1 X-34.397 Y-19.477 Z0.330 F1800.000 A121.931 (d: 14.2975)
G1 X34.397 Y-19.477 Z0.330 F1800.000 A124.588 (d: 70.264)
G1 X34.397 Y-19.069 Z0.330 F1800.000 A124.603 (d: 70.3483)
G1 X-34.397 Y-19.069 Z0.330 F1800.000 A127.260 (d: 14.706)
G1 X-34.397 Y-18.660 Z0.330 F1800.000 A127.276 (d: 15.1145)
G1 X34.397 Y-18.660 Z0.330 F1800.000 A129.932 (d: 70.4348)
G1 X34.397 Y-18.252 Z0.330 F1800.000 A129.948 (d: 70.5236)
G1 X-34.397 Y-18.252 Z0.330 F1800.000 A132.604 (d: 15.523)
G1 X-34.397 Y-17.843 Z0.330 F1800.000 A132.620 (d: 15.9315)
G1 X34.397 Y-17.843 Z0.330 F1800.000 A135.276 (d: 70.6146)
G1 X34.397 Y-17.434 Z0.330 F1800.000 A135.292 (d: 70.7079)
G1 X-34.397 Y-17.434 Z0.330 F1800.000 A137.949 (d: 16.34)
G1 X-34.397 Y-17.026 Z0.330 F1800.000 A137.964 (d: 16.7485)
G1 X34.397 Y-17.026 Z0.330 F1800.000 A140.621 (d: 70.8034)
G1 X34.397 Y-16.617 Z0.330 F1800.000 A140.636 (d: 70.9012)
G1 X-34.397 Y-16.617 Z0.330 F1800.000 A143.293 (d: 17.157)
G1 X-34.397 Y-16.209 Z0.330 F1800.000 A143.309 (d: 17.5655)
G1 X34.397 Y-16.209 Z0.330 F1800.000 A145.965 (d: 71.0011)
G1 X34.397 Y-15.800 Z0.330 F1800.000 A145.981 (d: 71.1033)
G1 X-34.397 Y-15.800 Z0.330 F1800.000 A148.637 (d: 17.974)
G1 X-34.397 Y-15.392 Z0.330 F1800.000 A148.653 (d: 18.3825)
G1 X34.397 Y-15.392 Z0.330 F1800.000 A151.309 (d: 71.2077)
G1 X34.397 Y-14.984 Z0.330 F1800.000 A151.325 (d: 71.3142)
G1 X-34.397 Y-14.984 Z0.330 F1800.000 A153.981 (d: 18.791)
G1 X-34.397 Y-14.575 Z0.330 F1800.000 A153.997 (d: 19.1995)
G1 X34.397 Y-14.575 Z0.330 F1800.000 A156.654 (d: 71.4229)
G1 X34.397 Y-14.167 Z0.330 F1800.000 A156.669 (d: 71.5338)
G1 X-34.397 Y-14.167 Z0.330 F1800.000 A159.326 (d: 19.608)
G1 X-34.397 Y-13.758 Z0.330 F1800.000 A159.342 (d: 20.0165)
G1 X34.397 Y-13.758 Z0.330 F1800.000 A161.998 (d: 71.6469)
G1 X34.397 Y-13.350 Z0.330 F1800.000 A162.014 (d: 71.7621)
G1 X-34.397 Y-13.350 Z0.330 F1800.000 A164.670 (d: 20.425)
G1 X-34.397 Y-12.941 Z0.330 F1800.000 A164.686 (d: 20.8335)
G1 X34.397 Y-12.941 Z0.330 F1800.000 A167.342 (d: 71.8794)
G1 X34.397 Y-12.533 Z0.330 F1800.000 A167.358 (d: 71.9989)
G1 X-34.397 Y-12.533 Z0.330 F1800.000 A170.014 (d: 21.242)
G1 X-34.397 Y-12.124 Z0.330 F1800.000 A170.030 (d: 21.6505)
G1 X34.397 Y-12.124 Z0.330 F1800.000 A172.687 (d: 72.1204)
G1 X34.397 Y-11.716 Z0.330 F1800.000 A172.702 (d: 72.2441)
G1 X-34.397 Y-11.716 Z0.330 F1800.000 A175.359 (d: 22.059)
G1 X-34.397 Y-11.307 Z0.330 F1800.000 A175.375 (d: 22.4675)
G1 X34.397 Y-11.307 Z0.330 F1800.000 A178.031 (d: 72.3699)
G1 X34.397 Y-10.899 Z0.330 F1800.000 A178.047 (d: 72.4978)
G1 X-34.397 Y-10.899 Z0.330 F1800.000 A180.703 (d: 22.876)
G1 X-34.397 Y-10.490 Z0.330 F1800.000 A180.719 (d: 23.2845)
G1 X34.397 Y-10.490 Z0.330 F1800.000 A183.375 (d: 72.6277)
G1 X34.397 Y-10.082 Z0.330 F1800.000 A183.391 (d: 72.7597)
G1 X-34.397 Y-10.082 Z0.330 F1800.000 A186.047 (d: 23.693)
G1 X-34.397 Y-9.673 Z0.330 F1800.000 A186.063 (d: 24.1015)
G1 X34.397 Y-9.673 Z0.330 F1800.000 A188.720 (d: 72.8937)
G1 X34.397 Y-9.265 Z0.330 F1800.000 A188.735 (d: 73.0298)
G1 X-34.397 Y-9.265 Z0.330 F1800.000 A191.392 (d: 24.51)
G1 X-34.397 Y-8.856 Z0.330 F1800.000 A191.408 (d: 24.9185)
G1 X34.397 Y-8.856 Z0.330 F1800.000 A194.064 (d: 73.1679)
G1 X34.397 Y-8.448 Z0.330 F1800.000 A194.080 (d: 73.3081)
G1 X-34.397 Y-8.448 Z0.330 F1800.000 A196.736 (d: 25.327)
G1 X-34.397 Y-8.039 Z0.330 F1800.000 A196.752 (d: 25.7355)
G1 X34.397 Y-8.039 Z0.330 F1800.000 A199.408 (d: 73.4502)
G1 X34.397 Y-7.631 Z0.330 F1800.000 A199.424 (d: 73.5943)
G1 X-34.397 Y-7.631 Z0.330 F1800.000 A202.080 (d: 26.144)
G1 X-34.397 Y-7.222 Z0.330 F1800.000 A202.096 (d: 26.5525)
G1 X34.397 Y-7.222 Z0.330 F1800.000 A204.753 (d: 73.7404)
G1 X34.397 Y-6.814 Z0.330 F1800.000 A204.768 (d: 73.8885)
G1 X-34.397 Y-6.814 Z0.330 F1800.000 A207.425 (d: 26.961)
G1 X-34.397 Y-6.405 Z0.330 F1800.000 A207.441 (d: 27.3695)
G1 X34.397 Y-6.405 Z0.330 F1800.000 A210.097 (d: 74.0385)
G1 X34.397 Y-5.997 Z0.330 F1800.000 A210.113 (d: 74.1905)
G1 X-34.397 Y-5.997 Z0.330 F1800.000 A212.769 (d: 27.778)
G1 X-34.397 Y-5.588 Z0.330 F1800.000 A212.785 (d: 28.1865)
G1 X34.397 Y-5.588 Z0.330 F1800.000 A215.441 (d: 74.3444)
G1 X34.397 Y-5.180 Z0.330 F1800.000 A215.457 (d: 74.5003)
G1 X-34.397 Y-5.180 Z0.330 F1800.000 A218.113 (d: 28.595)
G1 X-34.397 Y-4.771 Z0.330 F1800.000 A218.129 (d: 29.0035)
G1 X34.397 Y-4.771 Z0.330 F1800.000 A220.786 (d: 74.658)
G1 X34.397 Y-4.363 Z0.330 F1800.000 A220.801 (d: 74.8176)
G1 X-34.397 Y-4.363 Z0.330 F1800.000 A223.458 (d: 29.412)
G1 X-34.397 Y-3.954 Z0.330 F1800.000 A223.474 (d: 29.8205)
G1 X34.397 Y-3.954 Z0.330 F1800.000 A226.130 (d: 74.9792)
G1 X34.397 Y-3.546 Z0.330 F1800.000 A226.146 (d: 75.1426)
G1 X-34.397 Y-3.546 Z0.330 F1800.000 A228.802 (d: 30.229)
G1 X-34.397 Y-3.137 Z0.330 F1800.000 A228.818 (d: 30.6375)
G1 X34.397 Y-3.137 Z0.330 F1800.000 A231.474 (d: 75.3078)
G1 X34.397 Y-2.729 Z0.330 F1800.000 A231.490 (d: 75.475)
G1 X-34.397 Y-2.729 Z0.330 F1800.000 A234.146 (d: 31.046)
G1 X-34.397 Y-2.320 Z0.330 F1800.000 A234.162 (d: 31.4545)
G1 X34.397 Y-2.320 Z0.330 F1800.000 A236.819 (d: 75.6439)
G1 X34.397 Y-1.912 Z0.330 F1800.000 A236.834 (d: 75.8147)
G1 X-34.397 Y-1.912 Z0.330 F1800.000 A239.491 (d: 31.863)
G1 X-34.397 Y-1.503 Z0.330 F1800.000 A239.506 (d: 32.2715)
G1 X34.397 Y-1.503 Z0.330 F1800.000 A242.163 (d: 75.9873)
G1 X34.397 Y-1.095 Z0.330 F1800.000 A242.179 (d: 76.1616)
G1 X-34.397 Y-1.095 Z0.330 F1800.000 A244.835 (d: 32.68)
G1 X-34.397 Y-0.686 Z0.330 F1800.000 A244.851 (d: 33.0885)
G1 X34.397 Y-0.686 Z0.330 F1800.000 A247.507 (d: 76.3378)
G1 X34.397 Y-0.278 Z0.330 F1800.000 A247.523 (d: 76.5158)
G1 X-34.397 Y-0.278 Z0.330 F1800.000 A250.179 (d: 33.497)
G1 X-34.397 Y0.131 Z0.330 F1800.000 A250.195 (d: 33.9055)
G1 X34.397 Y0.131 Z0.330 F1800.000 A252.852 (d: 76.6955)
G1 X34.397 Y0.539 Z0.330 F1800.000 A252.867 (d: 76.8769)
G1 X-34.397 Y0.539 Z0.330 F1800.000 A255.524 (d: 34.314)
G1 X-34.397 Y0.948 Z0.330 F1800.000 A255.539 (d: 34.7225)
G1 X34.397 Y0.948 Z0.330 F1800.000 A258.196 (d: 77.0601)
G1 X34.397 Y1.356 Z0.330 F1800.000 A258.212 (d: 77.2451)
G1 X-34.397 Y1.356 Z0.330 F1800.000 A260.868 (d: 35.131)
G1 X-34.397 Y1.765 Z0.330 F1800.000 A260.884 (d: 35.5395)
G1 X34.397 Y1.765 Z0.330 F1800.000 A263.540 (d: 77.4317)
G1 X34.397 Y2.173 Z0.330 F1800.000 A263.556 (d: 77.6201)
G1 X-34.397 Y2.173 Z0.330 F1800.000 A266.212 (d: 35.948)
G1 X-34.397 Y2.582 Z0.330 F1800.000 A266.228 (d: 36.3565)
G1 X34.397 Y2.582 Z0.330 F1800.000 A268.885 (d: 77.8101)
G1 X34.397 Y2.990 Z0.330 F1800.000 A268.900 (d: 78.0018)
G1 X-34.397 Y2.990 Z0.330 F1800.000 A271.557 (d: 36.765)
G1 X-34.397 Y3.399 Z0.330 F1800.000 A271.572 (d: 37.1735)
G1 X34.397 Y3.399 Z0.330 F1800.000 A274.229 (d: 78.1952)
G1 X34.397 Y3.807 Z0.330 F1800.000 A274.245 (d: 78.3902)
G1 X-34.397 Y3.807 Z0.330 F1800.000 A276.901 (d: 37.582)
G1 X-34.397 Y4.216 Z0.330 F1800.000 A276.917 (d: 37.9905)
G1 X34.397 Y4.216 Z0.330 F1800.000 A279.573 (d: 78.5868)
G1 X34.397 Y4.624 Z0.330 F1800.000 A279.589 (d: 78.7851)
G1 X-34.397 Y4.624 Z0.330 F1800.000 A282.245 (d: 38.399)
G1 X-34.397 Y5.033 Z0.330 F1800.000 A282.261 (d: 38.8075)
G1 X34.397 Y5.033 Z0.330 F1800.000 A284.917 (d: 78.985)
G1 X34.397 Y5.441 Z0.330 F1800.000 A284.933 (d: 79.1865)
G1 X-34.397 Y5.441 Z0.330 F1800.000 A287.590 (d: 39.216)
G1 X-34.397 Y5.850 Z0.330 F1800.000 A287.605 (d: 39.6245)
G1 X34.397 Y5.850 Z0.330 F1800.000 A290.262 (d: 79.3896)
G1 X34.397 Y6.258 Z0.330 F1800.000 A290.278 (d: 79.5943)
G1 X-34.397 Y6.258 Z0.330 F1800.000 A292.934 (d: 40.033)
G1 X-34.397 Y6.667 Z0.330 F1800.000 A292.950 (d: 40.4415)
G1 X34.397 Y6.667 Z0.330 F1800.000 A295.606 (d: 79.8006)
G1 X34.397 Y7.075 Z0.330 F1800.000 A295.622 (d: 80.0084)
G1 X-34.397 Y7.075 Z0.330 F1800.000 A298.278 (d: 40.85)
G1 X-34.397 Y7.484 Z0.330 F1800.000 A298.294 (d: 41.2585)
G1 X34.397 Y7.484 Z0.330 F1800.000 A300.950 (d: 80.2177)
G1 X34.397 Y7.892 Z0.330 F1800.000 A300.966 (d: 80.4286)
G1 X-34.397 Y7.892 Z0.330 F1800.000 A303.623 (d: 41.667)
G1 X-34.397 Y8.301 Z0.330 F1800.000 A303.638 (d: 42.0755)
G1 X34.397 Y8.301 Z0.330 F1800.000 A306.295 (d: 80.6409)
G1 X34.397 Y8.709 Z0.330 F1800.000 A306.311 (d: 80.8548)
G1 X-34.397 Y8.709 Z0.330 F1800.000 A308.967 (d: 42.484)
G1 X-34.397 Y9.118 Z0.330 F1800.000 A308.983 (d: 42.8925)
G1 X34.397 Y9.118 Z0.330 F1800.000 A311.639 (d: 81.0702)
G1 X34.397 Y9.526 Z0.330 F1800.000 A311.655 (d: 81.2871)
G1 X-34.397 Y9.526 Z0.330 F1800.000 A314.311 (d: 43.301)
G1 X-34.397 Y9.935 Z0.330 F1800.000 A314.327 (d: 43.7095)
G1 X34.397 Y9.935 Z0.330 F1800.000 A316.983 (d: 81.5054)
G1 X34.397 Y10.343 Z0.330 F1800.000 A316.999 (d: 81.7252)
G1 X-34.397 Y10.343 Z0.330 F1800.000 A319.656 (d: 44.118)
G1 X-34.397 Y10.752 Z0.330 F1800.000 A319.671 (d: 44.5265)
G1 X34.397 Y10.752 Z0.330 F1800.000 A322.328 (d: 81.9465)
G1 X34.397 Y11.160 Z0.330 F1800.000 A322.344 (d: 82.1691)
G1 X-34.397 Y11.160 Z0.330 F1800.000 A325.000 (d: 44.935)
G1 X-34.397 Y11.569 Z0.330 F1800.000 A325.016 (d: 45.3435)
G1 X34.397 Y11.569 Z0.330 F1800.000 A327.672 (d: 82.3932)
G1 X34.397 Y11.977 Z0.330 F1800.000 A327.688 (d: 82.6188)
G1 X-34.397 Y11.977 Z0.330 F1800.000 A330.344 (d: 45.752)
G1 X-34.397 Y12.386 Z0.330 F1800.000 A330.360 (d: 46.1605)
G1 X34.397 Y12.386 Z0.330 F1800.000 A333.016 (d: 82.8457)
G1 X34.397 Y12.794 Z0.330 F1800.000 A333.032 (d: 83.074)
G1 X-34.397 Y12.794 Z0.330 F1800.000 A335.689 (d: 46.569)
G1 X-34.397 Y13.203 Z0.330 F1800.000 A335.704 (d: 46.9775)
G1 X34.397 Y13.203 Z0.330 F1800.000 A338.361 (d: 83.3037)
G1 X34.397 Y13.611 Z0.330 F1800.000 A338.377 (d: 83.5347)
G1 X-34.397 Y13.611 Z0.330 F1800.000 A341.033 (d: 47.386)
G1 X-34.397 Y14.020 Z0.330 F1800.000 A341.049 (d: 47.7945)
G1 X34.397 Y14.020 Z0.330 F1800.000 A343.705 (d: 83.7671)
G1 X34.397 Y14.428 Z0.330 F1800.000 A343.721 (d: 84.0009)
G1 X-34.397 Y14.428 Z0.330 F1800.000 A346.377 (d: 48.203)
G1 X-34.397 Y14.837 Z0.330 F1800.000 A346.393 (d: 48.6115)
G1 X34.397 Y14.837 Z0.330 F1800.000 A349.049 (d: 84.2359)
G1 X34.397 Y15.245 Z0.330 F1800.000 A349.065 (d: 84.4723)
G1 X-34.397 Y15.245 Z0.330 F1800.000 A351.722 (d: 49.02)
G1 X-34.397 Y15.654 Z0.330 F1800.000 A351.737 (d: 49.4285)
G1 X34.397 Y15.654 Z0.330 F1800.000 A354.394 (d: 84.71)
G1 X34.397 Y16.062 Z0.330 F1800.000 A354.410 (d: 84.949)
G1 X-34.397 Y16.062 Z0.330 F1800.000 A357.066 (d: 49.837)
G1 X-34.397 Y16.471 Z0.330 F1800.000 A357.082 (d: 50.2455)
G1 X34.397 Y16.471 Z0.330 F1800.000 A359.738 (d: 85.1893)
G1 X34.397 Y16.880 Z0.330 F1800.000 A359.754 (d: 85.4309)
G1 X-34.397 Y16.880 Z0.330 F1800.000 A362.410 (d: 50.654)
G1 X-34.397 Y17.288 Z0.330 F1800.000 A362.426 (d: 51.0625)
G1 X34.397 Y17.288 Z0.330 F1800.000 A365.082 (d: 85.6738)
G1 X34.397 Y17.696 Z0.330 F1800.000 A365.098 (d: 85.9179)
G1 X-34.397 Y17.696 Z0.330 F1800.000 A367.755 (d: 51.471)
G1 X-34.397 Y18.105 Z0.330 F1800.000 A367.770 (d: 51.8795)
G1 X34.397 Y18.105 Z0.330 F1800.000 A370.427 (d: 86.1632)
G1 X34.397 Y18.513 Z0.330 F1800.000 A370.442 (d: 86.4098)
G1 X-34.397 Y18.513 Z0.330 F1800.000 A373.099 (d: 52.288)
G1 X-34.397 Y18.922 Z0.330 F1800.000 A373.115 (d: 52.6965)
G1 X34.397 Y18.922 Z0.330 F1800.000 A375.771 (d: 86.6576)
G1 X34.397 Y19.330 Z0.330 F1800.000 A375.787 (d: 86.9066)
G1 X-34.397 Y19.330 Z0.330 F1800.000 A378.443 (d: 53.105)
G1 X-34.397 Y19.739 Z0.330 F1800.000 A378.459 (d: 53.5135)
G1 X34.397 Y19.739 Z0.330 F1800.000 A381.115 (d: 87.1568)
G1 X34.397 Y20.147 Z0.330 F1800.000 A381.131 (d: 87.4082)
G1 X-34.397 Y20.147 Z0.330 F1800.000 A383.788 (d: 53.922)
G1 X-34.397 Y20.556 Z0.330 F1800.000 A383.803 (d: 54.3305)
G1 X34.397 Y20.556 Z0.330 F1800.000 A386.460 (d: 87.6608)
G1 X34.397 Y20.964 Z0.330 F1800.000 A386.475 (d: 87.9146)
G1 X-34.397 Y20.964 Z0.330 F1800.000 A389.132 (d: 54.739)
G1 X-34.397 Y21.373 Z0.330 F1800.000 A389.148 (d: 55.1475)
G1 X34.397 Y21.373 Z0.330 F1800.000 A391.804 (d: 88.1695)
G1 X34.397 Y21.781 Z0.330 F1800.000 A391.820 (d: 88.4256)
G1 X-34.397 Y21.781 Z0.330 F1800.000 A394.476 (d: 55.556)
G1 X-34.397 Y22.190 Z0.330 F1800.000 A394.492 (d: 55.9645)
G1 X34.397 Y22.190 Z0.330 F1800.000 A397.148 (d: 88.6828)
G1 X34.397 Y22.598 Z0.330 F1800.000 A397.164 (d: 88.9412)
G1 X-34.397 Y22.598 Z0.330 F1800.000 A399.821 (d: 56.373)
G1 X-34.397 Y23.007 Z0.330 F1800.000 A399.836 (d: 56.7815)
G1 X34.397 Y23.007 Z0.330 F1800.000 A402.493 (d: 89.2006)
G1 X34.397 Y23.415 Z0.330 F1800.000 A402.508 (d: 89.4612)
G1 X-34.397 Y23.415 Z0.330 F1800.000 A405.165 (d: 57.19)
G1 X-34.397 Y23.824 Z0.330 F1800.000 A405.181 (d: 57.5985)
G1 X34.397 Y23.824 Z0.330 F1800.000 A407.837 (d: 89.7229)
G1 X34.397 Y24.232 Z0.330 F1800.000 A407.853 (d: 89.9857)
G1 X-34.397 Y24.232 Z0.330 F1800.000 A410.509 (d: 58.007)
G1 X-34.397 Y24.641 Z0.330 F1800.000 A410.525 (d: 58.4155)
G1 X34.397 Y24.641 Z0.330 F1800.000 A413.181 (d: 90.2496)
G1 X34.397 Y25.049 Z0.330 F1800.000 A413.197 (d: 90.5145)
G1 X-34.397 Y25.049 Z0.330 F1800.000 A415.853 (d: 58.824)
G1 X-34.397 Y25.458 Z0.330 F1800.000 A415.869 (d: 59.2325)
G1 X34.397 Y25.458 Z0.330 F1800.000 A418.526 (d: 90.7805)
G1 X34.397 Y25.866 Z0.330 F1800.000 A418.541 (d: 91.0476)
G1 X-34.397 Y25.866 Z0.330 F1800.000 A421.198 (d: 59.641)
G1 X-34.397 Y26.275 Z0.330 F1800.000 A421.214 (d: 60.0495)
G1 X34.397 Y26.275 Z0.330 F1800.000 A423.870 (d: 91.3157)
G1 X34.397 Y26.683 Z0.330 F1800.000 A423.886 (d: 91.5848)
G1 X-34.397 Y26.683 Z0.330 F1800.000 A426.542 (d: 60.458)
G1 X-34.397 Y27.092 Z0.330 F1800.000 A426.558 (d: 60.8665)
G1 X34.397 Y27.092 Z0.330 F1800.000 A429.214 (d: 91.855)
G1 X34.397 Y27.500 Z0.330 F1800.000 A429.230 (d: 92.1262)
G1 X-34.397 Y27.500 Z0.330 F1800.000 A431.886 (d: 61.275)
G1 X-34.397 Y27.909 Z0.330 F1800.000 A431.902 (d: 61.6835)
G1 X34.397 Y27.909 Z0.330 F1800.000 A434.559 (d: 92.3984)
G1 X34.397 Y28.317 Z0.330 F1800.000 A434.574 (d: 92.6716)
G1 X-34.397 Y28.317 Z0.330 F1800.000 A437.231 (d: 62.092)
G1 X-34.397 Y28.726 Z0.330 F1800.000 A437.247 (d: 62.5005)
G1 X34.397 Y28.726 Z0.330 F1800.000 A439.903 (d: 92.9458)
G1 X34.397 Y29.135 Z0.330 F1800.000 A439.919 (d: 93.221)
G1 X-34.397 Y29.135 Z0.330 F1800.000 A442.575 (d: 62.909)
G1 X-34.397 Y29.543 Z0.330 F1800.000 A442.591 (d: 63.3175)
G1 X34.397 Y29.543 Z0.330 F1800.000 A445.247 (d: 93.4972)
G1 X34.397 Y29.951 Z0.330 F1800.000 A445.263 (d: 93.7743)
G1 X-34.397 Y29.951 Z0.330 F1800.000 A447.919 (d: 63.726)
G1 X-34.397 Y30.360 Z0.330 F1800.000 A447.935 (d: 64.1345)
G1 X34.397 Y30.360 Z0.330 F1800.000 A450.592 (d: 94.0524)
G1 X34.397 Y30.768 Z0.330 F1800.000 A450.607 (d: 94.3314)
G1 X-34.397 Y30.768 Z0.330 F1800.000 A453.264 (d: 64.543)
G1 X-34.397 Y31.177 Z0.330 F1800.000 A453.280 (d: 64.9515)
G1 X34.397 Y31.177 Z0.330 F1800.000 A455.936 (d: 94.6114)
G1 X34.397 Y31.585 Z0.330 F1800.000 A455.952 (d: 94.8923)
G1 X-34.397 Y31.585 Z0.330 F1800.000 A458.608 (d: 65.36)
G1 X-34.397 Y31.994 Z0.330 F1800.000 A458.624 (d: 65.7685)
G1 X34.397 Y31.994 Z0.330 F1800.000 A461.280 (d: 95.1741)
G1 X34.397 Y32.402 Z0.330 F1800.000 A461.296 (d: 95.4568)
G1 X-34.397 Y32.402 Z0.330 F1800.000 A463.952 (d: 66.177)
G1 X-34.397 Y32.811 Z0.330 F1800.000 A463.968 (d: 66.5855)
G1 X34.397 Y32.811 Z0.330 F1800.000 A466.625 (d: 95.7405)
G1 X34.397 Y33.219 Z0.330 F1800.000 A466.640 (d: 96.0251)
G1 X-34.397 Y33.219 Z0.330 F1800.000 A469.297 (d: 66.994)
G1 X-34.397 Y33.628 Z0.330 F1800.000 A469.313 (d: 67.4025)
G1 X34.397 Y33.628 Z0.330 F1800.000 A471.969 (d: 96.3105)
G1 X34.397 Y34.036 Z0.330 F1800.000 A471.985 (d: 96.5968)
G1 X-34.397 Y34.036 Z0.330 F1800.000 A474.641 (d: 67.811)
G1 F798.000 A474.141 (snort)

(Slice 1, 1 Extruder)
G1 Z0.600 F500.000 (move Z)
(   Extruder 0)
( extruder 0 )
( GSWITCH T0 )
( TODO: add offset management to Gantry )

(inset 0/2 )
(  path 0/1, 5 points,  )
G1 X-34.784 Y-34.784 Z0.600 F6000.000 (move into position)
G1 F798.000 A474.641 (squirt)
G1 X-34.784 Y34.784 Z0.600 F4800.000 A477.327 (d: 69.568)
G1 X34.784 Y34.784 Z0.600 F4800.000 A480.014 (d: 98.384)
G1 X34.784 Y-34.784 Z0.600 F4800.000 A482.700 (d: 69.568)
G1 X-34.784 Y-34.784 Z0.600 F4800.000 A485.386 (d: 0)
G1 F798.000 A484.886 (snort)

(inset 1/2 )
(  path 0/1, 5 points,  )
G1 X-34.397 Y-34.397 Z0.600 F6000.000 (move into position)
G1 F798.000 A485.386 (squirt)
G1 X-34.397 Y34.397 Z0.600 F4800.000 A488.043 (d: 68.794)
G1 X34.397 Y34.397 Z0.600 F4800.000 A490.699 (d: 97.2894)
G1 X34.397 Y-34.397 Z0.600 F4800.000 A493.355 (d: 68.794)
G1 X-34.397 Y-34.397 Z0.600 F4800.000 A496.012 (d: 0)
G1 F798.000 A495.512 (snort)

(infills: 1)
(  path 0/1, 336 points,  )
G1 X-33.775 Y-34.397 Z0.600 F6000.000 (move into position)
G1 F798.000 A496.012 (squirt)
G1 X-33.775 Y34.397 Z0.600 F4800.000 A498.668 (d: 68.794)
G1 X-34.183 Y34.397 Z0.600 F4800.000 A498.684 (d: 68.7952)
G1 X-34.183 Y-34.397 Z0.600 F4800.000 A501.340 (d: 0.4085)
G1 X-33.366 Y-34.397 Z0.600 F4800.000 A501.372 (d: 0.4085)
G1 X-33.366 Y34.397 Z0.600 F4800.000 A504.028 (d: 68.7952)
G1 X-32.958 Y34.397 Z0.600 F4800.000 A504.044 (d: 68.7989)
G1 X-32.958 Y-34.397 Z0.600 F4800.000 A506.700 (d: 0.817)
G1 X-32.549 Y-34.397 Z0.600 F4800.000 A506.716 (d: 1.2255)
G1 X-32.549 Y34.397 Z0.600 F4800.000 A509.373 (d: 68.8049)
G1 X-32.141 Y34.397 Z0.600 F4800.000 A509.388 (d: 68.8134)
G1 X-32.141 Y-34.397 Z0.600 F4800.000 A512.045 (d: 1.634)
G1 X-31.732 Y-34.397 Z0.600 F4800.000 A512.060 (d: 2.0425)
G1 X-31.732 Y34.397 Z0.600 F4800.000 A514.717 (d: 68.8243)
G1 X-31.323 Y34.397 Z0.600 F4800.000 A514.733 (d: 68.8376)
G1 X-31.323 Y-34.397 Z0.600 F4800.000 A517.389 (d: 2.451)
G1 X-30.915 Y-34.397 Z0.600 F4800.000 A517.405 (d: 2.8595)
G1 X-30.915 Y34.397 Z0.600 F4800.000 A520.061 (d: 68.8534)
G1 X-30.506 Y34.397 Z0.600 F4800.000 A520.077 (d: 68.8716)
G1 X-30.506 Y-34.397 Z0.600 F4800.000 A522.733 (d: 3.268)
G1 X-30.098 Y-34.397 Z0.600 F4800.000 A522.749 (d: 3.6765)
G1 X-30.098 Y34.397 Z0.600 F4800.000 A525.406 (d: 68.8922)
G1 X-29.690 Y34.397 Z0.600 F4800.000 A525.421 (d: 68.9152)
G1 X-29.690 Y-34.397 Z0.600 F4800.000 A528.078 (d: 4.085)
G1 X-29.281 Y-34.397 Z0.600 F4800.000 A528.093 (d: 4.4935)
G1 X-29.281 Y34.397 Z0.600 F4800.000 A530.750 (d: 68.9406)
G1 X-28.873 Y34.397 Z0.600 F4800.000 A530.766 (d: 68.9684)
G1 X-28.873 Y-34.397 Z0.600 F4800.000 A533.422 (d: 4.902)
G1 X-28.464 Y-34.397 Z0.600 F4800.000 A533.438 (d: 5.3105)
G1 X-28.464 Y34.397 Z0.600 F4800.000 A536.094 (d: 68.9987)
G1 X-28.056 Y34.397 Z0.600 F4800.000 A536.110 (d: 69.0313)
G1 X-28.056 Y-34.397 Z0.600 F4800.000 A538.766 (d: 5.719)
G1 X-27.647 Y-34.397 Z0.600 F4800.000 A538.782 (d: 6.1275)
G1 X-27.647 Y34.397 Z0.600 F4800.000 A541.439 (d: 69.0663)
G1 X-27.239 Y34.397 Z0.600 F4800.000 A541.454 (d: 69.1038)
G1 X-27.239 Y-34.397 Z0.600 F4800.000 A544.111 (d: 6.536)
G1 X-26.830 Y-34.397 Z0.600 F4800.000 A544.126 (d: 6.9445)
G1 X-26.830 Y34.397 Z0.600 F4800.000 A546.783 (d: 69.1436)
G1 X-26.422 Y34.397 Z0.600 F4800.000 A546.799 (d: 69.1858)
G1 X-26.422 Y-34.397 Z0.600 F4800.000 A549.455 (d: 7.353)
G1 X-26.013 Y-34.397 Z0.600 F4800.000 A549.471 (d: 7.7615)
G1 X-26.013 Y34.397 Z0.600 F4800.000 A552.127 (d: 69.2305)
G1 X-25.605 Y34.397 Z0.600 F4800.000 A552.143 (d: 69.2774)
G1 X-25.605 Y-34.397 Z0.600 F4800.000 A554.799 (d: 8.17)
G1 X-25.196 Y-34.397 Z0.600 F4800.000 A554.815 (d: 8.5785)
G1 X-25.196 Y34.397 Z0.600 F4800.000 A557.471 (d: 69.3268)
G1 X-24.788 Y34.397 Z0.600 F4800.000 A557.487 (d: 69.3785)
G1 X-24.788 Y-34.397 Z0.600 F4800.000 A560.144 (d: 8.987)
G1 X-24.379 Y-34.397 Z0.600 F4800.000 A560.159 (d: 9.3955)
G1 X-24.379 Y34.397 Z0.600 F4800.000 A562.816 (d: 69.4326)
G1 X-23.971 Y34.397 Z0.600 F4800.000 A562.832 (d: 69.4891)
G1 X-23.971 Y-34.397 Z0.600 F4800.000 A565.488 (d: 9.804)
G1 X-23.562 Y-34.397 Z0.600 F4800.000 A565.504 (d: 10.2125)
G1 X-23.562 Y34.397 Z0.600 F4800.000 A568.160 (d: 69.5479)
G1 X-23.154 Y34.397 Z0.600 F4800.000 A568.176 (d: 69.6091)
G1 X-23.154 Y-34.397 Z0.600 F4800.000 A570.832 (d: 10.621)
G1 X-22.745 Y-34.397 Z0.600 F4800.000 A570.848 (d: 11.0295)
G1 X-22.745 Y34.397 Z0.600 F4800.000 A573.504 (d: 69.6726)
G1 X-22.337 Y34.397 Z0.600 F4800.000 A573.520 (d: 69.7384)
G1 X-22.337 Y-34.397 Z0.600 F4800.000 A576.177 (d: 11.438)
G1 X-21.928 Y-34.397 Z0.600 F4800.000 A576.192 (d: 11.8465)
G1 X-21.928 Y34.397 Z0.600 F4800.000 A578.849 (d: 69.8065)
G1 X-21.520 Y34.397 Z0.600 F4800.000 A578.865 (d: 69.877)
G1 X-21.520 Y-34.397 Z0.600 F4800.000 A581.521 (d: 12.255)
G1 X-21.111 Y-34.397 Z0.600 F4800.000 A581.537 (d: 12.6635)
G1 X-21.111 Y34.397 Z0.600 F4800.000 A584.193 (d: 69.9498)
G1 X-20.703 Y34.397 Z0.600 F4800.000 A584.209 (d: 70.0249)
G1 X-20.703 Y-34.397 Z0.600 F4800.000 A586.865 (d: 13.072)
G1 X-20.294 Y-34.397 Z0.600 F4800.000 A586.881 (d: 13.4805)
G1 X-20.294 Y34.397 Z0.600 F4800.000 A589.537 (d: 70.1023)
G1 X-19.886 Y34.397 Z0.600 F4800.000 A589.553 (d: 70.182)
G1 X-19.886 Y-34.397 Z0.600 F4800.000 A592.210 (d: 13.889)
G1 X-19.477 Y-34.397 Z0.600 F4800.000 A592.225 (d: 14.2975)
G1 X-19.477 Y34.397 Z0.600 F4800.000 A594.882 (d: 70.264)
G1 X-19.069 Y34.397 Z0.600 F4800.000 A594.898 (d: 70.3483)
G1 X-19.069 Y-34.397 Z0.600 F4800.000 A597.554 (d: 14.706)
G1 X-18.660 Y-34.397 Z0.600 F4800.000 A597.570 (d: 15.1145)
G1 X-18.660 Y34.397 Z0.600 F4800.000 A600.226 (d: 70.4348)
G1 X-18.252 Y34.397 Z0.600 F4800.000 A600.242 (d: 70.5236)
G1 X-18.252 Y-34.397 Z0.600 F4800.000 A602.898 (d: 15.523)
G1 X-17.843 Y-34.397 Z0.600 F4800.000 A602.914 (d: 15.9315)
G1 X-17.843 Y34.397 Z0.600 F4800.000 A605.570 (d: 70.6146)
G1 X-17.434 Y34.397 Z0.600 F4800.000 A605.586 (d: 70.7079)
G1 X-17.434 Y-34.397 Z0.600 F4800.000 A608.243 (d: 16.34)
G1 X-17.026 Y-34.397 Z0.600 F4800.000 A608.258 (d: 16.7485)
G1 X-17.026 Y34.397 Z0.600 F4800.000 A610.915 (d: 70.8034)
G1 X-16.617 Y34.397 Z0.600 F4800.000 A610.931 (d: 70.9012)
G1 X-16.617 Y-34.397 Z0.600 F4800.000 A613.587 (d: 17.157)
G1 X-16.209 Y-34.397 Z0.600 F4800.000 A613.603 (d: 17.5655)
G1 X-16.209 Y34.397 Z0.600 F4800.000 A616.259 (d: 71.0011)
G1 X-15.800 Y34.397 Z0.600 F4800.000 A616.275 (d: 71.1033)
G1 X-15.800 Y-34.397 Z0.600 F4800.000 A618.931 (d: 17.974)
G1 X-15.392 Y-34.397 Z0.600 F4800.000 A618.947 (d: 18.3825)
G1 X-15.392 Y34.397 Z0.600 F4800.000 A621.603 (d: 71.2077)
G1 X-14.984 Y34.397 Z0.600 F4800.000 A621.619 (d: 71.3142)
G1 X-14.984 Y-34.397 Z0.600 F4800.000 A624.276 (d: 18.791)
G1 X-14.575 Y-34.397 Z0.600 F4800.000 A624.291 (d: 19.1995)
G1 X-14.575 Y34.397 Z0.600 F4800.000 A626.948 (d: 71.4229)
G1 X-14.167 Y34.397 Z0.600 F4800.000 A626.963 (d: 71.5338)
G1 X-14.167 Y-34.397 Z0.600 F4800.000 A629.620 (d: 19.608)
G1 X-13.758 Y-34.397 Z0.600 F4800.000 A629.636 (d: 20.0165)
G1 X-13.758 Y34.397 Z0.600 F4800.000 A632.292 (d: 71.6469)
G1 X-13.350 Y34.397 Z0.600 F4800.000 A632.308 (d: 71.7621)
G1 X-13.350 Y-34.397 Z0.600 F4800.000 A634.964 (d: 20.425)
G1 X-12.941 Y-34.397 Z0.600 F4800.000 A634.980 (d: 20.8335)
G1 X-12.941 Y34.397 Z0.600 F4800.000 A637.636 (d: 71.8794)
G1 X-12.533 Y34.397 Z0.600 F4800.000 A637.652 (d: 71.9989)
G1 X-12.533 Y-34.397 Z0.600 F4800.000 A640.309 (d: 21.242)
G1 X-12.124 Y-34.397 Z0.600 F4800.000 A640.324 (d: 21.6505)
G1 X-12.124 Y34.397 Z0.600 F4800.000 A642.981 (d: 72.1204)
G1 X-11.716 Y34.397 Z0.600 F4800.000 A642.996 (d: 72.2441)
G1 X-11.716 Y-34.397 Z0.600 F4800.000 A645.653 (d: 22.059)
G1 X-11.307 Y-34.397 Z0.600 F4800.000 A645.669 (d: 22.4675)
G1 X-11.307 Y34.397 Z0.600 F4800.000 A648.325 (d: 72.3699)
G1 X-10.899 Y34.397 Z0.600 F4800.000 A648.341 (d: 72.4978)
G1 X-10.899 Y-34.397 Z0.600 F4800.000 A650.997 (d: 22.876)
G1 X-10.490 Y-34.397 Z0.600 F4800.000 A651.013 (d: 23.2845)
G1 X-10.490 Y34.397 Z0.600 F4800.000 A653.669 (d: 72.6277)
G1 X-10.082 Y34.397 Z0.600 F4800.000 A653.685 (d: 72.7597)
G1 X-10.082 Y-34.397 Z0.600 F4800.000 A656.342 (d: 23.693)
G1 X-9.673 Y-34.397 Z0.600 F4800.000 A656.357 (d: 24.1015)
G1 X-9.673 Y34.397 Z0.600 F4800.000 A659.014 (d: 72.8937)
G1 X-9.265 Y34.397 Z0.600 F4800.000 A659.029 (d: 73.0298)
G1 X-9.265 Y-34.397 Z0.600 F4800.000 A661.686 (d: 24.51)
G1 X-8.856 Y-34.397 Z0.600 F4800.000 A661.702 (d: 24.9185)
G1 X-8.856 Y34.397 Z0.600 F4800.000 A664.358 (d: 73.1679)
G1 X-8.448 Y34.397 Z0.600 F4800.000 A664.374 (d: 73.3081)
G1 X-8.448 Y-34.397 Z0.600 F4800.000 A667.030 (d: 25.327)
G1 X-8.039 Y-34.397 Z0.600 F4800.000 A667.046 (d: 25.7355)
G1 X-8.039 Y34.397 Z0.600 F4800.000 A669.702 (d: 73.4502)
G1 X-7.631 Y34.397 Z0.600 F4800.000 A669.718 (d: 73.5943)
G1 X-7.631 Y-34.397 Z0.600 F4800.000 A672.374 (d: 26.144)
G1 X-7.222 Y-34.397 Z0.600 F4800.000 A672.390 (d: 26.5525)
G1 X-7.222 Y34.397 Z0.600 F4800.000 A675.047 (d: 73.7404)
G1 X-6.814 Y34.397 Z0.600 F4800.000 A675.062 (d: 73.8885)
G1 X-6.814 Y-34.397 Z0.600 F4800.000 A677.719 (d: 26.961)
G1 X-6.405 Y-34.397 Z0.600 F4800.000 A677.735 (d: 27.3695)
G1 X-6.405 Y34.397 Z0.600 F4800.000 A680.391 (d: 74.0385)
G1 X-5.997 Y34.397 Z0.600 F4800.000 A680.407 (d: 74.1905)
G1 X-5.997 Y-34.397 Z0.600 F4800.000 A683.063 (d: 27.778)
G1 X-5.588 Y-34.397 Z0.600 F4800.000 A683.079 (d: 28.1865)
G1 X-5.588 Y34.397 Z0.600 F4800.000 A685.735 (d: 74.3444)
G1 X-5.180 Y34.397 Z0.600 F4800.000 A685.751 (d: 74.5003)
G1 X-5.180 Y-34.397 Z0.600 F4800.000 A688.407 (d: 28.595)
G1 X-4.771 Y-34.397 Z0.600 F4800.000 A688.423 (d: 29.0035)
G1 X-4.771 Y34.397 Z0.600 F4800.000 A691.080 (d: 74.658)
G1 X-4.363 Y34.397 Z0.600 F4800.000 A691.095 (d: 74.8176)
G1 X-4.363 Y-34.397 Z0.600 F4800.000 A693.752 (d: 29.412)
G1 X-3.954 Y-34.397 Z0.600 F4800.000 A693.768 (d: 29.8205)
G1 X-3.954 Y34.397 Z0.600 F4800.000 A696.424 (d: 74.9792)
G1 X-3.546 Y34.397 Z0.600 F4800.000 A696.440 (d: 75.1426)
G1 X-3.546 Y-34.397 Z0.600 F4800.000 A699.096 (d: 30.229)
G1 X-3.137 Y-34.397 Z0.600 F4800.000 A699.112 (d: 30.6375)
G1 X-3.137 Y34.397 Z0.600 F4800.000 A701.768 (d: 75.3078)
G1 X-2.729 Y34.397 Z0.600 F4800.000 A701.784 (d: 75.475)
G1 X-2.729 Y-34.397 Z0.600 F4800.000 A704.440 (d: 31.046)
G1 X-2.320 Y-34.397 Z0.600 F4800.000 A704.456 (d: 31.4545)
G1 X-2.320 Y34.397 Z0.600 F4800.000 A707.113 (d: 75.6439)
G1 X-1.912 Y34.397 Z0.600 F4800.000 A707.128 (d: 75.8147)
G1 X-1.912 Y-34.397 Z0.600 F4800.000 A709.785 (d: 31.863)
G1 X-1.503 Y-34.397 Z0.600 F4800.000 A709.801 (d: 32.2715)
G1 X-1.503 Y34.397 Z0.600 F4800.000 A712.457 (d: 75.9873)
G1 X-1.095 Y34.397 Z0.600 F4800.000 A712.473 (d: 76.1616)
G1 X-1.095 Y-34.397 Z0.600 F4800.000 A715.129 (d: 32.68)
G1 X-0.686 Y-34.397 Z0.600 F4800.000 A715.145 (d: 33.0885)
G1 X-0.686 Y34.397 Z0.600 F4800.000 A717.801 (d: 76.3378)
G1 X-0.278 Y34.397 Z0.600 F4800.000 A717.817 (d: 76.5158)
G1 X-0.278 Y-34.397 Z0.600 F4800.000 A720.473 (d: 33.497)
G1 X0.131 Y-34.397 Z0.600 F4800.000 A720.489 (d: 33.9055)
G1 X0.131 Y34.397 Z0.600 F4800.000 A723.146 (d: 76.6955)
G1 X0.539 Y34.397 Z0.600 F4800.000 A723.161 (d: 76.8769)
G1 X0.539 Y-34.397 Z0.600 F4800.000 A725.818 (d: 34.314)
G1 X0.948 Y-34.397 Z0.600 F4800.000 A725.834 (d: 34.7225)
G1 X0.948 Y34.397 Z0.600 F4800.000 A728.490 (d: 77.0601)
G1 X1.356 Y34.397 Z0.600 F4800.000 A728.506 (d: 77.2451)
G1 X1.356 Y-34.397 Z0.600 F4800.000 A731.162 (d: 35.131)
G1 X1.765 Y-34.397 Z0.600 F4800.000 A731.178 (d: 35.5395)
G1 X1.765 Y34.397 Z0.600 F4800.000 A733.834 (d: 77.4317)
G1 X2.173 Y34.397 Z0.600 F4800.000 A733.850 (d: 77.6201)
G1 X2.173 Y-34.397 Z0.600 F4800.000 A736.506 (d: 35.948)
G1 X2.582 Y-34.397 Z0.600 F4800.000 A736.522 (d: 36.3565)
G1 X2.582 Y34.397 Z0.600 F4800.000 A739.179 (d: 77.8101)
G1 X2.990 Y34.397 Z0.600 F4800.000 A739.194 (d: 78.0018)
G1 X2.990 Y-34.397 Z0.600 F4800.000 A741.851 (d: 36.765)
G1 X3.399 Y-34.397 Z0.600 F4800.000 A741.867 (d: 37.1735)
G1 X3.399 Y34.397 Z0.600 F4800.000 A744.523 (d: 78.1952)
G1 X3.807 Y34.397 Z0.600 F4800.000 A744.539 (d: 78.3902)
G1 X3.807 Y-34.397 Z0.600 F4800.000 A747.195 (d: 37.582)
G1 X4.216 Y-34.397 Z0.600 F4800.000 A747.211 (d: 37.9905)
G1 X4.216 Y34.397 Z0.600 F4800.000 A749.867 (d: 78.5868)
G1 X4.624 Y34.397 Z0.600 F4800.000 A749.883 (d: 78.7851)
G1 X4.624 Y-34.397 Z0.600 F4800.000 A752.539 (d: 38.399)
G1 X5.033 Y-34.397 Z0.600 F4800.000 A752.555 (d: 38.8075)
G1 X5.033 Y34.397 Z0.600 F4800.000 A755.212 (d: 78.985)
G1 X5.441 Y34.397 Z0.600 F4800.000 A755.227 (d: 79.1865)
G1 X5.441 Y-34.397 Z0.600 F4800.000 A757.884 (d: 39.216)
G1 X5.850 Y-34.397 Z0.600 F4800.000 A757.899 (d: 39.6245)
G1 X5.850 Y34.397 Z0.600 F4800.000 A760.556 (d: 79.3896)
G1 X6.258 Y34.397 Z0.600 F4800.000 A760.572 (d: 79.5943)
G1 X6.258 Y-34.397 Z0.600 F4800.000 A763.228 (d: 40.033)
G1 X6.667 Y-34.397 Z0.600 F4800.000 A763.244 (d: 40.4415)
G1 X6.667 Y34.397 Z0.600 F4800.000 A765.900 (d: 79.8006)
G1 X7.075 Y34.397 Z0.600 F4800.000 A765.916 (d: 80.0084)
G1 X7.075 Y-34.397 Z0.600 F4800.000 A768.572 (d: 40.85)
G1 X7.484 Y-34.397 Z0.600 F4800.000 A768.588 (d: 41.2585)
G1 X7.484 Y34.397 Z0.600 F4800.000 A771.245 (d: 80.2177)
G1 X7.892 Y34.397 Z0.600 F4800.000 A771.260 (d: 80.4286)
G1 X7.892 Y-34.397 Z0.600 F4800.000 A773.917 (d: 41.667)
G1 X8.301 Y-34.397 Z0.600 F4800.000 A773.932 (d: 42.0755)
G1 X8.301 Y34.397 Z0.600 F4800.000 A776.589 (d: 80.6409)
G1 X8.709 Y34.397 Z0.600 F4800.000 A776.605 (d: 80.8548)
G1 X8.709 Y-34.397 Z0.600 F4800.000 A779.261 (d: 42.484)
G1 X9.118 Y-34.397 Z0.600 F4800.000 A779.277 (d: 42.8925)
G1 X9.118 Y34.397 Z0.600 F4800.000 A781.933 (d: 81.0702)
G1 X9.526 Y34.397 Z0.600 F4800.000 A781.949 (d: 81.2871)
G1 X9.526 Y-34.397 Z0.600 F4800.000 A784.605 (d: 43.301)
G1 X9.935 Y-34.397 Z0.600 F4800.000 A784.621 (d: 43.7095)
G1 X9.935 Y34.397 Z0.600 F4800.000 A787.278 (d: 81.5054)
G1 X10.343 Y34.397 Z0.600 F4800.000 A787.293 (d: 81.7252)
G1 X10.343 Y-34.397 Z0.600 F4800.000 A789.950 (d: 44.118)
G1 X10.752 Y-34.397 Z0.600 F4800.000 A789.965 (d: 44.5265)
G1 X10.752 Y34.397 Z0.600 F4800.000 A792.622 (d: 81.9465)
G1 X11.160 Y34.397 Z0.600 F4800.000 A792.638 (d: 82.1691)
G1 X11.160 Y-34.397 Z0.600 F4800.000 A795.294 (d: 44.935)
G1 X11.569 Y-34.397 Z0.600 F4800.000 A795.310 (d: 45.3435)
G1 X11.569 Y34.397 Z0.600 F4800.000 A797.966 (d: 82.3932)
G1 X11.977 Y34.397 Z0.600 F4800.000 A797.982 (d: 82.6188)
G1 X11.977 Y-34.397 Z0.600 F4800.000 A800.638 (d: 45.752)
G1 X12.386 Y-34.397 Z0.600 F4800.000 A800.654 (d: 46.1605)
G1 X12.386 Y34.397 Z0.600 F4800.000 A803.310 (d: 82.8457)
G1 X12.794 Y34.397 Z0.600 F4800.000 A803.326 (d: 83.074)
G1 X12.794 Y-34.397 Z0.600 F4800.000 A805.983 (d: 46.569)
G1 X13.203 Y-34.397 Z0.600 F4800.000 A805.998 (d: 46.9775)
G1 X13.203 Y34.397 Z0.600 F4800.000 A808.655 (d: 83.3037)
G1 X13.611 Y34.397 Z0.600 F4800.000 A808.671 (d: 83.5347)
G1 X13.611 Y-34.397 Z0.600 F4800.000 A811.327 (d: 47.386)
G1 X14.020 Y-34.397 Z0.600 F4800.000 A811.343 (d: 47.7945)
G1 X14.020 Y34.397 Z0.600 F4800.000 A813.999 (d: 83.7671)
G1 X14.428 Y34.397 Z0.600 F4800.000 A814.015 (d: 84.0009)
G1 X14.428 Y-34.397 Z0.600 F4800.000 A816.671 (d: 48.203)
G1 X14.837 Y-34.397 Z0.600 F4800.000 A816.687 (d: 48.6115)
G1 X14.837 Y34.397 Z0.600 F4800.000 A819.343 (d: 84.2359)
G1 X15.245 Y34.397 Z0.600 F4800.000 A819.359 (d: 84.4723)
G1 X15.245 Y-34.397 Z0.600 F4800.000 A822.016 (d: 49.02)
G1 X15.654 Y-34.397 Z0.600 F4800.000 A822.031 (d: 49.4285)
G1 X15.654 Y34.397 Z0.600 F4800.000 A824.688 (d: 84.71)
G1 X16.062 Y34.397 Z0.600 F4800.000 A824.704 (d: 84.949)
G1 X16.062 Y-34.397 Z0.600 F4800.000 A827.360 (d: 49.837)
G1 X16.471 Y-34.397 Z0.600 F4800.000 A827.376 (d: 50.2455)
G1 X16.471 Y34.397 Z0.600 F4800.000 A830.032 (d: 85.1893)
G1 X16.880 Y34.397 Z0.600 F4800.000 A830.048 (d: 85.4309)
G1 X16.880 Y-34.397 Z0.600 F4800.000 A832.704 (d: 50.654)
G1 X17.288 Y-34.397 Z0.600 F4800.000 A832.720 (d: 51.0625)
G1 X17.288 Y34.397 Z0.600 F4800.000 A835.376 (d: 85.6738)
G1 X17.696 Y34.397 Z0.600 F4800.000 A835.392 (d: 85.9179)
G1 X17.696 Y-34.397 Z0.600 F4800.000 A838.049 (d: 51.471)
G1 X18.105 Y-34.397 Z0.600 F4800.000 A838.064 (d: 51.8795)
G1 X18.105 Y34.397 Z0.600 F4800.000 A840.721 (d: 86.1632)
G1 X18.513 Y34.397 Z0.600 F4800.000 A840.737 (d: 86.4098)
G1 X18.513 Y-34.397 Z0.600 F4800.000 A843.393 (d: 52.288)
G1 X18.922 Y-34.397 Z0.600 F4800.000 A843.409 (d: 52.6965)
G1 X18.922 Y34.397 Z0.600 F4800.000 A846.065 (d: 86.6576)
G1 X19.330 Y34.397 Z0.600 F4800.000 A846.081 (d: 86.9066)
G1 X19.330 Y-34.397 Z0.600 F4800.000 A848.737 (d: 53.105)
G1 X19.739 Y-34.397 Z0.600 F4800.000 A848.753 (d: 53.5135)
G1 X19.739 Y34.397 Z0.600 F4800.000 A851.409 (d: 87.1568)
G1 X20.147 Y34.397 Z0.600 F4800.000 A851.425 (d: 87.4082)
G1 X20.147 Y-34.397 Z0.600 F4800.000 A854.082 (d: 53.922)
G1 X20.556 Y-34.397 Z0.600 F4800.000 A854.097 (d: 54.3305)
G1 X20.556 Y34.397 Z0.600 F4800.000 A856.754 (d: 87.6608)
G1 X20.964 Y34.397 Z0.600 F4800.000 A856.770 (d: 87.9146)
G1 X20.964 Y-34.397 Z0.600 F4800.000 A859.426 (d: 54.739)
G1 X21.373 Y-34.397 Z0.600 F4800.000 A859.442 (d: 55.1475)
G1 X21.373 Y34.397 Z0.600 F4800.000 A862.098 (d: 88.1695)
G1 X21.781 Y34.397 Z0.600 F4800.000 A862.114 (d: 88.4256)
G1 X21.781 Y-34.397 Z0.600 F4800.000 A864.770 (d: 55.556)
G1 X22.190 Y-34.397 Z0.600 F4800.000 A864.786 (d: 55.9645)
G1 X22.190 Y34.397 Z0.600 F4800.000 A867.442 (d: 88.6828)
G1 X22.598 Y34.397 Z0.600 F4800.000 A867.458 (d: 88.9412)
G1 X22.598 Y-34.397 Z0.600 F4800.000 A870.115 (d: 56.373)
G1 X23.007 Y-34.397 Z0.600 F4800.000 A870.130 (d: 56.7815)
G1 X23.007 Y34.397 Z0.600 F4800.000 A872.787 (d: 89.2006)
G1 X23.415 Y34.397 Z0.600 F4800.000 A872.802 (d: 89.4612)
G1 X23.415 Y-34.397 Z0.600 F4800.000 A875.459 (d: 57.19)
G1 X23.824 Y-34.397 Z0.600 F4800.000 A875.475 (d: 57.5985)
G1 X23.824 Y34.397 Z0.600 F4800.000 A878.131 (d: 89.7229)
G1 X24.232 Y34.397 Z0.600 F4800.000 A878.147 (d: 89.9857)
G1 X24.232 Y-34.397 Z0.600 F4800.000 A880.803 (d: 58.007)
G1 X24.641 Y-34.397 Z0.600 F4800.000 A880.819 (d: 58.4155)
G1 X24.641 Y34.397 Z0.600 F4800.000 A883.475 (d: 90.2496)
G1 X25.049 Y34.397 Z0.600 F4800.000 A883.491 (d: 90.5145)
G1 X25.049 Y-34.397 Z0.600 F4800.000 A886.148 (d: 58.824)
G1 X25.458 Y-34.397 Z0.600 F4800.000 A886.163 (d: 59.2325)
G1 X25.458 Y34.397 Z0.600 F4800.000 A888.820 (d: 90.7805)
G1 X25.866 Y34.397 Z0.600 F4800.000 A888.835 (d: 91.0476)
G1 X25.866 Y-34.397 Z0.600 F4800.000 A891.492 (d: 59.641)
G1 X26.275 Y-34.397 Z0.600 F4800.000 A891.508 (d: 60.0495)
G1 X26.275 Y34.397 Z0.600 F4800.000 A894.164 (d: 91.3157)
G1 X26.683 Y34.397 Z0.600 F4800.000 A894.180 (d: 91.5848)
G1 X26.683 Y-34.397 Z0.600 F4800.000 A896.836 (d: 60.458)
G1 X27.092 Y-34.397 Z0.600 F4800.000 A896.852 (d: 60.8665)
G1 X27.092 Y34.397 Z0.600 F4800.000 A899.508 (d: 91.855)
G1 X27.500 Y34.397 Z0.600 F4800.000 A899.524 (d: 92.1262)
G1 X27.500 Y-34.397 Z0.600 F4800.000 A902.181 (d: 61.275)
G1 X27.909 Y-34.397 Z0.600 F4800.000 A902.196 (d: 61.6835)
G1 X27.909 Y34.397 Z0.600 F4800.000 A904.853 (d: 92.3984)
G1 X28.317 Y34.397 Z0.600 F4800.000 A904.868 (d: 92.6716)
G1 X28.317 Y-34.397 Z0.600 F4800.000 A907.525 (d: 62.092)
G1 X28.726 Y-34.397 Z0.600 F4800.000 A907.541 (d: 62.5005)
G1 X28.726 Y34.397 Z0.600 F4800.000 A910.197 (d: 92.9458)
G1 X29.135 Y34.397 Z0.600 F4800.000 A910.213 (d: 93.221)
G1 X29.135 Y-34.397 Z0.600 F4800.000 A912.869 (d: 62.909)
G1 X29.543 Y-34.397 Z0.600 F4800.000 A912.885 (d: 63.3175)
G1 X29.543 Y34.397 Z0.600 F4800.000 A915.541 (d: 93.4972)
G1 X29.951 Y34.397 Z0.600 F4800.000 A915.557 (d: 93.7743)
G1 X29.951 Y-34.397 Z0.600 F4800.000 A918.213 (d: 63.726)
G1 X30.360 Y-34.397 Z0.600 F4800.000 A918.229 (d: 64.1345)
G1 X30.360 Y34.397 Z0.600 F4800.000 A920.886 (d: 94.0524)
G1 X30.768 Y34.397 Z0.600 F4800.000 A920.901 (d: 94.3314)
G1 X30.768 Y-34.397 Z0.600 F4800.000 A923.558 (d: 64.543)
G1 X31.177 Y-34.397 Z0.600 F4800.000 A923.574 (d: 64.9515)
G1 X31.177 Y34.397 Z0.600 F4800.000 A926.230 (d: 94.6114)
G1 X31.585 Y34.397 Z0.600 F4800.000 A926.246 (d: 94.8923)
G1 X31.585 Y-34.397 Z0.600 F4800.000 A928.902 (d: 65.36)
G1 X31.994 Y-34.397 Z0.600 F4800.000 A928.918 (d: 65.7685)
G1 X31.994 Y34.397 Z0.600 F4800.000 A931.574 (d: 95.1741)
G1 X32.402 Y34.397 Z0.600 F4800.000 A931.590 (d: 95.4568)
G1 X32.402 Y-34.397 Z0.600 F4800.000 A934.246 (d: 66.177)
G1 X32.811 Y-34.397 Z0.600 F4800.000 A934.262 (d: 66.5855)
G1 X32.811 Y34.397 Z0.600 F4800.000 A936.919 (d: 95.7405)
G1 X33.219 Y34.397 Z0.600 F4800.000 A936.934 (d: 96.0251)
G1 X33.219 Y-34.397 Z0.600 F4800.000 A939.591 (d: 66.994)
G1 X33.628 Y-34.397 Z0.600 F4800.000 A939.607 (d: 67.4025)
G1 X33.628 Y34.397 Z0.600 F4800.000 A942.263 (d: 96.3105)
G1 X34.036 Y34.397 Z0.600 F4800.000 A942.279 (d: 96.5968)
G1 X34.036 Y-34.397 Z0.600 F4800.000 A944.935 (d: 67.811)
G1 F798.000 A944.435 (snort)

(Slice 2, 1 Extruder)
G1 Z0.870 F500.000 (move Z)
(   Extruder 0)
( extruder 0 )
( GSWITCH T0 )
( TODO: add offset management to Gantry )

(inset 0/2 )
(  path 0/1, 5 points,  )
G1 X-34.784 Y-34.784 Z0.870 F6000.000 (move into position)
G1 F798.000 A944.935 (squirt)
G1 X-34.784 Y34.784 Z0.870 F4800.000 A947.621 (d: 69.568)
G1 X34.784 Y34.784 Z0.870 F4800.000 A950.308 (d: 98.384)
G1 X34.784 Y-34.784 Z0.870 F4800.000 A952.994 (d: 69.568)
G1 X-34.784 Y-34.784 Z0.870 F4800.000 A955.680 (d: 0)
G1 F798.000 A955.180 (snort)

(inset 1/2 )
(  path 0/1, 5 points,  )
G1 X-34.397 Y-34.397 Z0.870 F6000.000 (move into position)
G1 F798.000 A955.680 (squirt)
G1 X-34.397 Y34.397 Z0.870 F4800.000 A958.337 (d: 68.794)
G1 X34.397 Y34.397 Z0.870 F4800.000 A960.993 (d: 97.2894)
G1 X34.397 Y-34.397 Z0.870 F4800.000 A963.649 (d: 68.794)
G1 X-34.397 Y-34.397 Z0.870 F4800.000 A966.306 (d: 0)
G1 F798.000 A965.806 (snort)

(infills: 1)
(  path 0/1, 336 points,  )
G1 X-34.397 Y-33.775 Z0.870 F6000.000 (move into position)
G1 F798.000 A966.306 (squirt)
G1 X34.397 Y-33.775 Z0.870 F4800.000 A968.962 (d: 68.794)
G1 X34.397 Y-34.183 Z0.870 F4800.000 A968.978 (d: 68.7952)
G1 X-34.397 Y-34.183 Z0.870 F4800.000 A971.634 (d: 0.4085)
G1 X-34.397 Y-33.366 Z0.870 F4800.000 A971.666 (d: 0.4085)
G1 X34.397 Y-33.366 Z0.870 F4800.000 A974.322 (d: 68.7952)
G1 X34.397 Y-32.958 Z0.870 F4800.000 A974.338 (d: 68.7989)
G1 X-34.397 Y-32.958 Z0.870 F4800.000 A976.994 (d: 0.817)
G1 X-34.397 Y-32.549 Z0.870 F4800.000 A977.010 (d: 1.2255)
G1 X34.397 Y-32.549 Z0.870 F4800.000 A979.667 (d: 68.8049)
G1 X34.397 Y-32.141 Z0.870 F4800.000 A979.682 (d: 68.8134)
G1 X-34.397 Y-32.141 Z0.870 F4800.000 A982.339 (d: 1.634)
G1 X-34.397 Y-31.732 Z0.870 F4800.000 A982.355 (d: 2.0425)
G1 X34.397 Y-31.732 Z0.870 F4800.000 A985.011 (d: 68.8243)
G1 X34.397 Y-31.323 Z0.870 F4800.000 A985.027 (d: 68.8376)
G1 X-34.397 Y-31.323 Z0.870 F4800.000 A987.683 (d: 2.451)
G1 X-34.397 Y-30.915 Z0.870 F4800.000 A987.699 (d: 2.8595)
G1 X34.397 Y-30.915 Z0.870 F4800.000 A990.355 (d: 68.8534)
G1 X34.397 Y-30.506 Z0.870 F4800.000 A990.371 (d: 68.8716)
G1 X-34.397 Y-30.506 Z0.870 F4800.000 A993.027 (d: 3.268)
G1 X-34.397 Y-30.098 Z0.870 F4800.000 A993.043 (d: 3.6765)
G1 X34.397 Y-30.098 Z0.870 F4800.000 A995.700 (d: 68.8922)
G1 X34.397 Y-29.690 Z0.870 F4800.000 A995.715 (d: 68.9152)
G1 X-34.397 Y-29.690 Z0.870 F4800.000 A998.372 (d: 4.085)
G1 X-34.397 Y-29.281 Z0.870 F4800.000 A998.388 (d: 4.4935)
G1 X34.397 Y-29.281 Z0.870 F4800.000 A1001.044 (d: 68.9406)
G1 X34.397 Y-28.873 Z0.870 F4800.000 A1001.060 (d: 68.9684)
G1 X-34.397 Y-28.873 Z0.870 F4800.000 A1003.716 (d: 4.902)
G1 X-34.397 Y-28.464 Z0.870 F4800.000 A1003.732 (d: 5.3105)
G1 X34.397 Y-28.464 Z0.870 F4800.000 A1006.388 (d: 68.9987)
G1 X34.397 Y-28.056 Z0.870 F4800.000 A1006.404 (d: 69.0313)
G1 X-34.397 Y-28.056 Z0.870 F4800.000 A1009.060 (d: 5.719)
G1 X-34.397 Y-27.647 Z0.870 F4800.000 A1009.076 (d: 6.1275)
G1 X34.397 Y-27.647 Z0.870 F4800.000 A1011.733 (d: 69.0663)
G1 X34.397 Y-27.239 Z0.870 F4800.000 A1011.748 (d: 69.1038)
G1 X-34.397 Y-27.239 Z0.870 F4800.000 A1014.405 (d: 6.536)
G1 X-34.397 Y-26.830 Z0.870 F4800.000 A1014.421 (d: 6.9445)
G1 X34.397 Y-26.830 Z0.870 F4800.000 A1017.077 (d: 69.1436)
G1 X34.397 Y-26.422 Z0.870 F4800.000 A1017.093 (d: 69.1858)
G1 X-34.397 Y-26.422 Z0.870 F4800.000 A1019.749 (d: 7.353)
G1 X-34.397 Y-26.013 Z0.870 F4800.000 A1019.765 (d: 7.7615)
G1 X34.397 Y-26.013 Z0.870 F4800.000 A1022.421 (d: 69.2305)
G1 X34.397 Y-25.605 Z0.870 F4800.000 A1022.437 (d: 69.2774)
G1 X-34.397 Y-25.605 Z0.870 F4800.000 A1025.093 (d: 8.17)
G1 X-34.397 Y-25.196 Z0.870 F4800.000 A1025.109 (d: 8.5785)
G1 X34.397 Y-25.196 Z0.870 F4800.000 A1027.766 (d: 69.3268)
G1 X34.397 Y-24.788 Z0.870 F4800.000 A1027.781 (d: 69.3785)
G1 X-34.397 Y-24.788 Z0.870 F4800.000 A1030.438 (d: 8.987)
G1 X-34.397 Y-24.379 Z0.870 F4800.000 A1030.453 (d: 9.3955)
G1 X34.397 Y-24.379 Z0.870 F4800.000 A1033.110 (d: 69.4326)
G1 X34.397 Y-23.971 Z0.870 F4800.000 A1033.126 (d: 69.4891)
G1 X-34.397 Y-23.971 Z0.870 F4800.000 A1035.782 (d: 9.804)
G1 X-34.397 Y-23.562 Z0.870 F4800.000 A1035.798 (d: 10.2125)
G1 X34.397 Y-23.562 Z0.870 F4800.000 A1038.454 (d: 69.5479)
G1 X34.397 Y-23.154 Z0.870 F4800.000 A1038.470 (d: 69.6091)
G1 X-34.397 Y-23.154 Z0.870 F4800.000 A1041.126 (d: 10.621)
G1 X-34.397 Y-22.745 Z0.870 F4800.000 A1041.142 (d: 11.0295)
G1 X34.397 Y-22.745 Z0.870 F4800.000 A1043.799 (d: 69.6726)
G1 X34.397 Y-22.337 Z0.870 F4800.000 A1043.814 (d: 69.7384)
G1 X-34.397 Y-22.337 Z0.870 F4800.000 A1046.471 (d: 11.438)
G1 X-34.397 Y-21.928 Z0.870 F4800.000 A1046.486 (d: 11.8465)
G1 X34.397 Y-21.928 Z0.870 F4800.000 A1049.143 (d: 69.8065)
G1 X34.397 Y-21.520 Z0.870 F4800.000 A1049.159 (d: 69.877)
G1 X-34.397 Y-21.520 Z0.870 F4800.000 A1051.815 (d: 12.255)
G1 X-34.397 Y-21.111 Z0.870 F4800.000 A1051.831 (d: 12.6635)
G1 X34.397 Y-21.111 Z0.870 F4800.000 A1054.487 (d: 69.9498)
G1 X34.397 Y-20.703 Z0.870 F4800.000 A1054.503 (d: 70.0249)
G1 X-34.397 Y-20.703 Z0.870 F4800.000 A1057.159 (d: 13.072)
G1 X-34.397 Y-20.294 Z0.870 F4800.000 A1057.175 (d: 13.4805)
G1 X34.397 Y-20.294 Z0.870 F4800.000 A1059.832 (d: 70.1023)
G1 X34.397 Y-19.886 Z0.870 F4800.000 A1059.847 (d: 70.182)
G1 X-34.397 Y-19.886 Z0.870 F4800.000 A1062.504 (d: 13.889)
G1 X-34.397 Y-19.477 Z0.870 F4800.000 A1062.519 (d: 14.2975)
G1 X34.397 Y-19.477 Z0.870 F4800.000 A1065.176 (d: 70.264)
G1 X34.397 Y-19.069 Z0.870 F4800.000 A1065.192 (d: 70.3483)
G1 X-34.397 Y-19.069 Z0.870 F4800.000 A1067.848 (d: 14.706)
G1 X-34.397 Y-18.660 Z0.870 F4800.000 A1067.864 (d: 15.1145)
G1 X34.397 Y-18.660 Z0.870 F4800.000 A1070.520 (d: 70.4348)
G1 X34.397 Y-18.252 Z0.870 F4800.000 A1070.536 (d: 70.5236)
G1 X-34.397 Y-18.252 Z0.870 F4800.000 A1073.192 (d: 15.523)
G1 X-34.397 Y-17.843 Z0.870 F4800.000 A1073.208 (d: 15.9315)
G1 X34.397 Y-17.843 Z0.870 F4800.000 A1075.864 (d: 70.6146)
G1 X34.397 Y-17.434 Z0.870 F4800.000 A1075.880 (d: 70.7079)
G1 X-34.397 Y-17.434 Z0.870 F4800.000 A1078.537 (d: 16.34)
G1 X-34.397 Y-17.026 Z0.870 F4800.000 A1078.552 (d: 16.7485)
G1 X34.397 Y-17.026 Z0.870 F4800.000 A1081.209 (d: 70.8034)
G1 X34.397 Y-16.617 Z0.870 F4800.000 A1081.225 (d: 70.9012)
G1 X-34.397 Y-16.617 Z0.870 F4800.000 A1083.881 (d: 17.157)
G1 X-34.397 Y-16.209 Z0.870 F4800.000 A1083.897 (d: 17.5655)
G1 X34.397 Y-16.209 Z0.870 F4800.000 A1086.553 (d: 71.0011)
G1 X34.397 Y-15.800 Z0.870 F4800.000 A1086.569 (d: 71.1033)
G1 X-34.397 Y-15.800 Z0.870 F4800.000 A1089.225 (d: 17.974)
G1 X-34.397 Y-15.392 Z0.870 F4800.000 A1089.241 (d: 18.3825)
G1 X34.397 Y-15.392 Z0.870 F4800.000 A1091.897 (d: 71.2077)
G1 X34.397 Y-14.984 Z0.870 F4800.000 A1091.913 (d: 71.3142)
G1 X-34.397 Y-14.984 Z0.870 F4800.000 A1094.570 (d: 18.791)
G1 X-34.397 Y-14.575 Z0.870 F4800.000 A1094.585 (d: 19.1995)
G1 X34.397 Y-14.575 Z0.870 F4800.000 A1097.242 (d: 71.4229)
G1 X34.397 Y-14.167 Z0.870 F4800.000 A1097.258 (d: 71.5338)
G1 X-34.397 Y-14.167 Z0.870 F4800.000 A1099.914 (d: 19.608)
G1 X-34.397 Y-13.758 Z0.870 F4800.000 A1099.930 (d: 20.0165)
G1 X34.397 Y-13.758 Z0.870 F4800.000 A1102.586 (d: 71.6469)
G1 X34.397 Y-13.350 Z0.870 F4800.000 A1102.602 (d: 71.7621)
G1 X-34.397 Y-13.350 Z0.870 F4800.000 A1105.258 (d: 20.425)
G1 X-34.397 Y-12.941 Z0.870 F4800.000 A1105.274 (d: 20.8335)
G1 X34.397 Y-12.941 Z0.870 F4800.000 A1107.930 (d: 71.8794)
G1 X34.397 Y-12.533 Z0.870 F4800.000 A1107.946 (d: 71.9989)
G1 X-34.397 Y-12.533 Z0.870 F4800.000 A1110.603 (d: 21.242)
G1 X-34.397 Y-12.124 Z0.870 F4800.000 A1110.618 (d: 21.6505)
G1 X34.397 Y-12.124 Z0.870 F4800.000 A1113.275 (d: 72.1204)
G1 X34.397 Y-11.716 Z0.870 F4800.000 A1113.291 (d: 72.2441)
G1 X-34.397 Y-11.716 Z0.870 F4800.000 A1115.947 (d: 22.059)
G1 X-34.397 Y-11.307 Z0.870 F4800.000 A1115.963 (d: 22.4675)
G1 X34.397 Y-11.307 Z0.870 F4800.000 A1118.619 (d: 72.3699)
G1 X34.397 Y-10.899 Z0.870 F4800.000 A1118.635 (d: 72.4978)
G1 X-34.397 Y-10.899 Z0.870 F4800.000 A1121.291 (d: 22.876)
G1 X-34.397 Y-10.490 Z0.870 F4800.000 A1121.307 (d: 23.2845)
G1 X34.397 Y-10.490 Z0.870 F4800.000 A1123.963 (d: 72.6277)
G1 X34.397 Y-10.082 Z0.870 F4800.000 A1123.979 (d: 72.7597)
G1 X-34.397 Y-10.082 Z0.870 F4800.000 A1126.636 (d: 23.693)
G1 X-34.397 Y-9.673 Z0.870 F4800.000 A1126.651 (d: 24.1015)
G1 X34.397 Y-9.673 Z0.870 F4800.000 A1129.308 (d: 72.8937)
G1 X34.397 Y-9.265 Z0.870 F4800.000 A1129.324 (d: 73.0298)
G1 X-34.397 Y-9.265 Z0.870 F4800.000 A1131.980 (d: 24.51)
G1 X-34.397 Y-8.856 Z0.870 F4800.000 A1131.996 (d: 24.9185)
G1 X34.397 Y-8.856 Z0.870 F4800.000 A1134.652 (d: 73.1679)
G1 X34.397 Y-8.448 Z0.870 F4800.000 A1134.668 (d: 73.3081)
G1 X-34.397 Y-8.448 Z0.870 F4800.000 A1137.324 (d: 25.327)
G1 X-34.397 Y-8.039 Z0.870 F4800.000 A1137.340 (d: 25.7355)
G1 X34.397 Y-8.039 Z0.870 F4800.000 A1139.996 (d: 73.4502)
G1 X34.397 Y-7.631 Z0.870 F4800.000 A1140.012 (d: 73.5943)
G1 X-34.397 Y-7.631 Z0.870 F4800.000 A1142.669 (d: 26.144)
G1 X-34.397 Y-7.222 Z0.870 F4800.000 A1142.684 (d: 26.5525)
G1 X34.397 Y-7.222 Z0.870 F4800.000 A1145.341 (d: 73.7404)
G1 X34.397 Y-6.814 Z0.870 F4800.000 A1145.356 (d: 73.8885)
G1 X-34.397 Y-6.814 Z0.870 F4800.000 A1148.013 (d: 26.961)
G1 X-34.397 Y-6.405 Z0.870 F4800.000 A1148.029 (d: 27.3695)
G1 X34.397 Y-6.405 Z0.870 F4800.000 A1150.685 (d: 74.0385)
G1 X34.397 Y-5.997 Z0.870 F4800.000 A1150.701 (d: 74.1905)
G1 X-34.397 Y-5.997 Z0.870 F4800.000 A1153.357 (d: 27.778)
G1 X-34.397 Y-5.588 Z0.870 F4800.000 A1153.373 (d: 28.1865)
G1 X34.397 Y-5.588 Z0.870 F4800.000 A1156.029 (d: 74.3444)
G1 X34.397 Y-5.180 Z0.870 F4800.000 A1156.045 (d: 74.5003)
G1 X-34.397 Y-5.180 Z0.870 F4800.000 A1158.702 (d: 28.595)
G1 X-34.397 Y-4.771 Z0.870 F4800.000 A1158.717 (d: 29.0035)
G1 X34.397 Y-4.771 Z0.870 F4800.000 A1161.374 (d: 74.658)
G1 X34.397 Y-4.363 Z0.870 F4800.000 A1161.389 (d: 74.8176)
G1 X-34.397 Y-4.363 Z0.870 F4800.000 A1164.046 (d: 29.412)
G1 X-34.397 Y-3.954 Z0.870 F4800.000 A1164.062 (d: 29.8205)
G1 X34.397 Y-3.954 Z0.870 F4800.000 A1166.718 (d: 74.9792)
G1 X34.397 Y-3.546 Z0.870 F4800.000 A1166.734 (d: 75.1426)
G1 X-34.397 Y-3.546 Z0.870 F4800.000 A1169.390 (d: 30.229)
G1 X-34.397 Y-3.137 Z0.870 F4800.000 A1169.406 (d: 30.6375)
G1 X34.397 Y-3.137 Z0.870 F4800.000 A1172.062 (d: 75.3078)
G1 X34.397 Y-2.729 Z0.870 F4800.000 A1172.078 (d: 75.475)
G1 X-34.397 Y-2.729 Z0.870 F4800.000 A1174.735 (d: 31.046)
G1 X-34.397 Y-2.320 Z0.870 F4800.000 A1174.750 (d: 31.4545)
G1 X34.397 Y-2.320 Z0.870 F4800.000 A1177.407 (d: 75.6439)
G1 X34.397 Y-1.912 Z0.870 F4800.000 A1177.422 (d: 75.8147)
G1 X-34.397 Y-1.912 Z0.870 F4800.000 A1180.079 (d: 31.863)
G1 X-34.397 Y-1.503 Z0.870 F4800.000 A1180.095 (d: 32.2715)
G1 X34.397 Y-1.503 Z0.870 F4800.000 A1182.751 (d: 75.9873)
G1 X34.397 Y-1.095 Z0.870 F4800.000 A1182.767 (d: 76.1616)
G1 X-34.397 Y-1.095 Z0.870 F4800.000 A1185.423 (d: 32.68)
G1 X-34.397 Y-0.686 Z0.870 F4800.000 A1185.439 (d: 33.0885)
G1 X34.397 Y-0.686 Z0.870 F4800.000 A1188.095 (d: 76.3378)
G1 X34.397 Y-0.278 Z0.870 F4800.000 A1188.111 (d: 76.5158)
G1 X-34.397 Y-0.278 Z0.870 F4800.000 A1190.767 (d: 33.497)
G1 X-34.397 Y0.131 Z0.870 F4800.000 A1190.783 (d: 33.9055)
G1 X34.397 Y0.131 Z0.870 F4800.000 A1193.440 (d: 76.6955)
G1 X34.397 Y0.539 Z0.870 F4800.000 A1193.455 (d: 76.8769)
G1 X-34.397 Y0.539 Z0.870 F4800.000 A1196.112 (d: 34.314)
G1 X-34.397 Y0.948 Z0.870 F4800.000 A1196.128 (d: 34.7225)
G1 X34.397 Y0.948 Z0.870 F4800.000 A1198.784 (d: 77.0601)
G1 X34.397 Y1.356 Z0.870 F4800.000 A1198.800 (d: 77.2451)
G1 X-34.397 Y1.356 Z0.870 F4800.000 A1201.456 (d: 35.131)
G1 X-34.397 Y1.765 Z0.870 F4800.000 A1201.472 (d: 35.5395)
G1 X34.397 Y1.765 Z0.870 F4800.000 A1204.128 (d: 77.4317)
G1 X34.397 Y2.173 Z0.870 F4800.000 A1204.144 (d: 77.6201)
G1 X-34.397 Y2.173 Z0.870 F4800.000 A1206.800 (d: 35.948)
G1 X-34.397 Y2.582 Z0.870 F4800.000 A1206.816 (d: 36.3565)
G1 X34.397 Y2.582 Z0.870 F4800.000 A1209.473 (d: 77.8101)
G1 X34.397 Y2.990 Z0.870 F4800.000 A1209.488 (d: 78.0018)
G1 X-34.397 Y2.990 Z0.870 F4800.000 A1212.145 (d: 36.765)
G1 X-34.397 Y3.399 Z0.870 F4800.000 A1212.161 (d: 37.1735)
G1 X34.397 Y3.399 Z0.870 F4800.000 A1214.817 (d: 78.1952)
G1 X34.397 Y3.807 Z0.870 F4800.000 A1214.833 (d: 78.3902)
G1 X-34.397 Y3.807 Z0.870 F4800.000 A1217.489 (d: 37.582)
G1 X-34.397 Y4.216 Z0.870 F4800.000 A1217.505 (d: 37.9905)
G1 X34.397 Y4.216 Z0.870 F4800.000 A1220.161 (d: 78.5868)
G1 X34.397 Y4.624 Z0.870 F4800.000 A1220.177 (d: 78.7851)
G1 X-34.397 Y4.624 Z0.870 F4800.000 A1222.833 (d: 38.399)
G1 X-34.397 Y5.033 Z0.870 F4800.000 A1222.849 (d: 38.8075)
G1 X34.397 Y5.033 Z0.870 F4800.000 A1225.506 (d: 78.985)
G1 X34.397 Y5.441 Z0.870 F4800.000 A1225.521 (d: 79.1865)
G1 X-34.397 Y5.441 Z0.870 F4800.000 A1228.178 (d: 39.216)
G1 X-34.397 Y5.850 Z0.870 F4800.000 A1228.194 (d: 39.6245)
G1 X34.397 Y5.850 Z0.870 F4800.000 A1230.850 (d: 79.3896)
G1 X34.397 Y6.258 Z0.870 F4800.000 A1230.866 (d: 79.5943)
G1 X-34.397 Y6.258 Z0.870 F4800.000 A1233.522 (d: 40.033)
G1 X-34.397 Y6.667 Z0.870 F4800.000 A1233.538 (d: 40.4415)
G1 X34.397 Y6.667 Z0.870 F4800.000 A1236.194 (d: 79.8006)
G1 X34.397 Y7.075 Z0.870 F4800.000 A1236.210 (d: 80.0084)
G1 X-34.397 Y7.075 Z0.870 F4800.000 A1238.866 (d: 40.85)
G1 X-34.397 Y7.484 Z0.870 F4800.000 A1238.882 (d: 41.2585)
G1 X34.397 Y7.484 Z0.870 F4800.000 A1241.539 (d: 80.2177)
G1 X34.397 Y7.892 Z0.870 F4800.000 A1241.554 (d: 80.4286)
G1 X-34.397 Y7.892 Z0.870 F4800.000 A1244.211 (d: 41.667)
G1 X-34.397 Y8.301 Z0.870 F4800.000 A1244.227 (d: 42.0755)
G1 X34.397 Y8.301 Z0.870 F4800.000 A1246.883 (d: 80.6409)
G1 X34.397 Y8.709 Z0.870 F4800.000 A1246.899 (d: 80.8548)
G1 X-34.397 Y8.709 Z0.870 F4800.000 A1249.555 (d: 42.484)
G1 X-34.397 Y9.118 Z0.870 F4800.000 A1249.571 (d: 42.8925)
G1 X34.397 Y9.118 Z0.870 F4800.000 A1252.227 (d: 81.0702)
G1 X34.397 Y9.526 Z0.870 F4800.000 A1252.243 (d: 81.2871)
G1 X-34.397 Y9.526 Z0.870 F4800.000 A1254.899 (d: 43.301)
G1 X-34.397 Y9.935 Z0.870 F4800.000 A1254.915 (d: 43.7095)
G1 X34.397 Y9.935 Z0.870 F4800.000 A1257.572 (d: 81.5054)
G1 X34.397 Y10.343 Z0.870 F4800.000 A1257.587 (d: 81.7252)
G1 X-34.397 Y10.343 Z0.870 F4800.000 A1260.244 (d: 44.118)
G1 X-34.397 Y10.752 Z0.870 F4800.000 A1260.260 (d: 44.5265)
G1 X34.397 Y10.752 Z0.870 F4800.000 A1262.916 (d: 81.9465)
G1 X34.397 Y11.160 Z0.870 F4800.000 A1262.932 (d: 82.1691)
G1 X-34.397 Y11.160 Z0.870 F4800.000 A1265.588 (d: 44.935)
G1 X-34.397 Y11.569 Z0.870 F4800.000 A1265.604 (d: 45.3435)
G1 X34.397 Y11.569 Z0.870 F4800.000 A1268.260 (d: 82.3932)
G1 X34.397 Y11.977 Z0.870 F4800.000 A1268.276 (d: 82.6188)
G1 X-34.397 Y11.977 Z0.870 F4800.000 A1270.932 (d: 45.752)
G1 X-34.397 Y12.386 Z0.870 F4800.000 A1270.948 (d: 46.1605)
G1 X34.397 Y12.386 Z0.870 F4800.000 A1273.605 (d: 82.8457)
G1 X34.397 Y12.794 Z0.870 F4800.000 A1273.620 (d: 83.074)
G1 X-34.397 Y12.794 Z0.870 F4800.000 A1276.277 (d: 46.569)
G1 X-34.397 Y13.203 Z0.870 F4800.000 A1276.292 (d: 46.9775)
G1 X34.397 Y13.203 Z0.870 F4800.000 A1278.949 (d: 83.3037)
G1 X34.397 Y13.611 Z0.870 F4800.000 A1278.965 (d: 83.5347)
G1 X-34.397 Y13.611 Z0.870 F4800.000 A1281.621 (d: 47.386)
G1 X-34.397 Y14.020 Z0.870 F4800.000 A1281.637 (d: 47.7945)
G1 X34.397 Y14.020 Z0.870 F4800.000 A1284.293 (d: 83.7671)
G1 X34.397 Y14.428 Z0.870 F4800.000 A1284.309 (d: 84.0009)
G1 X-34.397 Y14.428 Z0.870 F4800.000 A1286.965 (d: 48.203)
G1 X-34.397 Y14.837 Z0.870 F4800.000 A1286.981 (d: 48.6115)
G1 X34.397 Y14.837 Z0.870 F4800.000 A1289.638 (d: 84.2359)
G1 X34.397 Y15.245 Z0.870 F4800.000 A1289.653 (d: 84.4723)
G1 X-34.397 Y15.245 Z0.870 F4800.000 A1292.310 (d: 49.02)
G1 X-34.397 Y15.654 Z0.870 F4800.000 A1292.325 (d: 49.4285)
G1 X34.397 Y15.654 Z0.870 F4800.000 A1294.982 (d: 84.71)
G1 X34.397 Y16.062 Z0.870 F4800.000 A1294.998 (d: 84.949)
G1 X-34.397 Y16.062 Z0.870 F4800.000 A1297.654 (d: 49.837)
G1 X-34.397 Y16.471 Z0.870 F4800.000 A1297.670 (d: 50.2455)
G1 X34.397 Y16.471 Z0.870 F4800.000 A1300.326 (d: 85.1893)
G1 X34.397 Y16.880 Z0.870 F4800.000 A1300.342 (d: 85.4309)
G1 X-34.397 Y16.880 Z0.870 F4800.000 A1302.998 (d: 50.654)
G1 X-34.397 Y17.288 Z0.870 F4800.000 A1303.014 (d: 51.0625)
G1 X34.397 Y17.288 Z0.870 F4800.000 A1305.671 (d: 85.6738)
G1 X34.397 Y17.696 Z0.870 F4800.000 A1305.686 (d: 85.9179)
G1 X-34.397 Y17.696 Z0.870 F4800.000 A1308.343 (d: 51.471)
G1 X-34.397 Y18.105 Z0.870 F4800.000 A1308.358 (d: 51.8795)
G1 X34.397 Y18.105 Z0.870 F4800.000 A1311.015 (d: 86.1632)
G1 X34.397 Y18.513 Z0.870 F4800.000 A1311.031 (d: 86.4098)
G1 X-34.397 Y18.513 Z0.870 F4800.000 A1313.687 (d: 52.288)
G1 X-34.397 Y18.922 Z0.870 F4800.000 A1313.703 (d: 52.6965)
G1 X34.397 Y18.922 Z0.870 F4800.000 A1316.359 (d: 86.6576)
G1 X34.397 Y19.330 Z0.870 F4800.000 A1316.375 (d: 86.9066)
G1 X-34.397 Y19.330 Z0.870 F4800.000 A1319.031 (d: 53.105)
G1 X-34.397 Y19.739 Z0.870 F4800.000 A1319.047 (d: 53.5135)
G1 X34.397 Y19.739 Z0.870 F4800.000 A1321.703 (d: 87.1568)
G1 X34.397 Y20.147 Z0.870 F4800.000 A1321.719 (d: 87.4082)
G1 X-34.397 Y20.147 Z0.870 F4800.000 A1324.376 (d: 53.922)
G1 X-34.397 Y20.556 Z0.870 F4800.000 A1324.391 (d: 54.3305)
G1 X34.397 Y20.556 Z0.870 F4800.000 A1327.048 (d: 87.6608)
G1 X34.397 Y20.964 Z0.870 F4800.000 A1327.064 (d: 87.9146)
G1 X-34.397 Y20.964 Z0.870 F4800.000 A1329.720 (d: 54.739)
G1 X-34.397 Y21.373 Z0.870 F4800.000 A1329.736 (d: 55.1475)
G1 X34.397 Y21.373 Z0.870 F4800.000 A1332.392 (d: 88.1695)
G1 X34.397 Y21.781 Z0.870 F4800.000 A1332.408 (d: 88.4256)
G1 X-34.397 Y21.781 Z0.870 F4800.000 A1335.064 (d: 55.556)
G1 X-34.397 Y22.190 Z0.870 F4800.000 A1335.080 (d: 55.9645)
G1 X34.397 Y22.190 Z0.870 F4800.000 A1337.736 (d: 88.6828)
G1 X34.397 Y22.598 Z0.870 F4800.000 A1337.752 (d: 88.9412)
G1 X-34.397 Y22.598 Z0.870 F4800.000 A1340.409 (d: 56.373)
G1 X-34.397 Y23.007 Z0.870 F4800.000 A1340.424 (d: 56.7815)
G1 X34.397 Y23.007 Z0.870 F4800.000 A1343.081 (d: 89.2006)
G1 X34.397 Y23.415 Z0.870 F4800.000 A1343.097 (d: 89.4612)
G1 X-34.397 Y23.415 Z0.870 F4800.000 A1345.753 (d: 57.19)
G1 X-34.397 Y23.824 Z0.870 F4800.000 A1345.769 (d: 57.5985)
G1 X34.397 Y23.824 Z0.870 F4800.000 A1348.425 (d: 89.7229)
G1 X34.397 Y24.232 Z0.870 F4800.000 A1348.441 (d: 89.9857)
G1 X-34.397 Y24.232 Z0.870 F4800.000 A1351.097 (d: 58.007)
G1 X-34.397 Y24.641 Z0.870 F4800.000 A1351.113 (d: 58.4155)
G1 X34.397 Y24.641 Z0.870 F4800.000 A1353.769 (d: 90.2496)
G1 X34.397 Y25.049 Z0.870 F4800.000 A1353.785 (d: 90.5145)
G1 X-34.397 Y25.049 Z0.870 F4800.000 A1356.442 (d: 58.824)
G1 X-34.397 Y25.458 Z0.870 F4800.000 A1356.457 (d: 59.2325)
G1 X34.397 Y25.458 Z0.870 F4800.000 A1359.114 (d: 90.7805)
G1 X34.397 Y25.866 Z0.870 F4800.000 A1359.130 (d: 91.0476)
G1 X-34.397 Y25.866 Z0.870 F4800.000 A1361.786 (d: 59.641)
G1 X-34.397 Y26.275 Z0.870 F4800.000 A1361.802 (d: 60.0495)
G1 X34.397 Y26.275 Z0.870 F4800.000 A1364.458 (d: 91.3157)
G1 X34.397 Y26.683 Z0.870 F4800.000 A1364.474 (d: 91.5848)
G1 X-34.397 Y26.683 Z0.870 F4800.000 A1367.130 (d: 60.458)
G1 X-34.397 Y27.092 Z0.870 F4800.000 A1367.146 (d: 60.8665)
G1 X34.397 Y27.092 Z0.870 F4800.000 A1369.802 (d: 91.855)
G1 X34.397 Y27.500 Z0.870 F4800.000 A1369.818 (d: 92.1262)
G1 X-34.397 Y27.500 Z0.870 F4800.000 A1372.475 (d: 61.275)
G1 X-34.397 Y27.909 Z0.870 F4800.000 A1372.490 (d: 61.6835)
G1 X34.397 Y27.909 Z0.870 F4800.000 A1375.147 (d: 92.3984)
G1 X34.397 Y28.317 Z0.870 F4800.000 A1375.163 (d: 92.6716)
G1 X-34.397 Y28.317 Z0.870 F4800.000 A1377.819 (d: 62.092)
G1 X-34.397 Y28.726 Z0.870 F4800.000 A1377.835 (d: 62.5005)
G1 X34.397 Y28.726 Z0.870 F4800.000 A1380.491 (d: 92.9458)
G1 X34.397 Y29.135 Z0.870 F4800.000 A1380.507 (d: 93.221)
G1 X-34.397 Y29.135 Z0.870 F4800.000 A1383.163 (d: 62.909)
G1 X-34.397 Y29.543 Z0.870 F4800.000 A1383.179 (d: 63.3175)
G1 X34.397 Y29.543 Z0.870 F4800.000 A1385.835 (d: 93.4972)
G1 X34.397 Y29.951 Z0.870 F4800.000 A1385.851 (d: 93.7743)
G1 X-34.397 Y29.951 Z0.870 F4800.000 A1388.508 (d: 63.726)
G1 X-34.397 Y30.360 Z0.870 F4800.000 A1388.523 (d: 64.1345)
G1 X34.397 Y30.360 Z0.870 F4800.000 A1391.180 (d: 94.0524)
G1 X34.397 Y30.768 Z0.870 F4800.000 A1391.195 (d: 94.3314)
G1 X-34.397 Y30.768 Z0.870 F4800.000 A1393.852 (d: 64.543)
G1 X-34.397 Y31.177 Z0.870 F4800.000 A1393.868 (d: 64.9515)
G1 X34.397 Y31.177 Z0.870 F4800.000 A1396.524 (d: 94.6114)
G1 X34.397 Y31.585 Z0.870 F4800.000 A1396.540 (d: 94.8923)
G1 X-34.397 Y31.585 Z0.870 F4800.000 A1399.196 (d: 65.36)
G1 X-34.397 Y31.994 Z0.870 F4800.000 A1399.212 (d: 65.7685)
G1 X34.397 Y31.994 Z0.870 F4800.000 A1401.868 (d: 95.1741)
G1 X34.397 Y32.402 Z0.870 F4800.000 A1401.884 (d: 95.4568)
G1 X-34.397 Y32.402 Z0.870 F4800.000 A1404.541 (d: 66.177)
G1 X-34.397 Y32.811 Z0.870 F4800.000 A1404.556 (d: 66.5855)
G1 X34.397 Y32.811 Z0.870 F4800.000 A1407.213 (d: 95.7405)
G1 X34.397 Y33.219 Z0.870 F4800.000 A1407.228 (d: 96.0251)
G1 X-34.397 Y33.219 Z0.870 F4800.000 A1409.885 (d: 66.994)
G1 X-34.397 Y33.628 Z0.870 F4800.000 A1409.901 (d: 67.4025)
G1 X34.397 Y33.628 Z0.870 F4800.000 A1412.557 (d: 96.3105)
G1 X34.397 Y34.036 Z0.870 F4800.000 A1412.573 (d: 96.5968)
G1 X-34.397 Y34.036 Z0.870 F4800.000 A1415.229 (d: 67.811)
G1 F798.000 A1414.729 (snort)

(Slice 3, 1 Extruder)
G1 Z1.140 F500.000 (move Z)
(   Extruder 0)
( extruder 0 )
( GSWITCH T0 )
( TODO: add offset management to Gantry )

(inset 0/2 )
(  path 0/1, 5 points,  )
G1 X-34.784 Y-34.784 Z1.140 F6000.000 (move into position)
G1 F798.000 A1415.229 (squirt)
G1 X-34.784 Y34.784 Z1.140 F4800.000 A1417.915 (d: 69.568)
G1 X34.784 Y34.784 Z1.140 F4800.000 A1420.602 (d: 98.384)
G1 X34.784 Y-34.784 Z1.140 F4800.000 A1423.288 (d: 69.568)
G1 X-34.784 Y-34.784 Z1.140 F4800.000 A1425.974 (d: 0)
G1 F798.000 A1425.474 (snort)

(inset 1/2 )
(  path 0/1, 5 points,  )
G1 X-34.397 Y-34.397 Z1.140 F6000.000 (move into position)
G1 F798.000 A1425.974 (squirt)
G1 X-34.397 Y34.397 Z1.140 F4800.000 A1428.631 (d: 68.794)
G1 X34.397 Y34.397 Z1.140 F4800.000 A1431.287 (d: 97.2894)
G1 X34.397 Y-34.397 Z1.140 F4800.000 A1433.943 (d: 68.794)
G1 X-34.397 Y-34.397 Z1.140 F4800.000 A1436.600 (d: 0)
G1 F798.000 A1436.100 (snort)

(infills: 1)
(  path 0/1, 336 points,  )
G1 X-33.775 Y-34.397 Z1.140 F6000.000 (move into position)
G1 F798.000 A1436.600 (squirt)
G1 X-33.775 Y34.397 Z1.140 F4800.000 A1439.256 (d: 68.794)
G1 X-34.183 Y34.397 Z1.140 F4800.000 A1439.272 (d: 68.7952)
G1 X-34.183 Y-34.397 Z1.140 F4800.000 A1441.928 (d: 0.4085)
G1 X-33.366 Y-34.397 Z1.140 F4800.000 A1441.960 (d: 0.4085)
G1 X-33.366 Y34.397 Z1.140 F4800.000 A1444.616 (d: 68.7952)
G1 X-32.958 Y34.397 Z1.140 F4800.000 A1444.632 (d: 68.7989)
G1 X-32.958 Y-34.397 Z1.140 F4800.000 A1447.289 (d: 0.817)
G1 X-32.549 Y-34.397 Z1.140 F4800.000 A1447.304 (d: 1.2255)
G1 X-32.549 Y34.397 Z1.140 F4800.000 A1449.961 (d: 68.8049)
G1 X-32.141 Y34.397 Z1.140 F4800.000 A1449.976 (d: 68.8134)
G1 X-32.141 Y-34.397 Z1.140 F4800.000 A1452.633 (d: 1.634)
G1 X-31.732 Y-34.397 Z1.140 F4800.000 A1452.649 (d: 2.0425)
G1 X-31.732 Y34.397 Z1.140 F4800.000 A1455.305 (d: 68.8243)
G1 X-31.323 Y34.397 Z1.140 F4800.000 A1455.321 (d: 68.8376)
G1 X-31.323 Y-34.397 Z1.140 F4800.000 A1457.977 (d: 2.451)
G1 X-30.915 Y-34.397 Z1.140 F4800.000 A1457.993 (d: 2.8595)
G1 X-30.915 Y34.397 Z1.140 F4800.000 A1460.649 (d: 68.8534)
G1 X-30.506 Y34.397 Z1.140 F4800.000 A1460.665 (d: 68.8716)
G1 X-30.506 Y-34.397 Z1.140 F4800.000 A1463.321 (d: 3.268)
G1 X-30.098 Y-34.397 Z1.140 F4800.000 A1463.337 (d: 3.6765)
G1 X-30.098 Y34.397 Z1.140 F4800.000 A1465.994 (d: 68.8922)
G1 X-29.690 Y34.397 Z1.140 F4800.000 A1466.009 (d: 68.9152)
G1 X-29.690 Y-34.397 Z1.140 F4800.000 A1468.666 (d: 4.085)
G1 X-29.281 Y-34.397 Z1.140 F4800.000 A1468.682 (d: 4.4935)
G1 X-29.281 Y34.397 Z1.140 F4800.000 A1471.338 (d: 68.9406)
G1 X-28.873 Y34.397 Z1.140 F4800.000 A1471.354 (d: 68.9684)
G1 X-28.873 Y-34.397 Z1.140 F4800.000 A1474.010 (d: 4.902)
G1 X-28.464 Y-34.397 Z1.140 F4800.000 A1474.026 (d: 5.3105)
G1 X-28.464 Y34.397 Z1.140 F4800.000 A1476.682 (d: 68.9987)
G1 X-28.056 Y34.397 Z1.140 F4800.000 A1476.698 (d: 69.0313)
G1 X-28.056 Y-34.397 Z1.140 F4800.000 A1479.354 (d: 5.719)
G1 X-27.647 Y-34.397 Z1.140 F4800.000 A1479.370 (d: 6.1275)
G1 X-27.647 Y34.397 Z1.140 F4800.000 A1482.027 (d: 69.0663)
G1 X-27.239 Y34.397 Z1.140 F4800.000 A1482.042 (d: 69.1038)
G1 X-27.239 Y-34.397 Z1.140 F4800.000 A1484.699 (d: 6.536)
G1 X-26.830 Y-34.397 Z1.140 F4800.000 A1484.715 (d: 6.9445)
G1 X-26.830 Y34.397 Z1.140 F4800.000 A1487.371 (d: 69.1436)
G1 X-26.422 Y34.397 Z1.140 F4800.000 A1487.387 (d: 69.1858)
G1 X-26.422 Y-34.397 Z1.140 F4800.000 A1490.043 (d: 7.353)
G1 X-26.013 Y-34.397 Z1.140 F4800.000 A1490.059 (d: 7.7615)
G1 X-26.013 Y34.397 Z1.140 F4800.000 A1492.715 (d: 69.2305)
G1 X-25.605 Y34.397 Z1.140 F4800.000 A1492.731 (d: 69.2774)
G1 X-25.605 Y-34.397 Z1.140 F4800.000 A1495.387 (d: 8.17)
G1 X-25.196 Y-34.397 Z1.140 F4800.000 A1495.403 (d: 8.5785)
G1 X-25.196 Y34.397 Z1.140 F4800.000 A1498.060 (d: 69.3268)
G1 X-24.788 Y34.397 Z1.140 F4800.000 A1498.075 (d: 69.3785)
G1 X-24.788 Y-34.397 Z1.140 F4800.000 A1500.732 (d: 8.987)
G1 X-24.379 Y-34.397 Z1.140 F4800.000 A1500.748 (d: 9.3955)
G1 X-24.379 Y34.397 Z1.140 F4800.000 A1503.404 (d: 69.4326)
G1 X-23.971 Y34.397 Z1.140 F4800.000 A1503.420 (d: 69.4891)
G1 X-23.971 Y-34.397 Z1.140 F4800.000 A1506.076 (d: 9.804)
G1 X-23.562 Y-34.397 Z1.140 F4800.000 A1506.092 (d: 10.2125)
G1 X-23.562 Y34.397 Z1.140 F4800.000 A1508.748 (d: 69.5479)
G1 X-23.154 Y34.397 Z1.140 F4800.000 A1508.764 (d: 69.6091)
G1 X-23.154 Y-34.397 Z1.140 F4800.000 A1511.420 (d: 10.621)
G1 X-22.745 Y-34.397 Z1.140 F4800.000 A1511.436 (d: 11.0295)
G1 X-22.745 Y34.397 Z1.140 F4800.000 A1514.093 (d: 69.6726)
G1 X-22.337 Y34.397 Z1.140 F4800.000 A1514.108 (d: 69.7384)
G1 X-22.337 Y-34.397 Z1.140 F4800.000 A1516.765 (d: 11.438)
G1 X-21.928 Y-34.397 Z1.140 F4800.000 A1516.781 (d: 11.8465)
G1 X-21.928 Y34.397 Z1.140 F4800.000 A1519.437 (d: 69.8065)
G1 X-21.520 Y34.397 Z1.140 F4800.000 A1519.453 (d: 69.877)
G1 X-21.520 Y-34.397 Z1.140 F4800.000 A1522.109 (d: 12.255)
G1 X-21.111 Y-34.397 Z1.140 F4800.000 A1522.125 (d: 12.6635)
G1 X-21.111 Y34.397 Z1.140 F4800.000 A1524.781 (d: 69.9498)
G1 X-20.703 Y34.397 Z1.140 F4800.000 A1524.797 (d: 70.0249)
G1 X-20.703 Y-34.397 Z1.140 F4800.000 A1527.453 (d: 13.072)
G1 X-20.294 Y-34.397 Z1.140 F4800.000 A1527.469 (d: 13.4805)
G1 X-20.294 Y34.397 Z1.140 F4800.000 A1530.126 (d: 70.1023)
G1 X-19.886 Y34.397 Z1.140 F4800.000 A1530.141 (d: 70.182)
G1 X-19.886 Y-34.397 Z1.140 F4800.000 A1532.798 (d: 13.889)
G1 X-19.477 Y-34.397 Z1.140 F4800.000 A1532.813 (d: 14.2975)
G1 X-19.477 Y34.397 Z1.140 F4800.000 A1535.470 (d: 70.264)
G1 X-19.069 Y34.397 Z1.140 F4800.000 A1535.486 (d: 70.3483)
G1 X-19.069 Y-34.397 Z1.140 F4800.000 A1538.142 (d: 14.706)
G1 X-18.660 Y-34.397 Z1.140 F4800.000 A1538.158 (d: 15.1145)
G1 X-18.660 Y34.397 Z1.140 F4800.000 A1540.814 (d: 70.4348)
G1 X-18.252 Y34.397 Z1.140 F4800.000 A1540.830 (d: 70.5236)
G1 X-18.252 Y-34.397 Z1.140 F4800.000 A1543.486 (d: 15.523)
G1 X-17.843 Y-34.397 Z1.140 F4800.000 A1543.502 (d: 15.9315)
G1 X-17.843 Y34.397 Z1.140 F4800.000 A1546.159 (d: 70.6146)
G1 X-17.434 Y34.397 Z1.140 F4800.000 A1546.174 (d: 70.7079)
G1 X-17.434 Y-34.397 Z1.140 F4800.000 A1548.831 (d: 16.34)
G1 X-17.026 Y-34.397 Z1.140 F4800.000 A1548.846 (d: 16.7485)
G1 X-17.026 Y34.397 Z1.140 F4800.000 A1551.503 (d: 70.8034)
G1 X-16.617 Y34.397 Z1.140 F4800.000 A1551.519 (d: 70.9012)
G1 X-16.617 Y-34.397 Z1.140 F4800.000 A1554.175 (d: 17.157)
G1 X-16.209 Y-34.397 Z1.140 F4800.000 A1554.191 (d: 17.5655)
G1 X-16.209 Y34.397 Z1.140 F4800.000 A1556.847 (d: 71.0011)
G1 X-15.800 Y34.397 Z1.140 F4800.000 A1556.863 (d: 71.1033)
G1 X-15.800 Y-34.397 Z1.140 F4800.000 A1559.519 (d: 17.974)
G1 X-15.392 Y-34.397 Z1.140 F4800.000 A1559.535 (d: 18.3825)
G1 X-15.392 Y34.397 Z1.140 F4800.000 A1562.192 (d: 71.2077)
G1 X-14.984 Y34.397 Z1.140 F4800.000 A1562.207 (d: 71.3142)
G1 X-14.984 Y-34.397 Z1.140 F4800.000 A1564.864 (d: 18.791)
G1 X-14.575 Y-34.397 Z1.140 F4800.000 A1564.879 (d: 19.1995)
G1 X-14.575 Y34.397 Z1.140 F4800.000 A1567.536 (d: 71.4229)
G1 X-14.167 Y34.397 Z1.140 F4800.000 A1567.552 (d: 71.5338)
G1 X-14.167 Y-34.397 Z1.140 F4800.000 A1570.208 (d: 19.608)
G1 X-13.758 Y-34.397 Z1.140 F4800.000 A1570.224 (d: 20.0165)
G1 X-13.758 Y34.397 Z1.140 F4800.000 A1572.880 (d: 71.6469)
G1 X-13.350 Y34.397 Z1.140 F4800.000 A1572.896 (d: 71.7621)
G1 X-13.350 Y-34.397 Z1.140 F4800.000 A1575.552 (d: 20.425)
G1 X-12.941 Y-34.397 Z1.140 F4800.000 A1575.568 (d: 20.8335)
G1 X-12.941 Y34.397 Z1.140 F4800.000 A1578.224 (d: 71.8794)
G1 X-12.533 Y34.397 Z1.140 F4800.000 A1578.240 (d: 71.9989)
G1 X-12.533 Y-34.397 Z1.140 F4800.000 A1580.897 (d: 21.242)
G1 X-12.124 Y-34.397 Z1.140 F4800.000 A1580.912 (d: 21.6505)
G1 X-12.124 Y34.397 Z1.140 F4800.000 A1583.569 (d: 72.1204)
G1 X-11.716 Y34.397 Z1.140 F4800.000 A1583.585 (d: 72.2441)
G1 X-11.716 Y-34.397 Z1.140 F4800.000 A1586.241 (d: 22.059)
G1 X-11.307 Y-34.397 Z1.140 F4800.000 A1586.257 (d: 22.4675)
G1 X-11.307 Y34.397 Z1.140 F4800.000 A1588.913 (d: 72.3699)
G1 X-10.899 Y34.397 Z1.140 F4800.000 A1588.929 (d: 72.4978)
G1 X-10.899 Y-34.397 Z1.140 F4800.000 A1591.585 (d: 22.876)
G1 X-10.490 Y-34.397 Z1.140 F4800.000 A1591.601 (d: 23.2845)
G1 X-10.490 Y34.397 Z1.140 F4800.000 A1594.257 (d: 72.6277)
G1 X-10.082 Y34.397 Z1.140 F4800.000 A1594.273 (d: 72.7597)
G1 X-10.082 Y-34.397 Z1.140 F4800.000 A1596.930 (d: 23.693)
G1 X-9.673 Y-34.397 Z1.140 F4800.000 A1596.945 (d: 24.1015)
G1 X-9.673 Y34.397 Z1.140 F4800.000 A1599.602 (d: 72.8937)
G1 X-9.265 Y34.397 Z1.140 F4800.000 A1599.618 (d: 73.0298)
G1 X-9.265 Y-34.397 Z1.140 F4800.000 A1602.274 (d: 24.51)
G1 X-8.856 Y-34.397 Z1.140 F4800.000 A1602.290 (d: 24.9185)
G1 X-8.856 Y34.397 Z1.140 F4800.000 A1604.946 (d: 73.1679)
G1 X-8.448 Y34.397 Z1.140 F4800.000 A1604.962 (d: 73.3081)
G1 X-8.448 Y-34.397 Z1.140 F4800.000 A1607.618 (d: 25.327)
G1 X-8.039 Y-34.397 Z1.140 F4800.000 A1607.634 (d: 25.7355)
G1 X-8.039 Y34.397 Z1.140 F4800.000 A1610.290 (d: 73.4502)
G1 X-7.631 Y34.397 Z1.140 F4800.000 A1610.306 (d: 73.5943)
G1 X-7.631 Y-34.397 Z1.140 F4800.000 A1612.963 (d: 26.144)
G1 X-7.222 Y-34.397 Z1.140 F4800.000 A1612.978 (d: 26.5525)
G1 X-7.222 Y34.397 Z1.140 F4800.000 A1615.635 (d: 73.7404)
G1 X-6.814 Y34.397 Z1.140 F4800.000 A1615.651 (d: 73.8885)
G1 X-6.814 Y-34.397 Z1.140 F4800.000 A1618.307 (d: 26.961)
G1 X-6.405 Y-34.397 Z1.140 F4800.000 A1618.323 (d: 27.3695)
G1 X-6.405 Y34.397 Z1.140 F4800.000 A1620.979 (d: 74.0385)
G1 X-5.997 Y34.397 Z1.140 F4800.000 A1620.995 (d: 74.1905)
G1 X-5.997 Y-34.397 Z1.140 F4800.000 A1623.651 (d: 27.778)
G1 X-5.588 Y-34.397 Z1.140 F4800.000 A1623.667 (d: 28.1865)
G1 X-5.588 Y34.397 Z1.140 F4800.000 A1626.323 (d: 74.3444)
G1 X-5.180 Y34.397 Z1.140 F4800.000 A1626.339 (d: 74.5003)
G1 X-5.180 Y-34.397 Z1.140 F4800.000 A1628.996 (d: 28.595)
G1 X-4.771 Y-34.397 Z1.140 F4800.000 A1629.011 (d: 29.0035)
G1 X-4.771 Y34.397 Z1.140 F4800.000 A1631.668 (d: 74.658)
G1 X-4.363 Y34.397 Z1.140 F4800.000 A1631.684 (d: 74.8176)
G1 X-4.363 Y-34.397 Z1.140 F4800.000 A1634.340 (d: 29.412)
G1 X-3.954 Y-34.397 Z1.140 F4800.000 A1634.356 (d: 29.8205)
G1 X-3.954 Y34.397 Z1.140 F4800.000 A1637.012 (d: 74.9792)
G1 X-3.546 Y34.397 Z1.140 F4800.000 A1637.028 (d: 75.1426)
G1 X-3.546 Y-34.397 Z1.140 F4800.000 A1639.684 (d: 30.229)
G1 X-3.137 Y-34.397 Z1.140 F4800.000 A1639.700 (d: 30.6375)
G1 X-3.137 Y34.397 Z1.140 F4800.000 A1642.356 (d: 75.3078)
G1 X-2.729 Y34.397 Z1.140 F4800.000 A1642.372 (d: 75.475)
G1 X-2.729 Y-34.397 Z1.140 F4800.000 A1645.029 (d: 31.046)
G1 X-2.320 Y-34.397 Z1.140 F4800.000 A1645.044 (d: 31.4545)
G1 X-2.320 Y34.397 Z1.140 F4800.000 A1647.701 (d: 75.6439)
G1 X-1.912 Y34.397 Z1.140 F4800.000 A1647.717 (d: 75.8147)
G1 X-1.912 Y-34.397 Z1.140 F4800.000 A1650.373 (d: 31.863)
G1 X-1.503 Y-34.397 Z1.140 F4800.000 A1650.389 (d: 32.2715)
G1 X-1.503 Y34.397 Z1.140 F4800.000 A1653.045 (d: 75.9873)
G1 X-1.095 Y34.397 Z1.140 F4800.000 A1653.061 (d: 76.1616)
G1 X-1.095 Y-34.397 Z1.140 F4800.000 A1655.717 (d: 32.68)
G1 X-0.686 Y-34.397 Z1.140 F4800.000 A1655.733 (d: 33.0885)
G1 X-0.686 Y34.397 Z1.140 F4800.000 A1658.389 (d: 76.3378)
G1 X-0.278 Y34.397 Z1.140 F4800.000 A1658.405 (d: 76.5158)
G1 X-0.278 Y-34.397 Z1.140 F4800.000 A1661.062 (d: 33.497)
G1 X0.131 Y-34.397 Z1.140 F4800.000 A1661.077 (d: 33.9055)
G1 X0.131 Y34.397 Z1.140 F4800.000 A1663.734 (d: 76.6955)
G1 X0.539 Y34.397 Z1.140 F4800.000 A1663.749 (d: 76.8769)
G1 X0.539 Y-34.397 Z1.140 F4800.000 A1666.406 (d: 34.314)
G1 X0.948 Y-34.397 Z1.140 F4800.000 A1666.422 (d: 34.7225)
G1 X0.948 Y34.397 Z1.140 F4800.000 A1669.078 (d: 77.0601)
G1 X1.356 Y34.397 Z1.140 F4800.000 A1669.094 (d: 77.2451)
G1 X1.356 Y-34.397 Z1.140 F4800.000 A1671.750 (d: 35.131)
G1 X1.765 Y-34.397 Z1.140 F4800.000 A1671.766 (d: 35.5395)
G1 X1.765 Y34.397 Z1.140 F4800.000 A1674.422 (d: 77.4317)
G1 X2.173 Y34.397 Z1.140 F4800.000 A1674.438 (d: 77.6201)
G1 X2.173 Y-34.397 Z1.140 F4800.000 A1677.095 (d: 35.948)
G1 X2.582 Y-34.397 Z1.140 F4800.000 A1677.110 (d: 36.3565)
G1 X2.582 Y34.397 Z1.140 F4800.000 A1679.767 (d: 77.8101)
G1 X2.990 Y34.397 Z1.140 F4800.000 A1679.782 (d: 78.0018)
G1 X2.990 Y-34.397 Z1.140 F4800.000 A1682.439 (d: 36.765)
G1 X3.399 Y-34.397 Z1.140 F4800.000 A1682.455 (d: 37.1735)
G1 X3.399 Y34.397 Z1.140 F4800.000 A1685.111 (d: 78.1952)
G1 X3.807 Y34.397 Z1.140 F4800.000 A1685.127 (d: 78.3902)
G1 X3.807 Y-34.397 Z1.140 F4800.000 A1687.783 (d: 37.582)
G1 X4.216 Y-34.397 Z1.140 F4800.000 A1687.799 (d: 37.9905)
G1 X4.216 Y34.397 Z1.140 F4800.000 A1690.455 (d: 78.5868)
G1 X4.624 Y34.397 Z1.140 F4800.000 A1690.471 (d: 78.7851)
G1 X4.624 Y-34.397 Z1.140 F4800.000 A1693.128 (d: 38.399)
G1 X5.033 Y-34.397 Z1.140 F4800.000 A1693.143 (d: 38.8075)
G1 X5.033 Y34.397 Z1.140 F4800.000 A1695.800 (d: 78.985)
G1 X5.441 Y34.397 Z1.140 F4800.000 A1695.815 (d: 79.1865)
G1 X5.441 Y-34.397 Z1.140 F4800.000 A1698.472 (d: 39.216)
G1 X5.850 Y-34.397 Z1.140 F4800.000 A1698.488 (d: 39.6245)
G1 X5.850 Y34.397 Z1.140 F4800.000 A1701.144 (d: 79.3896)
G1 X6.258 Y34.397 Z1.140 F4800.000 A1701.160 (d: 79.5943)
G1 X6.258 Y-34.397 Z1.140 F4800.000 A1703.816 (d: 40.033)
G1 X6.667 Y-34.397 Z1.140 F4800.000 A1703.832 (d: 40.4415)
G1 X6.667 Y34.397 Z1.140 F4800.000 A1706.488 (d: 79.8006)
G1 X7.075 Y34.397 Z1.140 F4800.000 A1706.504 (d: 80.0084)
G1 X7.075 Y-34.397 Z1.140 F4800.000 A1709.160 (d: 40.85)
G1 X7.484 Y-34.397 Z1.140 F4800.000 A1709.176 (d: 41.2585)
G1 X7.484 Y34.397 Z1.140 F4800.000 A1711.833 (d: 80.2177)
G1 X7.892 Y34.397 Z1.140 F4800.000 A1711.848 (d: 80.4286)
G1 X7.892 Y-34.397 Z1.140 F4800.000 A1714.505 (d: 41.667)
G1 X8.301 Y-34.397 Z1.140 F4800.000 A1714.521 (d: 42.0755)
G1 X8.301 Y34.397 Z1.140 F4800.000 A1717.177 (d: 80.6409)
G1 X8.709 Y34.397 Z1.140 F4800.000 A1717.193 (d: 80.8548)
G1 X8.709 Y-34.397 Z1.140 F4800.000 A1719.849 (d: 42.484)
G1 X9.118 Y-34.397 Z1.140 F4800.000 A1719.865 (d: 42.8925)
G1 X9.118 Y34.397 Z1.140 F4800.000 A1722.521 (d: 81.0702)
G1 X9.526 Y34.397 Z1.140 F4800.000 A1722.537 (d: 81.2871)
G1 X9.526 Y-34.397 Z1.140 F4800.000 A1725.193 (d: 43.301)
G1 X9.935 Y-34.397 Z1.140 F4800.000 A1725.209 (d: 43.7095)
G1 X9.935 Y34.397 Z1.140 F4800.000 A1727.866 (d: 81.5054)
G1 X10.343 Y34.397 Z1.140 F4800.000 A1727.881 (d: 81.7252)
G1 X10.343 Y-34.397 Z1.140 F4800.000 A1730.538 (d: 44.118)
G1 X10.752 Y-34.397 Z1.140 F4800.000 A1730.554 (d: 44.5265)
G1 X10.752 Y34.397 Z1.140 F4800.000 A1733.210 (d: 81.9465)
G1 X11.160 Y34.397 Z1.140 F4800.000 A1733.226 (d: 82.1691)
G1 X11.160 Y-34.397 Z1.140 F4800.000 A1735.882 (d: 44.935)
G1 X11.569 Y-34.397 Z1.140 F4800.000 A1735.898 (d: 45.3435)
G1 X11.569 Y34.397 Z1.140 F4800.000 A1738.554 (d: 82.3932)
G1 X11.977 Y34.397 Z1.140 F4800.000 A1738.570 (d: 82.6188)
G1 X11.977 Y-34.397 Z1.140 F4800.000 A1741.226 (d: 45.752)
G1 X12.386 Y-34.397 Z1.140 F4800.000 A1741.242 (d: 46.1605)
G1 X12.386 Y34.397 Z1.140 F4800.000 A1743.899 (d: 82.8457)
G1 X12.794 Y34.397 Z1.140 F4800.000 A1743.914 (d: 83.074)
G1 X12.794 Y-34.397 Z1.140 F4800.000 A1746.571 (d: 46.569)
G1 X13.203 Y-34.397 Z1.140 F4800.000 A1746.587 (d: 46.9775)
G1 X13.203 Y34.397 Z1.140 F4800.000 A1749.243 (d: 83.3037)
G1 X13.611 Y34.397 Z1.140 F4800.000 A1749.259 (d: 83.5347)
G1 X13.611 Y-34.397 Z1.140 F4800.000 A1751.915 (d: 47.386)
G1 X14.020 Y-34.397 Z1.140 F4800.000 A1751.931 (d: 47.7945)
G1 X14.020 Y34.397 Z1.140 F4800.000 A1754.587 (d: 83.7671)
G1 X14.428 Y34.397 Z1.140 F4800.000 A1754.603 (d: 84.0009)
G1 X14.428 Y-34.397 Z1.140 F4800.000 A1757.259 (d: 48.203)
G1 X14.837 Y-34.397 Z1.140 F4800.000 A1757.275 (d: 48.6115)
G1 X14.837 Y34.397 Z1.140 F4800.000 A1759.932 (d: 84.2359)
G1 X15.245 Y34.397 Z1.140 F4800.000 A1759.947 (d: 84.4723)
G1 X15.245 Y-34.397 Z1.140 F4800.000 A1762.604 (d: 49.02)
G1 X15.654 Y-34.397 Z1.140 F4800.000 A1762.620 (d: 49.4285)
G1 X15.654 Y34.397 Z1.140 F4800.000 A1765.276 (d: 84.71)
G1 X16.062 Y34.397 Z1.140 F4800.000 A1765.292 (d: 84.949)
G1 X16.062 Y-34.397 Z1.140 F4800.000 A1767.948 (d: 49.837)
G1 X16.471 Y-34.397 Z1.140 F4800.000 A1767.964 (d: 50.2455)
G1 X16.471 Y34.397 Z1.140 F4800.000 A1770.620 (d: 85.1893)
G1 X16.880 Y34.397 Z1.140 F4800.000 A1770.636 (d: 85.4309)
G1 X16.880 Y-34.397 Z1.140 F4800.000 A1773.292 (d: 50.654)
G1 X17.288 Y-34.397 Z1.140 F4800.000 A1773.308 (d: 51.0625)
G1 X17.288 Y34.397 Z1.140 F4800.000 A1775.965 (d: 85.6738)
G1 X17.696 Y34.397 Z1.140 F4800.000 A1775.980 (d: 85.9179)
G1 X17.696 Y-34.397 Z1.140 F4800.000 A1778.637 (d: 51.471)
G1 X18.105 Y-34.397 Z1.140 F4800.000 A1778.653 (d: 51.8795)
G1 X18.105 Y34.397 Z1.140 F4800.000 A1781.309 (d: 86.1632)
G1 X18.513 Y34.397 Z1.140 F4800.000 A1781.325 (d: 86.4098)
G1 X18.513 Y-34.397 Z1.140 F4800.000 A1783.981 (d: 52.288)
G1 X18.922 Y-34.397 Z1.140 F4800.000 A1783.997 (d: 52.6965)
G1 X18.922 Y34.397 Z1.140 F4800.000 A1786.653 (d: 86.6576)
G1 X19.330 Y34.397 Z1.140 F4800.000 A1786.669 (d: 86.9066)
G1 X19.330 Y-34.397 Z1.140 F4800.000 A1789.325 (d: 53.105)
G1 X19.739 Y-34.397 Z1.140 F4800.000 A1789.341 (d: 53.5135)
G1 X19.739 Y34.397 Z1.140 F4800.000 A1791.998 (d: 87.1568)
G1 X20.147 Y34.397 Z1.140 F4800.000 A1792.013 (d: 87.4082)
G1 X20.147 Y-34.397 Z1.140 F4800.000 A1794.670 (d: 53.922)
G1 X20.556 Y-34.397 Z1.140 F4800.000 A1794.685 (d: 54.3305)
G1 X20.556 Y34.397 Z1.140 F4800.000 A1797.342 (d: 87.6608)
G1 X20.964 Y34.397 Z1.140 F4800.000 A1797.358 (d: 87.9146)
G1 X20.964 Y-34.397 Z1.140 F4800.000 A1800.014 (d: 54.739)
G1 X21.373 Y-34.397 Z1.140 F4800.000 A1800.030 (d: 55.1475)
G1 X21.373 Y34.397 Z1.140 F4800.000 A1802.686 (d: 88.1695)
G1 X21.781 Y34.397 Z1.140 F4800.000 A1802.702 (d: 88.4256)
G1 X21.781 Y-34.397 Z1.140 F4800.000 A1805.358 (d: 55.556)
G1 X22.190 Y-34.397 Z1.140 F4800.000 A1805.374 (d: 55.9645)
G1 X22.190 Y34.397 Z1.140 F4800.000 A1808.031 (d: 88.6828)
G1 X22.598 Y34.397 Z1.140 F4800.000 A1808.046 (d: 88.9412)
G1 X22.598 Y-34.397 Z1.140 F4800.000 A1810.703 (d: 56.373)
G1 X23.007 Y-34.397 Z1.140 F4800.000 A1810.718 (d: 56.7815)
G1 X23.007 Y34.397 Z1.140 F4800.000 A1813.375 (d: 89.2006)
G1 X23.415 Y34.397 Z1.140 F4800.000 A1813.391 (d: 89.4612)
G1 X23.415 Y-34.397 Z1.140 F4800.000 A1816.047 (d: 57.19)
G1 X23.824 Y-34.397 Z1.140 F4800.000 A1816.063 (d: 57.5985)
G1 X23.824 Y34.397 Z1.140 F4800.000 A1818.719 (d: 89.7229)
G1 X24.232 Y34.397 Z1.140 F4800.000 A1818.735 (d: 89.9857)
G1 X24.232 Y-34.397 Z1.140 F4800.000 A1821.391 (d: 58.007)
G1 X24.641 Y-34.397 Z1.140 F4800.000 A1821.407 (d: 58.4155)
G1 X24.641 Y34.397 Z1.140 F4800.000 A1824.063 (d: 90.2496)
G1 X25.049 Y34.397 Z1.140 F4800.000 A1824.079 (d: 90.5145)
G1 X25.049 Y-34.397 Z1.140 F4800.000 A1826.736 (d: 58.824)
G1 X25.458 Y-34.397 Z1.140 F4800.000 A1826.751 (d: 59.2325)
G1 X25.458 Y34.397 Z1.140 F4800.000 A1829.408 (d: 90.7805)
G1 X25.866 Y34.397 Z1.140 F4800.000 A1829.424 (d: 91.0476)
G1 X25.866 Y-34.397 Z1.140 F4800.000 A1832.080 (d: 59.641)
G1 X26.275 Y-34.397 Z1.140 F4800.000 A1832.096 (d: 60.0495)
G1 X26.275 Y34.397 Z1.140 F4800.000 A1834.752 (d: 91.3157)
G1 X26.683 Y34.397 Z1.140 F4800.000 A1834.768 (d: 91.5848)
G1 X26.683 Y-34.397 Z1.140 F4800.000 A1837.424 (d: 60.458)
G1 X27.092 Y-34.397 Z1.140 F4800.000 A1837.440 (d: 60.8665)
G1 X27.092 Y34.397 Z1.140 F4800.000 A1840.096 (d: 91.855)
G1 X27.500 Y34.397 Z1.140 F4800.000 A1840.112 (d: 92.1262)
G1 X27.500 Y-34.397 Z1.140 F4800.000 A1842.769 (d: 61.275)
G1 X27.909 Y-34.397 Z1.140 F4800.000 A1842.784 (d: 61.6835)
G1 X27.909 Y34.397 Z1.140 F4800.000 A1845.441 (d: 92.3984)
G1 X28.317 Y34.397 Z1.140 F4800.000 A1845.457 (d: 92.6716)
G1 X28.317 Y-34.397 Z1.140 F4800.000 A1848.113 (d: 62.092)
G1 X28.726 Y-34.397 Z1.140 F4800.000 A1848.129 (d: 62.5005)
G1 X28.726 Y34.397 Z1.140 F4800.000 A1850.785 (d: 92.9458)
G1 X29.135 Y34.397 Z1.140 F4800.000 A1850.801 (d: 93.221)
G1 X29.135 Y-34.397 Z1.140 F4800.000 A1853.457 (d: 62.909)
G1 X29.543 Y-34.397 Z1.140 F4800.000 A1853.473 (d: 63.3175)
G1 X29.543 Y34.397 Z1.140 F4800.000 A1856.129 (d: 93.4972)
G1 X29.951 Y34.397 Z1.140 F4800.000 A1856.145 (d: 93.7743)
G1 X29.951 Y-34.397 Z1.140 F4800.000 A1858.802 (d: 63.726)
G1 X30.360 Y-34.397 Z1.140 F4800.000 A1858.817 (d: 64.1345)
G1 X30.360 Y34.397 Z1.140 F4800.000 A1861.474 (d: 94.0524)
G1 X30.768 Y34.397 Z1.140 F4800.000 A1861.490 (d: 94.3314)
G1 X30.768 Y-34.397 Z1.140 F4800.000 A1864.146 (d: 64.543)
G1 X31.177 Y-34.397 Z1.140 F4800.000 A1864.162 (d: 64.9515)
G1 X31.177 Y34.397 Z1.140 F4800.000 A1866.818 (d: 94.6114)
G1 X31.585 Y34.397 Z1.140 F4800.000 A1866.834 (d: 94.8923)
G1 X31.585 Y-34.397 Z1.140 F4800.000 A1869.490 (d: 65.36)
G1 X31.994 Y-34.397 Z1.140 F4800.000 A1869.506 (d: 65.7685)
G1 X31.994 Y34.397 Z1.140 F4800.000 A1872.162 (d: 95.1741)
G1 X32.402 Y34.397 Z1.140 F4800.000 A1872.178 (d: 95.4568)
G1 X32.402 Y-34.397 Z1.140 F4800.000 A1874.835 (d: 66.177)
G1 X32.811 Y-34.397 Z1.140 F4800.000 A1874.850 (d: 66.5855)
G1 X32.811 Y34.397 Z1.140 F4800.000 A1877.507 (d: 95.7405)
G1 X33.219 Y34.397 Z1.140 F4800.000 A1877.523 (d: 96.0251)
G1 X33.219 Y-34.397 Z1.140 F4800.000 A1880.179 (d: 66.994)
G1 X33.628 Y-34.397 Z1.140 F4800.000 A1880.195 (d: 67.4025)
G1 X33.628 Y34.397 Z1.140 F4800.000 A1882.851 (d: 96.3105)
G1 X34.036 Y34.397 Z1.140 F4800.000 A1882.867 (d: 96.5968)
G1 X34.036 Y-34.397 Z1.140 F4800.000 A1885.523 (d: 67.811)
G1 F798.000 A1885.023 (snort)

(Slice 4, 1 Extruder)
G1 Z1.410 F500.000 (move Z)
(   Extruder 0)
( extruder 0 )
( GSWITCH T0 )
( TODO: add offset management to Gantry )

(inset 0/2 )
(  path 0/1, 5 points,  )
G1 X-34.784 Y-34.784 Z1.410 F6000.000 (move into position)
G1 F798.000 A1885.523 (squirt)
G1 X-34.784 Y34.784 Z1.410 F4800.000 A1888.210 (d: 69.568)
G1 X34.784 Y34.784 Z1.410 F4800.000 A1890.896 (d: 98.384)
G1 X34.784 Y-34.784 Z1.410 F4800.000 A1893.582 (d: 69.568)
G1 X-34.784 Y-34.784 Z1.410 F4800.000 A1896.268 (d: 0)
G1 F798.000 A1895.768 (snort)

(inset 1/2 )
(  path 0/1, 5 points,  )
G1 X-34.397 Y-34.397 Z1.410 F6000.000 (move into position)
G1 F798.000 A1896.268 (squirt)
G1 X-34.397 Y34.397 Z1.410 F4800.000 A1898.925 (d: 68.794)
G1 X34.397 Y34.397 Z1.410 F4800.000 A1901.581 (d: 97.2894)
G1 X34.397 Y-34.397 Z1.410 F4800.000 A1904.238 (d: 68.794)
G1 X-34.397 Y-34.397 Z1.410 F4800.000 A1906.894 (d: 0)
G1 F798.000 A1906.394 (snort)

(infills: 1)
(  path 0/1, 336 points,  )
G1 X-34.397 Y-33.775 Z1.410 F6000.000 (move into position)
G1 F798.000 A1906.894 (squirt)
G1 X34.397 Y-33.775 Z1.410 F4800.000 A1909.550 (d: 68.794)
G1 X34.397 Y-34.183 Z1.410 F4800.000 A1909.566 (d: 68.7952)
G1 X-34.397 Y-34.183 Z1.410 F4800.000 A1912.222 (d: 0.4085)
G1 X-34.397 Y-33.366 Z1.410 F4800.000 A1912.254 (d: 0.4085)
G1 X34.397 Y-33.366 Z1.410 F4800.000 A1914.910 (d: 68.7952)
G1 X34.397 Y-32.958 Z1.410 F4800.000 A1914.926 (d: 68.7989)
G1 X-34.397 Y-32.958 Z1.410 F4800.000 A1917.583 (d: 0.817)
G1 X-34.397 Y-32.549 Z1.410 F4800.000 A1917.598 (d: 1.2255)
G1 X34.397 Y-32.549 Z1.410 F4800.000 A1920.255 (d: 68.8049)
G1 X34.397 Y-32.141 Z1.410 F4800.000 A1920.271 (d: 68.8134)
G1 X-34.397 Y-32.141 Z1.410 F4800.000 A1922.927 (d: 1.634)
G1 X-34.397 Y-31.732 Z1.410 F4800.000 A1922.943 (d: 2.0425)
G1 X34.397 Y-31.732 Z1.410 F4800.000 A1925.599 (d: 68.8243)
G1 X34.397 Y-31.323 Z1.410 F4800.000 A1925.615 (d: 68.8376)
G1 X-34.397 Y-31.323 Z1.410 F4800.000 A1928.271 (d: 2.451)
G1 X-34.397 Y-30.915 Z1.410 F4800.000 A1928.287 (d: 2.8595)
G1 X34.397 Y-30.915 Z1.410 F4800.000 A1930.943 (d: 68.8534)
G1 X34.397 Y-30.506 Z1.410 F4800.000 A1930.959 (d: 68.8716)
G1 X-34.397 Y-30.506 Z1.410 F4800.000 A1933.616 (d: 3.268)
G1 X-34.397 Y-30.098 Z1.410 F4800.000 A1933.631 (d: 3.6765)
G1 X34.397 Y-30.098 Z1.410 F4800.000 A1936.288 (d: 68.8922)
G1 X34.397 Y-29.690 Z1.410 F4800.000 A1936.303 (d: 68.9152)
G1 X-34.397 Y-29.690 Z1.410 F4800.000 A1938.960 (d: 4.085)
G1 X-34.397 Y-29.281 Z1.410 F4800.000 A1938.976 (d: 4.4935)
G1 X34.397 Y-29.281 Z1.410 F4800.000 A1941.632 (d: 68.9406)
G1 X34.397 Y-28.873 Z1.410 F4800.000 A1941.648 (d: 68.9684)
G1 X-34.397 Y-28.873 Z1.410 F4800.000 A1944.304 (d: 4.902)
G1 X-34.397 Y-28.464 Z1.410 F4800.000 A1944.320 (d: 5.3105)
G1 X34.397 Y-28.464 Z1.410 F4800.000 A1946.976 (d: 68.9987)
G1 X34.397 Y-28.056 Z1.410 F4800.000 A1946.992 (d: 69.0313)
G1 X-34.397 Y-28.056 Z1.410 F4800.000 A1949.649 (d: 5.719)
G1 X-34.397 Y-27.647 Z1.410 F4800.000 A1949.664 (d: 6.1275)
G1 X34.397 Y-27.647 Z1.410 F4800.000 A1952.321 (d: 69.0663)
G1 X34.397 Y-27.239 Z1.410 F4800.000 A1952.336 (d: 69.1038)
G1 X-34.397 Y-27.239 Z1.410 F4800.000 A1954.993 (d: 6.536)
G1 X-34.397 Y-26.830 Z1.410 F4800.000 A1955.009 (d: 6.9445)
G1 X34.397 Y-26.830 Z1.410 F4800.000 A1957.665 (d: 69.1436)
G1 X34.397 Y-26.422 Z1.410 F4800.000 A1957.681 (d: 69.1858)
G1 X-34.397 Y-26.422 Z1.410 F4800.000 A1960.337 (d: 7.353)
G1 X-34.397 Y-26.013 Z1.410 F4800.000 A1960.353 (d: 7.7615)
G1 X34.397 Y-26.013 Z1.410 F4800.000 A1963.009 (d: 69.2305)
G1 X34.397 Y-25.605 Z1.410 F4800.000 A1963.025 (d: 69.2774)
G1 X-34.397 Y-25.605 Z1.410 F4800.000 A1965.682 (d: 8.17)
G1 X-34.397 Y-25.196 Z1.410 F4800.000 A1965.697 (d: 8.5785)
G1 X34.397 Y-25.196 Z1.410 F4800.000 A1968.354 (d: 69.3268)
G1 X34.397 Y-24.788 Z1.410 F4800.000 A1968.369 (d: 69.3785)
G1 X-34.397 Y-24.788 Z1.410 F4800.000 A1971.026 (d: 8.987)
G1 X-34.397 Y-24.379 Z1.410 F4800.000 A1971.042 (d: 9.3955)
G1 X34.397 Y-24.379 Z1.410 F4800.000 A1973.698 (d: 69.4326)
G1 X34.397 Y-23.971 Z1.410 F4800.000 A1973.714 (d: 69.4891)
G1 X-34.397 Y-23.971 Z1.410 F4800.000 A1976.370 (d: 9.804)
G1 X-34.397 Y-23.562 Z1.410 F4800.000 A1976.386 (d: 10.2125)
G1 X34.397 Y-23.562 Z1.410 F4800.000 A1979.042 (d: 69.5479)
G1 X34.397 Y-23.154 Z1.410 F4800.000 A1979.058 (d: 69.6091)
G1 X-34.397 Y-23.154 Z1.410 F4800.000 A1981.714 (d: 10.621)
G1 X-34.397 Y-22.745 Z1.410 F4800.000 A1981.730 (d: 11.0295)
G1 X34.397 Y-22.745 Z1.410 F4800.000 A1984.387 (d: 69.6726)
G1 X34.397 Y-22.337 Z1.410 F4800.000 A1984.402 (d: 69.7384)
G1 X-34.397 Y-22.337 Z1.410 F4800.000 A1987.059 (d: 11.438)
G1 X-34.397 Y-21.928 Z1.410 F4800.000 A1987.075 (d: 11.8465)
G1 X34.397 Y-21.928 Z1.410 F4800.000 A1989.731 (d: 69.8065)
G1 X34.397 Y-21.520 Z1.410 F4800.000 A1989.747 (d: 69.877)
G1 X-34.397 Y-21.520 Z1.410 F4800.000 A1992.403 (d: 12.255)
G1 X-34.397 Y-21.111 Z1.410 F4800.000 A1992.419 (d: 12.6635)
G1 X34.397 Y-21.111 Z1.410 F4800.000 A1995.075 (d: 69.9498)
G1 X34.397 Y-20.703 Z1.410 F4800.000 A1995.091 (d: 70.0249)
G1 X-34.397 Y-20.703 Z1.410 F4800.000 A1997.747 (d: 13.072)
G1 X-34.397 Y-20.294 Z1.410 F4800.000 A1997.763 (d: 13.4805)
G1 X34.397 Y-20.294 Z1.410 F4800.000 A2000.420 (d: 70.1023)
G1 X34.397 Y-19.886 Z1.410 F4800.000 A2000.435 (d: 70.182)
G1 X-34.397 Y-19.886 Z1.410 F4800.000 A2003.092 (d: 13.889)
G1 X-34.397 Y-19.477 Z1.410 F4800.000 A2003.108 (d: 14.2975)
G1 X34.397 Y-19.477 Z1.410 F4800.000 A2005.764 (d: 70.264)
G1 X34.397 Y-19.069 Z1.410 F4800.000 A2005.780 (d: 70.3483)
G1 X-34.397 Y-19.069 Z1.410 F4800.000 A2008.436 (d: 14.706)
G1 X-34.397 Y-18.660 Z1.410 F4800.000 A2008.452 (d: 15.1145)
G1 X34.397 Y-18.660 Z1.410 F4800.000 A2011.108 (d: 70.4348)
G1 X34.397 Y-18.252 Z1.410 F4800.000 A2011.124 (d: 70.5236)
G1 X-34.397 Y-18.252 Z1.410 F4800.000 A2013.780 (d: 15.523)
G1 X-34.397 Y-17.843 Z1.410 F4800.000 A2013.796 (d: 15.9315)
G1 X34.397 Y-17.843 Z1.410 F4800.000 A2016.453 (d: 70.6146)
G1 X34.397 Y-17.434 Z1.410 F4800.000 A2016.468 (d: 70.7079)
G1 X-34.397 Y-17.434 Z1.410 F4800.000 A2019.125 (d: 16.34)
G1 X-34.397 Y-17.026 Z1.410 F4800.000 A2019.141 (d: 16.7485)
G1 X34.397 Y-17.026 Z1.410 F4800.000 A2021.797 (d: 70.8034)
G1 X34.397 Y-16.617 Z1.410 F4800.000 A2021.813 (d: 70.9012)
G1 X-34.397 Y-16.617 Z1.410 F4800.000 A2024.469 (d: 17.157)
G1 X-34.397 Y-16.209 Z1.410 F4800.000 A2024.485 (d: 17.5655)
G1 X34.397 Y-16.209 Z1.410 F4800.000 A2027.141 (d: 71.0011)
G1 X34.397 Y-15.800 Z1.410 F4800.000 A2027.157 (d: 71.1033)
G1 X-34.397 Y-15.800 Z1.410 F4800.000 A2029.813 (d: 17.974)
G1 X-34.397 Y-15.392 Z1.410 F4800.000 A2029.829 (d: 18.3825)
G1 X34.397 Y-15.392 Z1.410 F4800.000 A2032.486 (d: 71.2077)
G1 X34.397 Y-14.984 Z1.410 F4800.000 A2032.501 (d: 71.3142)
G1 X-34.397 Y-14.984 Z1.410 F4800.000 A2035.158 (d: 18.791)
G1 X-34.397 Y-14.575 Z1.410 F4800.000 A2035.174 (d: 19.1995)
G1 X34.397 Y-14.575 Z1.410 F4800.000 A2037.830 (d: 71.4229)
G1 X34.397 Y-14.167 Z1.410 F4800.000 A2037.846 (d: 71.5338)
G1 X-34.397 Y-14.167 Z1.410 F4800.000 A2040.502 (d: 19.608)
G1 X-34.397 Y-13.758 Z1.410 F4800.000 A2040.518 (d: 20.0165)
G1 X34.397 Y-13.758 Z1.410 F4800.000 A2043.174 (d: 71.6469)
G1 X34.397 Y-13.350 Z1.410 F4800.000 A2043.190 (d: 71.7621)
G1 X-34.397 Y-13.350 Z1.410 F4800.000 A2045.846 (d: 20.425)
G1 X-34.397 Y-12.941 Z1.410 F4800.000 A2045.862 (d: 20.8335)
G1 X34.397 Y-12.941 Z1.410 F4800.000 A2048.519 (d: 71.8794)
G1 X34.397 Y-12.533 Z1.410 F4800.000 A2048.534 (d: 71.9989)
G1 X-34.397 Y-12.533 Z1.410 F4800.000 A2051.191 (d: 21.242)
G1 X-34.397 Y-12.124 Z1.410 F4800.000 A2051.206 (d: 21.6505)
G1 X34.397 Y-12.124 Z1.410 F4800.000 A2053.863 (d: 72.1204)
G1 X34.397 Y-11.716 Z1.410 F4800.000 A2053.879 (d: 72.2441)
G1 X-34.397 Y-11.716 Z1.410 F4800.000 A2056.535 (d: 22.059)
G1 X-34.397 Y-11.307 Z1.410 F4800.000 A2056.551 (d: 22.4675)
G1 X34.397 Y-11.307 Z1.410 F4800.000 A2059.207 (d: 72.3699)
G1 X34.397 Y-10.899 Z1.410 F4800.000 A2059.223 (d: 72.4978)
G1 X-34.397 Y-10.899 Z1.410 F4800.000 A2061.879 (d: 22.876)
G1 X-34.397 Y-10.490 Z1.410 F4800.000 A2061.895 (d: 23.2845)
G1 X34.397 Y-10.490 Z1.410 F4800.000 A2064.552 (d: 72.6277)
G1 X34.397 Y-10.082 Z1.410 F4800.000 A2064.567 (d: 72.7597)
G1 X-34.397 Y-10.082 Z1.410 F4800.000 A2067.224 (d: 23.693)
G1 X-34.397 Y-9.673 Z1.410 F4800.000 A2067.239 (d: 24.1015)
G1 X34.397 Y-9.673 Z1.410 F4800.000 A2069.896 (d: 72.8937)
G1 X34.397 Y-9.265 Z1.410 F4800.000 A2069.912 (d: 73.0298)
G1 X-34.397 Y-9.265 Z1.410 F4800.000 A2072.568 (d: 24.51)
G1 X-34.397 Y-8.856 Z1.410 F4800.000 A2072.584 (d: 24.9185)
G1 X34.397 Y-8.856 Z1.410 F4800.000 A2075.240 (d: 73.1679)
G1 X34.397 Y-8.448 Z1.410 F4800.000 A2075.256 (d: 73.3081)
G1 X-34.397 Y-8.448 Z1.410 F4800.000 A2077.912 (d: 25.327)
G1 X-34.397 Y-8.039 Z1.410 F4800.000 A2077.928 (d: 25.7355)
G1 X34.397 Y-8.039 Z1.410 F4800.000 A2080.585 (d: 73.4502)
G1 X34.397 Y-7.631 Z1.410 F4800.000 A2080.600 (d: 73.5943)
G1 X-34.397 Y-7.631 Z1.410 F4800.000 A2083.257 (d: 26.144)
G1 X-34.397 Y-7.222 Z1.410 F4800.000 A2083.272 (d: 26.5525)
G1 X34.397 Y-7.222 Z1.410 F4800.000 A2085.929 (d: 73.7404)
G1 X34.397 Y-6.814 Z1.410 F4800.000 A2085.945 (d: 73.8885)
G1 X-34.397 Y-6.814 Z1.410 F4800.000 A2088.601 (d: 26.961)
G1 X-34.397 Y-6.405 Z1.410 F4800.000 A2088.617 (d: 27.3695)
G1 X34.397 Y-6.405 Z1.410 F4800.000 A2091.273 (d: 74.0385)
G1 X34.397 Y-5.997 Z1.410 F4800.000 A2091.289 (d: 74.1905)
G1 X-34.397 Y-5.997 Z1.410 F4800.000 A2093.945 (d: 27.778)
G1 X-34.397 Y-5.588 Z1.410 F4800.000 A2093.961 (d: 28.1865)
G1 X34.397 Y-5.588 Z1.410 F4800.000 A2096.617 (d: 74.3444)
G1 X34.397 Y-5.180 Z1.410 F4800.000 A2096.633 (d: 74.5003)
G1 X-34.397 Y-5.180 Z1.410 F4800.000 A2099.290 (d: 28.595)
G1 X-34.397 Y-4.771 Z1.410 F4800.000 A2099.305 (d: 29.0035)
G1 X34.397 Y-4.771 Z1.410 F4800.000 A2101.962 (d: 74.658)
G1 X34.397 Y-4.363 Z1.410 F4800.000 A2101.978 (d: 74.8176)
G1 X-34.397 Y-4.363 Z1.410 F4800.000 A2104.634 (d: 29.412)
G1 X-34.397 Y-3.954 Z1.410 F4800.000 A2104.650 (d: 29.8205)
G1 X34.397 Y-3.954 Z1.410 F4800.000 A2107.306 (d: 74.9792)
G1 X34.397 Y-3.546 Z1.410 F4800.000 A2107.322 (d: 75.1426)
G1 X-34.397 Y-3.546 Z1.410 F4800.000 A2109.978 (d: 30.229)
G1 X-34.397 Y-3.137 Z1.410 F4800.000 A2109.994 (d: 30.6375)
G1 X34.397 Y-3.137 Z1.410 F4800.000 A2112.650 (d: 75.3078)
G1 X34.397 Y-2.729 Z1.410 F4800.000 A2112.666 (d: 75.475)
G1 X-34.397 Y-2.729 Z1.410 F4800.000 A2115.323 (d: 31.046)
G1 X-34.397 Y-2.320 Z1.410 F4800.000 A2115.338 (d: 31.4545)
G1 X34.397 Y-2.320 Z1.410 F4800.000 A2117.995 (d: 75.6439)
G1 X34.397 Y-1.912 Z1.410 F4800.000 A2118.011 (d: 75.8147)
G1 X-34.397 Y-1.912 Z1.410 F4800.000 A2120.667 (d: 31.863)
G1 X-34.397 Y-1.503 Z1.410 F4800.000 A2120.683 (d: 32.2715)
G1 X34.397 Y-1.503 Z1.410 F4800.000 A2123.339 (d: 75.9873)
G1 X34.397 Y-1.095 Z1.410 F4800.000 A2123.355 (d: 76.1616)
G1 X-34.397 Y-1.095 Z1.410 F4800.000 A2126.011 (d: 32.68)
G1 X-34.397 Y-0.686 Z1.410 F4800.000 A2126.027 (d: 33.0885)
G1 X34.397 Y-0.686 Z1.410 F4800.000 A2128.683 (d: 76.3378)
G1 X34.397 Y-0.278 Z1.410 F4800.000 A2128.699 (d: 76.5158)
G1 X-34.397 Y-0.278 Z1.410 F4800.000 A2131.356 (d: 33.497)
G1 X-34.397 Y0.131 Z1.410 F4800.000 A2131.371 (d: 33.9055)
G1 X34.397 Y0.131 Z1.410 F4800.000 A2134.028 (d: 76.6955)
G1 X34.397 Y0.539 Z1.410 F4800.000 A2134.044 (d: 76.8769)
G1 X-34.397 Y0.539 Z1.410 F4800.000 A2136.700 (d: 34.314)
G1 X-34.397 Y0.948 Z1.410 F4800.000 A2136.716 (d: 34.7225)
G1 X34.397 Y0.948 Z1.410 F4800.000 A2139.372 (d: 77.0601)
G1 X34.397 Y1.356 Z1.410 F4800.000 A2139.388 (d: 77.2451)
G1 X-34.397 Y1.356 Z1.410 F4800.000 A2142.044 (d: 35.131)
G1 X-34.397 Y1.765 Z1.410 F4800.000 A2142.060 (d: 35.5395)
G1 X34.397 Y1.765 Z1.410 F4800.000 A2144.716 (d: 77.4317)
G1 X34.397 Y2.173 Z1.410 F4800.000 A2144.732 (d: 77.6201)
G1 X-34.397 Y2.173 Z1.410 F4800.000 A2147.389 (d: 35.948)
G1 X-34.397 Y2.582 Z1.410 F4800.000 A2147.404 (d: 36.3565)
G1 X34.397 Y2.582 Z1.410 F4800.000 A2150.061 (d: 77.8101)
G1 X34.397 Y2.990 Z1.410 F4800.000 A2150.077 (d: 78.0018)
G1 X-34.397 Y2.990 Z1.410 F4800.000 A2152.733 (d: 36.765)
G1 X-34.397 Y3.399 Z1.410 F4800.000 A2152.749 (d: 37.1735)
G1 X34.397 Y3.399 Z1.410 F4800.000 A2155.405 (d: 78.1952)
G1 X34.397 Y3.807 Z1.410 F4800.000 A2155.421 (d: 78.3902)
G1 X-34.397 Y3.807 Z1.410 F4800.000 A2158.077 (d: 37.582)
G1 X-34.397 Y4.216 Z1.410 F4800.000 A2158.093 (d: 37.9905)
G1 X34.397 Y4.216 Z1.410 F4800.000 A2160.749 (d: 78.5868)
G1 X34.397 Y4.624 Z1.410 F4800.000 A2160.765 (d: 78.7851)
G1 X-34.397 Y4.624 Z1.410 F4800.000 A2163.422 (d: 38.399)
G1 X-34.397 Y5.033 Z1.410 F4800.000 A2163.437 (d: 38.8075)
G1 X34.397 Y5.033 Z1.410 F4800.000 A2166.094 (d: 78.985)
G1 X34.397 Y5.441 Z1.410 F4800.000 A2166.110 (d: 79.1865)
G1 X-34.397 Y5.441 Z1.410 F4800.000 A2168.766 (d: 39.216)
G1 X-34.397 Y5.850 Z1.410 F4800.000 A2168.782 (d: 39.6245)
G1 X34.397 Y5.850 Z1.410 F4800.000 A2171.438 (d: 79.3896)
G1 X34.397 Y6.258 Z1.410 F4800.000 A2171.454 (d: 79.5943)
G1 X-34.397 Y6.258 Z1.410 F4800.000 A2174.110 (d: 40.033)
G1 X-34.397 Y6.667 Z1.410 F4800.000 A2174.126 (d: 40.4415)
G1 X34.397 Y6.667 Z1.410 F4800.000 A2176.782 (d: 79.8006)
G1 X34.397 Y7.075 Z1.410 F4800.000 A2176.798 (d: 80.0084)
G1 X-34.397 Y7.075 Z1.410 F4800.000 A2179.455 (d: 40.85)
G1 X-34.397 Y7.484 Z1.410 F4800.000 A2179.470 (d: 41.2585)
G1 X34.397 Y7.484 Z1.410 F4800.000 A2182.127 (d: 80.2177)
G1 X34.397 Y7.892 Z1.410 F4800.000 A2182.142 (d: 80.4286)
G1 X-34.397 Y7.892 Z1.410 F4800.000 A2184.799 (d: 41.667)
G1 X-34.397 Y8.301 Z1.410 F4800.000 A2184.815 (d: 42.0755)
G1 X34.397 Y8.301 Z1.410 F4800.000 A2187.471 (d: 80.6409)
G1 X34.397 Y8.709 Z1.410 F4800.000 A2187.487 (d: 80.8548)
G1 X-34.397 Y8.709 Z1.410 F4800.000 A2190.143 (d: 42.484)
G1 X-34.397 Y9.118 Z1.410 F4800.000 A2190.159 (d: 42.8925)
G1 X34.397 Y9.118 Z1.410 F4800.000 A2192.815 (d: 81.0702)
G1 X34.397 Y9.526 Z1.410 F4800.000 A2192.831 (d: 81.2871)
G1 X-34.397 Y9.526 Z1.410 F4800.000 A2195.488 (d: 43.301)
G1 X-34.397 Y9.935 Z1.410 F4800.000 A2195.503 (d: 43.7095)
G1 X34.397 Y9.935 Z1.410 F4800.000 A2198.160 (d: 81.5054)
G1 X34.397 Y10.343 Z1.410 F4800.000 A2198.175 (d: 81.7252)
G1 X-34.397 Y10.343 Z1.410 F4800.000 A2200.832 (d: 44.118)
G1 X-34.397 Y10.752 Z1.410 F4800.000 A2200.848 (d: 44.5265)
G1 X34.397 Y10.752 Z1.410 F4800.000 A2203.504 (d: 81.9465)
G1 X34.397 Y11.160 Z1.410 F4800.000 A2203.520 (d: 82.1691)
G1 X-34.397 Y11.160 Z1.410 F4800.000 A2206.176 (d: 44.935)
G1 X-34.397 Y11.569 Z1.410 F4800.000 A2206.192 (d: 45.3435)
G1 X34.397 Y11.569 Z1.410 F4800.000 A2208.848 (d: 82.3932)
G1 X34.397 Y11.977 Z1.410 F4800.000 A2208.864 (d: 82.6188)
G1 X-34.397 Y11.977 Z1.410 F4800.000 A2211.521 (d: 45.752)
G1 X-34.397 Y12.386 Z1.410 F4800.000 A2211.536 (d: 46.1605)
G1 X34.397 Y12.386 Z1.410 F4800.000 A2214.193 (d: 82.8457)
G1 X34.397 Y12.794 Z1.410 F4800.000 A2214.208 (d: 83.074)
G1 X-34.397 Y12.794 Z1.410 F4800.000 A2216.865 (d: 46.569)
G1 X-34.397 Y13.203 Z1.410 F4800.000 A2216.881 (d: 46.9775)
G1 X34.397 Y13.203 Z1.410 F4800.000 A2219.537 (d: 83.3037)
G1 X34.397 Y13.611 Z1.410 F4800.000 A2219.553 (d: 83.5347)
G1 X-34.397 Y13.611 Z1.410 F4800.000 A2222.209 (d: 47.386)
G1 X-34.397 Y14.020 Z1.410 F4800.000 A2222.225 (d: 47.7945)
G1 X34.397 Y14.020 Z1.410 F4800.000 A2224.881 (d: 83.7671)
G1 X34.397 Y14.428 Z1.410 F4800.000 A2224.897 (d: 84.0009)
G1 X-34.397 Y14.428 Z1.410 F4800.000 A2227.553 (d: 48.203)
G1 X-34.397 Y14.837 Z1.410 F4800.000 A2227.569 (d: 48.6115)
G1 X34.397 Y14.837 Z1.410 F4800.000 A2230.226 (d: 84.2359)
G1 X34.397 Y15.245 Z1.410 F4800.000 A2230.241 (d: 84.4723)
G1 X-34.397 Y15.245 Z1.410 F4800.000 A2232.898 (d: 49.02)
