
(Makerbot Industries)
(This file contains digital fabrication directives in gcode format)
(For your 3D printer)
(http://wiki.makerbot.com/gcode)
(* Generated by Miracle-Grue v 0.04 alpha)
(* 2012-7-16 14:37:22)
(* machine name: Dub dub dub)
(* firmware revision:unknown)
(* stl/baseline_tests\LargeBox.stl)
(* 2 extruder)
(* Extrude infills: 1)
(* first operation: Insets)
(* Extrude insets: 1)
(* Extrude outlines: 0)

(Slice 0, 1 Extruder)
G1 Z0.330 F500.000 (move Z)
(insets: 2)
G1 X34.784 Y34.784 Z0.330 F6000.000 (move into position)
G1 F798.000 A0.500 (squirt)
G1 X34.784 Y-34.784 Z0.330 F1800.000 A3.186 (d: 69.568)
G1 X-34.784 Y-34.784 Z0.330 F1800.000 A5.873 (d: 69.568)
G1 X-34.784 Y34.784 Z0.330 F1800.000 A8.559 (d: 69.568)
G1 X34.784 Y34.784 Z0.330 F1800.000 A11.245 (d: 69.568)
G1 F798.000 A10.745 (snort)

G1 X34.396 Y34.396 Z0.330 F6000.000 (move into position)
G1 F798.000 A11.245 (squirt)
G1 X34.396 Y-34.396 Z0.330 F1800.000 A13.901 (d: 68.792)
G1 X-34.396 Y-34.396 Z0.330 F1800.000 A16.558 (d: 68.792)
G1 X-34.396 Y34.396 Z0.330 F1800.000 A19.214 (d: 68.792)
G1 X34.396 Y34.396 Z0.330 F1800.000 A21.870 (d: 68.792)
G1 F798.000 A21.370 (snort)

(infills: 2)
G1 X-34.396 Y-33.775 Z0.330 F6000.000 (move into position)
G1 F798.000 A21.870 (squirt)
G1 X34.396 Y-33.775 Z0.330 F1800.000 A24.527 (d: 68.792)
G1 F798.000 A24.027 (snort)

G1 X34.396 Y-34.183 Z0.330 F6000.000 (move into position)
G1 F798.000 A24.527 (squirt)
G1 X-34.396 Y-34.183 Z0.330 F1800.000 A27.183 (d: 68.792)
G1 X-34.396 Y-33.366 Z0.330 F1800.000 A27.215 (d: 0.817)
G1 X34.396 Y-33.366 Z0.330 F1800.000 A29.871 (d: 68.792)
G1 X34.396 Y-32.958 Z0.330 F1800.000 A29.887 (d: 0.4085)
G1 X-34.396 Y-32.958 Z0.330 F1800.000 A32.543 (d: 68.792)
G1 X-34.396 Y-32.549 Z0.330 F1800.000 A32.559 (d: 0.4085)
G1 X34.396 Y-32.549 Z0.330 F1800.000 A35.215 (d: 68.792)
G1 X34.396 Y-32.141 Z0.330 F1800.000 A35.231 (d: 0.4085)
G1 X-34.396 Y-32.141 Z0.330 F1800.000 A37.887 (d: 68.792)
G1 X-34.396 Y-31.732 Z0.330 F1800.000 A37.903 (d: 0.4085)
G1 X34.396 Y-31.732 Z0.330 F1800.000 A40.559 (d: 68.792)
G1 X34.396 Y-31.323 Z0.330 F1800.000 A40.575 (d: 0.4085)
G1 X-34.396 Y-31.323 Z0.330 F1800.000 A43.231 (d: 68.792)
G1 X-34.396 Y-30.915 Z0.330 F1800.000 A43.247 (d: 0.4085)
G1 X34.396 Y-30.915 Z0.330 F1800.000 A45.903 (d: 68.792)
G1 X34.396 Y-30.506 Z0.330 F1800.000 A45.919 (d: 0.4085)
G1 X-34.396 Y-30.506 Z0.330 F1800.000 A48.575 (d: 68.792)
G1 X-34.396 Y-30.098 Z0.330 F1800.000 A48.591 (d: 0.4085)
G1 X34.396 Y-30.098 Z0.330 F1800.000 A51.248 (d: 68.792)
G1 X34.396 Y-29.689 Z0.330 F1800.000 A51.263 (d: 0.4085)
G1 X-34.396 Y-29.689 Z0.330 F1800.000 A53.920 (d: 68.792)
G1 X-34.396 Y-29.281 Z0.330 F1800.000 A53.935 (d: 0.4085)
G1 X34.396 Y-29.281 Z0.330 F1800.000 A56.592 (d: 68.792)
G1 X34.396 Y-28.872 Z0.330 F1800.000 A56.607 (d: 0.4085)
G1 X-34.396 Y-28.872 Z0.330 F1800.000 A59.264 (d: 68.792)
G1 X-34.396 Y-28.464 Z0.330 F1800.000 A59.280 (d: 0.4085)
G1 X34.396 Y-28.464 Z0.330 F1800.000 A61.936 (d: 68.792)
G1 X34.396 Y-28.056 Z0.330 F1800.000 A61.952 (d: 0.4085)
G1 X-34.396 Y-28.056 Z0.330 F1800.000 A64.608 (d: 68.792)
G1 X-34.396 Y-27.647 Z0.330 F1800.000 A64.624 (d: 0.4085)
G1 X34.396 Y-27.647 Z0.330 F1800.000 A67.280 (d: 68.792)
G1 X34.396 Y-27.239 Z0.330 F1800.000 A67.296 (d: 0.4085)
G1 X-34.396 Y-27.239 Z0.330 F1800.000 A69.952 (d: 68.792)
G1 X-34.396 Y-26.830 Z0.330 F1800.000 A69.968 (d: 0.4085)
G1 X34.396 Y-26.830 Z0.330 F1800.000 A72.624 (d: 68.792)
G1 X34.396 Y-26.422 Z0.330 F1800.000 A72.640 (d: 0.4085)
G1 X-34.396 Y-26.422 Z0.330 F1800.000 A75.296 (d: 68.792)
G1 X-34.396 Y-26.013 Z0.330 F1800.000 A75.312 (d: 0.4085)
G1 X34.396 Y-26.013 Z0.330 F1800.000 A77.968 (d: 68.792)
G1 X34.396 Y-25.605 Z0.330 F1800.000 A77.984 (d: 0.4085)
G1 X-34.396 Y-25.605 Z0.330 F1800.000 A80.640 (d: 68.792)
G1 X-34.396 Y-25.196 Z0.330 F1800.000 A80.656 (d: 0.4085)
G1 X34.396 Y-25.196 Z0.330 F1800.000 A83.313 (d: 68.792)
G1 X34.396 Y-24.788 Z0.330 F1800.000 A83.328 (d: 0.4085)
G1 X-34.396 Y-24.788 Z0.330 F1800.000 A85.985 (d: 68.792)
G1 X-34.396 Y-24.379 Z0.330 F1800.000 A86.000 (d: 0.4085)
G1 X34.396 Y-24.379 Z0.330 F1800.000 A88.657 (d: 68.792)
G1 X34.396 Y-23.971 Z0.330 F1800.000 A88.673 (d: 0.4085)
G1 X-34.396 Y-23.971 Z0.330 F1800.000 A91.329 (d: 68.792)
G1 X-34.396 Y-23.562 Z0.330 F1800.000 A91.345 (d: 0.4085)
G1 X34.396 Y-23.562 Z0.330 F1800.000 A94.001 (d: 68.792)
G1 X34.396 Y-23.154 Z0.330 F1800.000 A94.017 (d: 0.4085)
G1 X-34.396 Y-23.154 Z0.330 F1800.000 A96.673 (d: 68.792)
G1 X-34.396 Y-22.745 Z0.330 F1800.000 A96.689 (d: 0.4085)
G1 X34.396 Y-22.745 Z0.330 F1800.000 A99.345 (d: 68.792)
G1 X34.396 Y-22.337 Z0.330 F1800.000 A99.361 (d: 0.4085)
G1 X-34.396 Y-22.337 Z0.330 F1800.000 A102.017 (d: 68.792)
G1 X-34.396 Y-21.928 Z0.330 F1800.000 A102.033 (d: 0.4085)
G1 X34.396 Y-21.928 Z0.330 F1800.000 A104.689 (d: 68.792)
G1 X34.396 Y-21.520 Z0.330 F1800.000 A104.705 (d: 0.4085)
G1 X-34.396 Y-21.520 Z0.330 F1800.000 A107.361 (d: 68.792)
G1 X-34.396 Y-21.111 Z0.330 F1800.000 A107.377 (d: 0.4085)
G1 X34.396 Y-21.111 Z0.330 F1800.000 A110.033 (d: 68.792)
G1 X34.396 Y-20.703 Z0.330 F1800.000 A110.049 (d: 0.4085)
G1 X-34.396 Y-20.703 Z0.330 F1800.000 A112.705 (d: 68.792)
G1 X-34.396 Y-20.294 Z0.330 F1800.000 A112.721 (d: 0.4085)
G1 X34.396 Y-20.294 Z0.330 F1800.000 A115.378 (d: 68.792)
G1 X34.396 Y-19.886 Z0.330 F1800.000 A115.393 (d: 0.4085)
G1 X-34.396 Y-19.886 Z0.330 F1800.000 A118.050 (d: 68.792)
G1 X-34.396 Y-19.477 Z0.330 F1800.000 A118.065 (d: 0.4085)
G1 X34.396 Y-19.477 Z0.330 F1800.000 A120.722 (d: 68.792)
G1 X34.396 Y-19.069 Z0.330 F1800.000 A120.738 (d: 0.4085)
G1 X-34.396 Y-19.069 Z0.330 F1800.000 A123.394 (d: 68.792)
G1 X-34.396 Y-18.660 Z0.330 F1800.000 A123.410 (d: 0.4085)
G1 X34.396 Y-18.660 Z0.330 F1800.000 A126.066 (d: 68.792)
G1 X34.396 Y-18.252 Z0.330 F1800.000 A126.082 (d: 0.4085)
G1 X-34.396 Y-18.252 Z0.330 F1800.000 A128.738 (d: 68.792)
G1 X-34.396 Y-17.843 Z0.330 F1800.000 A128.754 (d: 0.4085)
G1 X34.396 Y-17.843 Z0.330 F1800.000 A131.410 (d: 68.792)
G1 X34.396 Y-17.434 Z0.330 F1800.000 A131.426 (d: 0.4085)
G1 X-34.396 Y-17.434 Z0.330 F1800.000 A134.082 (d: 68.792)
G1 X-34.396 Y-17.026 Z0.330 F1800.000 A134.098 (d: 0.4085)
G1 X34.396 Y-17.026 Z0.330 F1800.000 A136.754 (d: 68.792)
G1 X34.396 Y-16.617 Z0.330 F1800.000 A136.770 (d: 0.4085)
G1 X-34.396 Y-16.617 Z0.330 F1800.000 A139.426 (d: 68.792)
G1 X-34.396 Y-16.209 Z0.330 F1800.000 A139.442 (d: 0.4085)
G1 X34.396 Y-16.209 Z0.330 F1800.000 A142.098 (d: 68.792)
G1 X34.396 Y-15.801 Z0.330 F1800.000 A142.114 (d: 0.4085)
G1 X-34.396 Y-15.801 Z0.330 F1800.000 A144.771 (d: 68.792)
G1 X-34.396 Y-15.392 Z0.330 F1800.000 A144.786 (d: 0.4085)
G1 X34.396 Y-15.392 Z0.330 F1800.000 A147.443 (d: 68.792)
G1 X34.396 Y-14.984 Z0.330 F1800.000 A147.458 (d: 0.4085)
G1 X-34.396 Y-14.984 Z0.330 F1800.000 A150.115 (d: 68.792)
G1 X-34.396 Y-14.575 Z0.330 F1800.000 A150.130 (d: 0.4085)
G1 X34.396 Y-14.575 Z0.330 F1800.000 A152.787 (d: 68.792)
G1 X34.396 Y-14.167 Z0.330 F1800.000 A152.803 (d: 0.4085)
G1 X-34.396 Y-14.167 Z0.330 F1800.000 A155.459 (d: 68.792)
G1 X-34.396 Y-13.758 Z0.330 F1800.000 A155.475 (d: 0.4085)
G1 X34.396 Y-13.758 Z0.330 F1800.000 A158.131 (d: 68.792)
G1 X34.396 Y-13.350 Z0.330 F1800.000 A158.147 (d: 0.4085)
G1 X-34.396 Y-13.350 Z0.330 F1800.000 A160.803 (d: 68.792)
G1 X-34.396 Y-12.941 Z0.330 F1800.000 A160.819 (d: 0.4085)
G1 X34.396 Y-12.941 Z0.330 F1800.000 A163.475 (d: 68.792)
G1 X34.396 Y-12.533 Z0.330 F1800.000 A163.491 (d: 0.4085)
G1 X-34.396 Y-12.533 Z0.330 F1800.000 A166.147 (d: 68.792)
G1 X-34.396 Y-12.124 Z0.330 F1800.000 A166.163 (d: 0.4085)
G1 X34.396 Y-12.124 Z0.330 F1800.000 A168.819 (d: 68.792)
G1 X34.396 Y-11.716 Z0.330 F1800.000 A168.835 (d: 0.4085)
G1 X-34.396 Y-11.716 Z0.330 F1800.000 A171.491 (d: 68.792)
G1 X-34.396 Y-11.307 Z0.330 F1800.000 A171.507 (d: 0.4085)
G1 X34.396 Y-11.307 Z0.330 F1800.000 A174.163 (d: 68.792)
G1 X34.396 Y-10.899 Z0.330 F1800.000 A174.179 (d: 0.4085)
G1 X-34.396 Y-10.899 Z0.330 F1800.000 A176.836 (d: 68.792)
G1 X-34.396 Y-10.490 Z0.330 F1800.000 A176.851 (d: 0.4085)
G1 X34.396 Y-10.490 Z0.330 F1800.000 A179.508 (d: 68.792)
G1 X34.396 Y-10.082 Z0.330 F1800.000 A179.523 (d: 0.4085)
G1 X-34.396 Y-10.082 Z0.330 F1800.000 A182.180 (d: 68.792)
G1 X-34.396 Y-9.673 Z0.330 F1800.000 A182.196 (d: 0.4085)
G1 X34.396 Y-9.673 Z0.330 F1800.000 A184.852 (d: 68.792)
G1 X34.396 Y-9.265 Z0.330 F1800.000 A184.868 (d: 0.4085)
G1 X-34.396 Y-9.265 Z0.330 F1800.000 A187.524 (d: 68.792)
G1 X-34.396 Y-8.856 Z0.330 F1800.000 A187.540 (d: 0.4085)
G1 X34.396 Y-8.856 Z0.330 F1800.000 A190.196 (d: 68.792)
G1 X34.396 Y-8.448 Z0.330 F1800.000 A190.212 (d: 0.4085)
G1 X-34.396 Y-8.448 Z0.330 F1800.000 A192.868 (d: 68.792)
G1 X-34.396 Y-8.039 Z0.330 F1800.000 A192.884 (d: 0.4085)
G1 X34.396 Y-8.039 Z0.330 F1800.000 A195.540 (d: 68.792)
G1 X34.396 Y-7.631 Z0.330 F1800.000 A195.556 (d: 0.4085)
G1 X-34.396 Y-7.631 Z0.330 F1800.000 A198.212 (d: 68.792)
G1 X-34.396 Y-7.222 Z0.330 F1800.000 A198.228 (d: 0.4085)
G1 X34.396 Y-7.222 Z0.330 F1800.000 A200.884 (d: 68.792)
G1 X34.396 Y-6.814 Z0.330 F1800.000 A200.900 (d: 0.4085)
G1 X-34.396 Y-6.814 Z0.330 F1800.000 A203.556 (d: 68.792)
G1 X-34.396 Y-6.405 Z0.330 F1800.000 A203.572 (d: 0.4085)
G1 X34.396 Y-6.405 Z0.330 F1800.000 A206.229 (d: 68.792)
G1 X34.396 Y-5.997 Z0.330 F1800.000 A206.244 (d: 0.4085)
G1 X-34.396 Y-5.997 Z0.330 F1800.000 A208.901 (d: 68.792)
G1 X-34.396 Y-5.588 Z0.330 F1800.000 A208.916 (d: 0.4085)
G1 X34.396 Y-5.588 Z0.330 F1800.000 A211.573 (d: 68.792)
G1 X34.396 Y-5.180 Z0.330 F1800.000 A211.588 (d: 0.4085)
G1 X-34.396 Y-5.180 Z0.330 F1800.000 A214.245 (d: 68.792)
G1 X-34.396 Y-4.771 Z0.330 F1800.000 A214.261 (d: 0.4085)
G1 X34.396 Y-4.771 Z0.330 F1800.000 A216.917 (d: 68.792)
G1 X34.396 Y-4.363 Z0.330 F1800.000 A216.933 (d: 0.4085)
G1 X-34.396 Y-4.363 Z0.330 F1800.000 A219.589 (d: 68.792)
G1 X-34.396 Y-3.954 Z0.330 F1800.000 A219.605 (d: 0.4085)
G1 X34.396 Y-3.954 Z0.330 F1800.000 A222.261 (d: 68.792)
G1 X34.396 Y-3.546 Z0.330 F1800.000 A222.277 (d: 0.4085)
G1 X-34.396 Y-3.546 Z0.330 F1800.000 A224.933 (d: 68.792)
G1 X-34.396 Y-3.137 Z0.330 F1800.000 A224.949 (d: 0.4085)
G1 X34.396 Y-3.137 Z0.330 F1800.000 A227.605 (d: 68.792)
G1 X34.396 Y-2.729 Z0.330 F1800.000 A227.621 (d: 0.4085)
G1 X-34.396 Y-2.729 Z0.330 F1800.000 A230.277 (d: 68.792)
G1 X-34.396 Y-2.320 Z0.330 F1800.000 A230.293 (d: 0.4085)
G1 X34.396 Y-2.320 Z0.330 F1800.000 A232.949 (d: 68.792)
G1 X34.396 Y-1.912 Z0.330 F1800.000 A232.965 (d: 0.4085)
G1 X-34.396 Y-1.912 Z0.330 F1800.000 A235.621 (d: 68.792)
G1 X-34.396 Y-1.503 Z0.330 F1800.000 A235.637 (d: 0.4085)
G1 X34.396 Y-1.503 Z0.330 F1800.000 A238.294 (d: 68.792)
G1 X34.396 Y-1.095 Z0.330 F1800.000 A238.309 (d: 0.4085)
G1 X-34.396 Y-1.095 Z0.330 F1800.000 A240.966 (d: 68.792)
G1 X-34.396 Y-0.686 Z0.330 F1800.000 A240.981 (d: 0.4085)
G1 X34.396 Y-0.686 Z0.330 F1800.000 A243.638 (d: 68.792)
G1 X34.396 Y-0.278 Z0.330 F1800.000 A243.653 (d: 0.4085)
G1 X-34.396 Y-0.278 Z0.330 F1800.000 A246.310 (d: 68.792)
G1 X-34.396 Y0.131 Z0.330 F1800.000 A246.326 (d: 0.4085)
G1 X34.396 Y0.131 Z0.330 F1800.000 A248.982 (d: 68.792)
G1 X34.396 Y0.539 Z0.330 F1800.000 A248.998 (d: 0.4085)
G1 X-34.396 Y0.539 Z0.330 F1800.000 A251.654 (d: 68.792)
G1 X-34.396 Y0.948 Z0.330 F1800.000 A251.670 (d: 0.4085)
G1 X34.396 Y0.948 Z0.330 F1800.000 A254.326 (d: 68.792)
G1 X34.396 Y1.356 Z0.330 F1800.000 A254.342 (d: 0.4085)
G1 X-34.396 Y1.356 Z0.330 F1800.000 A256.998 (d: 68.792)
G1 X-34.396 Y1.765 Z0.330 F1800.000 A257.014 (d: 0.4085)
G1 X34.396 Y1.765 Z0.330 F1800.000 A259.670 (d: 68.792)
G1 X34.396 Y2.173 Z0.330 F1800.000 A259.686 (d: 0.4085)
G1 X-34.396 Y2.173 Z0.330 F1800.000 A262.342 (d: 68.792)
G1 X-34.396 Y2.582 Z0.330 F1800.000 A262.358 (d: 0.4085)
G1 X34.396 Y2.582 Z0.330 F1800.000 A265.014 (d: 68.792)
G1 X34.396 Y2.990 Z0.330 F1800.000 A265.030 (d: 0.4085)
G1 X-34.396 Y2.990 Z0.330 F1800.000 A267.686 (d: 68.792)
G1 X-34.396 Y3.399 Z0.330 F1800.000 A267.702 (d: 0.4085)
G1 X34.396 Y3.399 Z0.330 F1800.000 A270.359 (d: 68.792)
G1 X34.396 Y3.807 Z0.330 F1800.000 A270.374 (d: 0.4085)
G1 X-34.396 Y3.807 Z0.330 F1800.000 A273.031 (d: 68.792)
G1 X-34.396 Y4.216 Z0.330 F1800.000 A273.046 (d: 0.4085)
G1 X34.396 Y4.216 Z0.330 F1800.000 A275.703 (d: 68.792)
G1 X34.396 Y4.624 Z0.330 F1800.000 A275.719 (d: 0.4085)
G1 X-34.396 Y4.624 Z0.330 F1800.000 A278.375 (d: 68.792)
G1 X-34.396 Y5.033 Z0.330 F1800.000 A278.391 (d: 0.4085)
G1 X34.396 Y5.033 Z0.330 F1800.000 A281.047 (d: 68.792)
G1 X34.396 Y5.441 Z0.330 F1800.000 A281.063 (d: 0.4085)
G1 X-34.396 Y5.441 Z0.330 F1800.000 A283.719 (d: 68.792)
G1 X-34.396 Y5.850 Z0.330 F1800.000 A283.735 (d: 0.4085)
G1 X34.396 Y5.850 Z0.330 F1800.000 A286.391 (d: 68.792)
G1 X34.396 Y6.258 Z0.330 F1800.000 A286.407 (d: 0.4085)
G1 X-34.396 Y6.258 Z0.330 F1800.000 A289.063 (d: 68.792)
G1 X-34.396 Y6.667 Z0.330 F1800.000 A289.079 (d: 0.4085)
G1 X34.396 Y6.667 Z0.330 F1800.000 A291.735 (d: 68.792)
G1 X34.396 Y7.075 Z0.330 F1800.000 A291.751 (d: 0.4085)
G1 X-34.396 Y7.075 Z0.330 F1800.000 A294.407 (d: 68.792)
G1 X-34.396 Y7.484 Z0.330 F1800.000 A294.423 (d: 0.4085)
G1 X34.396 Y7.484 Z0.330 F1800.000 A297.079 (d: 68.792)
G1 X34.396 Y7.892 Z0.330 F1800.000 A297.095 (d: 0.4085)
G1 X-34.396 Y7.892 Z0.330 F1800.000 A299.752 (d: 68.792)
G1 X-34.396 Y8.301 Z0.330 F1800.000 A299.767 (d: 0.4085)
G1 X34.396 Y8.301 Z0.330 F1800.000 A302.424 (d: 68.792)
G1 X34.396 Y8.709 Z0.330 F1800.000 A302.439 (d: 0.4085)
G1 X-34.396 Y8.709 Z0.330 F1800.000 A305.096 (d: 68.792)
G1 X-34.396 Y9.118 Z0.330 F1800.000 A305.111 (d: 0.4085)
G1 X34.396 Y9.118 Z0.330 F1800.000 A307.768 (d: 68.792)
G1 X34.396 Y9.526 Z0.330 F1800.000 A307.784 (d: 0.4085)
G1 X-34.396 Y9.526 Z0.330 F1800.000 A310.440 (d: 68.792)
G1 X-34.396 Y9.935 Z0.330 F1800.000 A310.456 (d: 0.4085)
G1 X34.396 Y9.935 Z0.330 F1800.000 A313.112 (d: 68.792)
G1 X34.396 Y10.343 Z0.330 F1800.000 A313.128 (d: 0.4085)
G1 X-34.396 Y10.343 Z0.330 F1800.000 A315.784 (d: 68.792)
G1 X-34.396 Y10.752 Z0.330 F1800.000 A315.800 (d: 0.4085)
G1 X34.396 Y10.752 Z0.330 F1800.000 A318.456 (d: 68.792)
G1 X34.396 Y11.160 Z0.330 F1800.000 A318.472 (d: 0.4085)
G1 X-34.396 Y11.160 Z0.330 F1800.000 A321.128 (d: 68.792)
G1 X-34.396 Y11.569 Z0.330 F1800.000 A321.144 (d: 0.4085)
G1 X34.396 Y11.569 Z0.330 F1800.000 A323.800 (d: 68.792)
G1 X34.396 Y11.977 Z0.330 F1800.000 A323.816 (d: 0.4085)
G1 X-34.396 Y11.977 Z0.330 F1800.000 A326.472 (d: 68.792)
G1 X-34.396 Y12.386 Z0.330 F1800.000 A326.488 (d: 0.4085)
G1 X34.396 Y12.386 Z0.330 F1800.000 A329.144 (d: 68.792)
G1 X34.396 Y12.794 Z0.330 F1800.000 A329.160 (d: 0.4085)
G1 X-34.396 Y12.794 Z0.330 F1800.000 A331.817 (d: 68.792)
G1 X-34.396 Y13.203 Z0.330 F1800.000 A331.832 (d: 0.4085)
G1 X34.396 Y13.203 Z0.330 F1800.000 A334.489 (d: 68.792)
G1 X34.396 Y13.611 Z0.330 F1800.000 A334.504 (d: 0.4085)
G1 X-34.396 Y13.611 Z0.330 F1800.000 A337.161 (d: 68.792)
G1 X-34.396 Y14.020 Z0.330 F1800.000 A337.176 (d: 0.4085)
G1 X34.396 Y14.020 Z0.330 F1800.000 A339.833 (d: 68.792)
G1 X34.396 Y14.428 Z0.330 F1800.000 A339.849 (d: 0.4085)
G1 X-34.396 Y14.428 Z0.330 F1800.000 A342.505 (d: 68.792)
G1 X-34.396 Y14.837 Z0.330 F1800.000 A342.521 (d: 0.4085)
G1 X34.396 Y14.837 Z0.330 F1800.000 A345.177 (d: 68.792)
G1 X34.396 Y15.245 Z0.330 F1800.000 A345.193 (d: 0.4085)
G1 X-34.396 Y15.245 Z0.330 F1800.000 A347.849 (d: 68.792)
G1 X-34.396 Y15.654 Z0.330 F1800.000 A347.865 (d: 0.4085)
G1 X34.396 Y15.654 Z0.330 F1800.000 A350.521 (d: 68.792)
G1 X34.396 Y16.062 Z0.330 F1800.000 A350.537 (d: 0.4085)
G1 X-34.396 Y16.062 Z0.330 F1800.000 A353.193 (d: 68.792)
G1 X-34.396 Y16.471 Z0.330 F1800.000 A353.209 (d: 0.4085)
G1 X34.396 Y16.471 Z0.330 F1800.000 A355.865 (d: 68.792)
G1 X34.396 Y16.879 Z0.330 F1800.000 A355.881 (d: 0.4085)
G1 X-34.396 Y16.879 Z0.330 F1800.000 A358.537 (d: 68.792)
G1 X-34.396 Y17.288 Z0.330 F1800.000 A358.553 (d: 0.4085)
G1 X34.396 Y17.288 Z0.330 F1800.000 A361.209 (d: 68.792)
G1 X34.396 Y17.696 Z0.330 F1800.000 A361.225 (d: 0.4085)
G1 X-34.396 Y17.696 Z0.330 F1800.000 A363.882 (d: 68.792)
G1 X-34.396 Y18.105 Z0.330 F1800.000 A363.897 (d: 0.4085)
G1 X34.396 Y18.105 Z0.330 F1800.000 A366.554 (d: 68.792)
G1 X34.396 Y18.513 Z0.330 F1800.000 A366.569 (d: 0.4085)
G1 X-34.396 Y18.513 Z0.330 F1800.000 A369.226 (d: 68.792)
G1 X-34.396 Y18.922 Z0.330 F1800.000 A369.242 (d: 0.4085)
G1 X34.396 Y18.922 Z0.330 F1800.000 A371.898 (d: 68.792)
G1 X34.396 Y19.330 Z0.330 F1800.000 A371.914 (d: 0.4085)
G1 X-34.396 Y19.330 Z0.330 F1800.000 A374.570 (d: 68.792)
G1 X-34.396 Y19.739 Z0.330 F1800.000 A374.586 (d: 0.4085)
G1 X34.396 Y19.739 Z0.330 F1800.000 A377.242 (d: 68.792)
G1 X34.396 Y20.147 Z0.330 F1800.000 A377.258 (d: 0.4085)
G1 X-34.396 Y20.147 Z0.330 F1800.000 A379.914 (d: 68.792)
G1 X-34.396 Y20.556 Z0.330 F1800.000 A379.930 (d: 0.4085)
G1 X34.396 Y20.556 Z0.330 F1800.000 A382.586 (d: 68.792)
G1 X34.396 Y20.964 Z0.330 F1800.000 A382.602 (d: 0.4085)
G1 X-34.396 Y20.964 Z0.330 F1800.000 A385.258 (d: 68.792)
G1 X-34.396 Y21.373 Z0.330 F1800.000 A385.274 (d: 0.4085)
G1 X34.396 Y21.373 Z0.330 F1800.000 A387.930 (d: 68.792)
G1 X34.396 Y21.781 Z0.330 F1800.000 A387.946 (d: 0.4085)
G1 X-34.396 Y21.781 Z0.330 F1800.000 A390.602 (d: 68.792)
G1 X-34.396 Y22.190 Z0.330 F1800.000 A390.618 (d: 0.4085)
G1 X34.396 Y22.190 Z0.330 F1800.000 A393.275 (d: 68.792)
G1 X34.396 Y22.598 Z0.330 F1800.000 A393.290 (d: 0.4085)
G1 X-34.396 Y22.598 Z0.330 F1800.000 A395.947 (d: 68.792)
G1 X-34.396 Y23.007 Z0.330 F1800.000 A395.962 (d: 0.4085)
G1 X34.396 Y23.007 Z0.330 F1800.000 A398.619 (d: 68.792)
G1 X34.396 Y23.415 Z0.330 F1800.000 A398.634 (d: 0.4085)
G1 X-34.396 Y23.415 Z0.330 F1800.000 A401.291 (d: 68.792)
G1 X-34.396 Y23.824 Z0.330 F1800.000 A401.307 (d: 0.4085)
G1 X34.396 Y23.824 Z0.330 F1800.000 A403.963 (d: 68.792)
G1 X34.396 Y24.232 Z0.330 F1800.000 A403.979 (d: 0.4085)
G1 X-34.396 Y24.232 Z0.330 F1800.000 A406.635 (d: 68.792)
G1 X-34.396 Y24.641 Z0.330 F1800.000 A406.651 (d: 0.4085)
G1 X34.396 Y24.641 Z0.330 F1800.000 A409.307 (d: 68.792)
G1 X34.396 Y25.049 Z0.330 F1800.000 A409.323 (d: 0.4085)
G1 X-34.396 Y25.049 Z0.330 F1800.000 A411.979 (d: 68.792)
G1 X-34.396 Y25.458 Z0.330 F1800.000 A411.995 (d: 0.4085)
G1 X34.396 Y25.458 Z0.330 F1800.000 A414.651 (d: 68.792)
G1 X34.396 Y25.866 Z0.330 F1800.000 A414.667 (d: 0.4085)
G1 X-34.396 Y25.866 Z0.330 F1800.000 A417.323 (d: 68.792)
G1 X-34.396 Y26.275 Z0.330 F1800.000 A417.339 (d: 0.4085)
G1 X34.396 Y26.275 Z0.330 F1800.000 A419.995 (d: 68.792)
G1 X34.396 Y26.683 Z0.330 F1800.000 A420.011 (d: 0.4085)
G1 X-34.396 Y26.683 Z0.330 F1800.000 A422.667 (d: 68.792)
G1 X-34.396 Y27.092 Z0.330 F1800.000 A422.683 (d: 0.4085)
G1 X34.396 Y27.092 Z0.330 F1800.000 A425.340 (d: 68.792)
G1 X34.396 Y27.500 Z0.330 F1800.000 A425.355 (d: 0.4085)
G1 X-34.396 Y27.500 Z0.330 F1800.000 A428.012 (d: 68.792)
G1 X-34.396 Y27.909 Z0.330 F1800.000 A428.027 (d: 0.4085)
G1 X34.396 Y27.909 Z0.330 F1800.000 A430.684 (d: 68.792)
G1 X34.396 Y28.317 Z0.330 F1800.000 A430.699 (d: 0.4085)
G1 X-34.396 Y28.317 Z0.330 F1800.000 A433.356 (d: 68.792)
G1 X-34.396 Y28.726 Z0.330 F1800.000 A433.372 (d: 0.4085)
G1 X34.396 Y28.726 Z0.330 F1800.000 A436.028 (d: 68.792)
G1 X34.396 Y29.134 Z0.330 F1800.000 A436.044 (d: 0.4085)
G1 X-34.396 Y29.134 Z0.330 F1800.000 A438.700 (d: 68.792)
G1 X-34.396 Y29.543 Z0.330 F1800.000 A438.716 (d: 0.4085)
G1 X34.396 Y29.543 Z0.330 F1800.000 A441.372 (d: 68.792)
G1 X34.396 Y29.951 Z0.330 F1800.000 A441.388 (d: 0.4085)
G1 X-34.396 Y29.951 Z0.330 F1800.000 A444.044 (d: 68.792)
G1 X-34.396 Y30.360 Z0.330 F1800.000 A444.060 (d: 0.4085)
G1 X34.396 Y30.360 Z0.330 F1800.000 A446.716 (d: 68.792)
G1 X34.396 Y30.768 Z0.330 F1800.000 A446.732 (d: 0.4085)
G1 X-34.396 Y30.768 Z0.330 F1800.000 A449.388 (d: 68.792)
G1 X-34.396 Y31.177 Z0.330 F1800.000 A449.404 (d: 0.4085)
G1 X34.396 Y31.177 Z0.330 F1800.000 A452.060 (d: 68.792)
G1 X34.396 Y31.585 Z0.330 F1800.000 A452.076 (d: 0.4085)
G1 X-34.396 Y31.585 Z0.330 F1800.000 A454.732 (d: 68.792)
G1 X-34.396 Y31.994 Z0.330 F1800.000 A454.748 (d: 0.4085)
G1 X34.396 Y31.994 Z0.330 F1800.000 A457.405 (d: 68.792)
G1 X34.396 Y32.402 Z0.330 F1800.000 A457.420 (d: 0.4085)
G1 X-34.396 Y32.402 Z0.330 F1800.000 A460.077 (d: 68.792)
G1 X-34.396 Y32.811 Z0.330 F1800.000 A460.092 (d: 0.4085)
G1 X34.396 Y32.811 Z0.330 F1800.000 A462.749 (d: 68.792)
G1 X34.396 Y33.219 Z0.330 F1800.000 A462.765 (d: 0.4085)
G1 X-34.396 Y33.219 Z0.330 F1800.000 A465.421 (d: 68.792)
G1 X-34.396 Y33.628 Z0.330 F1800.000 A465.437 (d: 0.4085)
G1 X34.396 Y33.628 Z0.330 F1800.000 A468.093 (d: 68.792)
G1 X34.396 Y34.036 Z0.330 F1800.000 A468.109 (d: 0.4085)
G1 X-34.396 Y34.036 Z0.330 F1800.000 A470.765 (d: 68.792)
G1 F798.000 A470.265 (snort)

(Slice 1, 1 Extruder)
G1 Z0.600 F500.000 (move Z)
(insets: 2)
G1 X34.784 Y34.784 Z0.600 F6000.000 (move into position)
G1 F798.000 A470.765 (squirt)
G1 X34.784 Y-34.784 Z0.600 F4800.000 A473.451 (d: 69.568)
G1 X-34.784 Y-34.784 Z0.600 F4800.000 A476.138 (d: 69.568)
G1 X-34.784 Y34.784 Z0.600 F4800.000 A478.824 (d: 69.568)
G1 X34.784 Y34.784 Z0.600 F4800.000 A481.510 (d: 69.568)
G1 F798.000 A481.010 (snort)

G1 X34.396 Y34.396 Z0.600 F6000.000 (move into position)
G1 F798.000 A481.510 (squirt)
G1 X34.396 Y-34.396 Z0.600 F4800.000 A484.166 (d: 68.792)
G1 X-34.396 Y-34.396 Z0.600 F4800.000 A486.823 (d: 68.792)
G1 X-34.396 Y34.396 Z0.600 F4800.000 A489.479 (d: 68.792)
G1 X34.396 Y34.396 Z0.600 F4800.000 A492.135 (d: 68.792)
G1 F798.000 A491.635 (snort)

(infills: 2)
G1 X-33.775 Y-34.396 Z0.600 F6000.000 (move into position)
G1 F798.000 A492.135 (squirt)
G1 X-33.775 Y34.396 Z0.600 F4800.000 A494.792 (d: 68.792)
G1 X-34.183 Y34.396 Z0.600 F4800.000 A494.807 (d: 0.4085)
G1 X-34.183 Y-34.396 Z0.600 F4800.000 A497.464 (d: 68.792)
G1 X-33.366 Y-34.396 Z0.600 F4800.000 A497.495 (d: 0.817)
G1 X-33.366 Y34.396 Z0.600 F4800.000 A500.152 (d: 68.792)
G1 X-32.958 Y34.396 Z0.600 F4800.000 A500.167 (d: 0.4085)
G1 X-32.958 Y-34.396 Z0.600 F4800.000 A502.824 (d: 68.792)
G1 X-32.549 Y-34.396 Z0.600 F4800.000 A502.839 (d: 0.4085)
G1 X-32.549 Y34.396 Z0.600 F4800.000 A505.496 (d: 68.792)
G1 X-32.141 Y34.396 Z0.600 F4800.000 A505.512 (d: 0.4085)
G1 X-32.141 Y-34.396 Z0.600 F4800.000 A508.168 (d: 68.792)
G1 X-31.732 Y-34.396 Z0.600 F4800.000 A508.184 (d: 0.4085)
G1 X-31.732 Y34.396 Z0.600 F4800.000 A510.840 (d: 68.792)
G1 X-31.323 Y34.396 Z0.600 F4800.000 A510.856 (d: 0.4085)
G1 X-31.323 Y-34.396 Z0.600 F4800.000 A513.512 (d: 68.792)
G1 X-30.915 Y-34.396 Z0.600 F4800.000 A513.528 (d: 0.4085)
G1 X-30.915 Y34.396 Z0.600 F4800.000 A516.184 (d: 68.792)
G1 X-30.506 Y34.396 Z0.600 F4800.000 A516.200 (d: 0.4085)
G1 X-30.506 Y-34.396 Z0.600 F4800.000 A518.856 (d: 68.792)
G1 X-30.098 Y-34.396 Z0.600 F4800.000 A518.872 (d: 0.4085)
G1 X-30.098 Y34.396 Z0.600 F4800.000 A521.528 (d: 68.792)
G1 X-29.689 Y34.396 Z0.600 F4800.000 A521.544 (d: 0.4085)
G1 X-29.689 Y-34.396 Z0.600 F4800.000 A524.200 (d: 68.792)
G1 X-29.281 Y-34.396 Z0.600 F4800.000 A524.216 (d: 0.4085)
G1 X-29.281 Y34.396 Z0.600 F4800.000 A526.872 (d: 68.792)
G1 X-28.872 Y34.396 Z0.600 F4800.000 A526.888 (d: 0.4085)
G1 X-28.872 Y-34.396 Z0.600 F4800.000 A529.545 (d: 68.792)
G1 X-28.464 Y-34.396 Z0.600 F4800.000 A529.560 (d: 0.4085)
G1 X-28.464 Y34.396 Z0.600 F4800.000 A532.217 (d: 68.792)
G1 X-28.056 Y34.396 Z0.600 F4800.000 A532.232 (d: 0.4085)
G1 X-28.056 Y-34.396 Z0.600 F4800.000 A534.889 (d: 68.792)
G1 X-27.647 Y-34.396 Z0.600 F4800.000 A534.905 (d: 0.4085)
G1 X-27.647 Y34.396 Z0.600 F4800.000 A537.561 (d: 68.792)
G1 X-27.239 Y34.396 Z0.600 F4800.000 A537.577 (d: 0.4085)
G1 X-27.239 Y-34.396 Z0.600 F4800.000 A540.233 (d: 68.792)
G1 X-26.830 Y-34.396 Z0.600 F4800.000 A540.249 (d: 0.4085)
G1 X-26.830 Y34.396 Z0.600 F4800.000 A542.905 (d: 68.792)
G1 X-26.422 Y34.396 Z0.600 F4800.000 A542.921 (d: 0.4085)
G1 X-26.422 Y-34.396 Z0.600 F4800.000 A545.577 (d: 68.792)
G1 X-26.013 Y-34.396 Z0.600 F4800.000 A545.593 (d: 0.4085)
G1 X-26.013 Y34.396 Z0.600 F4800.000 A548.249 (d: 68.792)
G1 X-25.605 Y34.396 Z0.600 F4800.000 A548.265 (d: 0.4085)
G1 X-25.605 Y-34.396 Z0.600 F4800.000 A550.921 (d: 68.792)
G1 X-25.196 Y-34.396 Z0.600 F4800.000 A550.937 (d: 0.4085)
G1 X-25.196 Y34.396 Z0.600 F4800.000 A553.593 (d: 68.792)
G1 X-24.788 Y34.396 Z0.600 F4800.000 A553.609 (d: 0.4085)
G1 X-24.788 Y-34.396 Z0.600 F4800.000 A556.265 (d: 68.792)
G1 X-24.379 Y-34.396 Z0.600 F4800.000 A556.281 (d: 0.4085)
G1 X-24.379 Y34.396 Z0.600 F4800.000 A558.938 (d: 68.792)
G1 X-23.971 Y34.396 Z0.600 F4800.000 A558.953 (d: 0.4085)
G1 X-23.971 Y-34.396 Z0.600 F4800.000 A561.610 (d: 68.792)
G1 X-23.562 Y-34.396 Z0.600 F4800.000 A561.625 (d: 0.4085)
G1 X-23.562 Y34.396 Z0.600 F4800.000 A564.282 (d: 68.792)
G1 X-23.154 Y34.396 Z0.600 F4800.000 A564.297 (d: 0.4085)
G1 X-23.154 Y-34.396 Z0.600 F4800.000 A566.954 (d: 68.792)
G1 X-22.745 Y-34.396 Z0.600 F4800.000 A566.970 (d: 0.4085)
G1 X-22.745 Y34.396 Z0.600 F4800.000 A569.626 (d: 68.792)
G1 X-22.337 Y34.396 Z0.600 F4800.000 A569.642 (d: 0.4085)
G1 X-22.337 Y-34.396 Z0.600 F4800.000 A572.298 (d: 68.792)
G1 X-21.928 Y-34.396 Z0.600 F4800.000 A572.314 (d: 0.4085)
G1 X-21.928 Y34.396 Z0.600 F4800.000 A574.970 (d: 68.792)
G1 X-21.520 Y34.396 Z0.600 F4800.000 A574.986 (d: 0.4085)
G1 X-21.520 Y-34.396 Z0.600 F4800.000 A577.642 (d: 68.792)
G1 X-21.111 Y-34.396 Z0.600 F4800.000 A577.658 (d: 0.4085)
G1 X-21.111 Y34.396 Z0.600 F4800.000 A580.314 (d: 68.792)
G1 X-20.703 Y34.396 Z0.600 F4800.000 A580.330 (d: 0.4085)
G1 X-20.703 Y-34.396 Z0.600 F4800.000 A582.986 (d: 68.792)
G1 X-20.294 Y-34.396 Z0.600 F4800.000 A583.002 (d: 0.4085)
G1 X-20.294 Y34.396 Z0.600 F4800.000 A585.658 (d: 68.792)
G1 X-19.886 Y34.396 Z0.600 F4800.000 A585.674 (d: 0.4085)
G1 X-19.886 Y-34.396 Z0.600 F4800.000 A588.330 (d: 68.792)
G1 X-19.477 Y-34.396 Z0.600 F4800.000 A588.346 (d: 0.4085)
G1 X-19.477 Y34.396 Z0.600 F4800.000 A591.003 (d: 68.792)
G1 X-19.069 Y34.396 Z0.600 F4800.000 A591.018 (d: 0.4085)
G1 X-19.069 Y-34.396 Z0.600 F4800.000 A593.675 (d: 68.792)
G1 X-18.660 Y-34.396 Z0.600 F4800.000 A593.690 (d: 0.4085)
G1 X-18.660 Y34.396 Z0.600 F4800.000 A596.347 (d: 68.792)
G1 X-18.252 Y34.396 Z0.600 F4800.000 A596.362 (d: 0.4085)
G1 X-18.252 Y-34.396 Z0.600 F4800.000 A599.019 (d: 68.792)
G1 X-17.843 Y-34.396 Z0.600 F4800.000 A599.035 (d: 0.4085)
G1 X-17.843 Y34.396 Z0.600 F4800.000 A601.691 (d: 68.792)
G1 X-17.434 Y34.396 Z0.600 F4800.000 A601.707 (d: 0.4085)
G1 X-17.434 Y-34.396 Z0.600 F4800.000 A604.363 (d: 68.792)
G1 X-17.026 Y-34.396 Z0.600 F4800.000 A604.379 (d: 0.4085)
G1 X-17.026 Y34.396 Z0.600 F4800.000 A607.035 (d: 68.792)
G1 X-16.617 Y34.396 Z0.600 F4800.000 A607.051 (d: 0.4085)
G1 X-16.617 Y-34.396 Z0.600 F4800.000 A609.707 (d: 68.792)
G1 X-16.209 Y-34.396 Z0.600 F4800.000 A609.723 (d: 0.4085)
G1 X-16.209 Y34.396 Z0.600 F4800.000 A612.379 (d: 68.792)
G1 X-15.801 Y34.396 Z0.600 F4800.000 A612.395 (d: 0.4085)
G1 X-15.801 Y-34.396 Z0.600 F4800.000 A615.051 (d: 68.792)
G1 X-15.392 Y-34.396 Z0.600 F4800.000 A615.067 (d: 0.4085)
G1 X-15.392 Y34.396 Z0.600 F4800.000 A617.723 (d: 68.792)
G1 X-14.984 Y34.396 Z0.600 F4800.000 A617.739 (d: 0.4085)
G1 X-14.984 Y-34.396 Z0.600 F4800.000 A620.395 (d: 68.792)
G1 X-14.575 Y-34.396 Z0.600 F4800.000 A620.411 (d: 0.4085)
G1 X-14.575 Y34.396 Z0.600 F4800.000 A623.068 (d: 68.792)
G1 X-14.167 Y34.396 Z0.600 F4800.000 A623.083 (d: 0.4085)
G1 X-14.167 Y-34.396 Z0.600 F4800.000 A625.740 (d: 68.792)
G1 X-13.758 Y-34.396 Z0.600 F4800.000 A625.755 (d: 0.4085)
G1 X-13.758 Y34.396 Z0.600 F4800.000 A628.412 (d: 68.792)
G1 X-13.350 Y34.396 Z0.600 F4800.000 A628.428 (d: 0.4085)
G1 X-13.350 Y-34.396 Z0.600 F4800.000 A631.084 (d: 68.792)
G1 X-12.941 Y-34.396 Z0.600 F4800.000 A631.100 (d: 0.4085)
G1 X-12.941 Y34.396 Z0.600 F4800.000 A633.756 (d: 68.792)
G1 X-12.533 Y34.396 Z0.600 F4800.000 A633.772 (d: 0.4085)
G1 X-12.533 Y-34.396 Z0.600 F4800.000 A636.428 (d: 68.792)
G1 X-12.124 Y-34.396 Z0.600 F4800.000 A636.444 (d: 0.4085)
G1 X-12.124 Y34.396 Z0.600 F4800.000 A639.100 (d: 68.792)
G1 X-11.716 Y34.396 Z0.600 F4800.000 A639.116 (d: 0.4085)
G1 X-11.716 Y-34.396 Z0.600 F4800.000 A641.772 (d: 68.792)
G1 X-11.307 Y-34.396 Z0.600 F4800.000 A641.788 (d: 0.4085)
G1 X-11.307 Y34.396 Z0.600 F4800.000 A644.444 (d: 68.792)
G1 X-10.899 Y34.396 Z0.600 F4800.000 A644.460 (d: 0.4085)
G1 X-10.899 Y-34.396 Z0.600 F4800.000 A647.116 (d: 68.792)
G1 X-10.490 Y-34.396 Z0.600 F4800.000 A647.132 (d: 0.4085)
G1 X-10.490 Y34.396 Z0.600 F4800.000 A649.788 (d: 68.792)
G1 X-10.082 Y34.396 Z0.600 F4800.000 A649.804 (d: 0.4085)
G1 X-10.082 Y-34.396 Z0.600 F4800.000 A652.461 (d: 68.792)
G1 X-9.673 Y-34.396 Z0.600 F4800.000 A652.476 (d: 0.4085)
G1 X-9.673 Y34.396 Z0.600 F4800.000 A655.133 (d: 68.792)
G1 X-9.265 Y34.396 Z0.600 F4800.000 A655.148 (d: 0.4085)
G1 X-9.265 Y-34.396 Z0.600 F4800.000 A657.805 (d: 68.792)
G1 X-8.856 Y-34.396 Z0.600 F4800.000 A657.820 (d: 0.4085)
G1 X-8.856 Y34.396 Z0.600 F4800.000 A660.477 (d: 68.792)
G1 X-8.448 Y34.396 Z0.600 F4800.000 A660.493 (d: 0.4085)
G1 X-8.448 Y-34.396 Z0.600 F4800.000 A663.149 (d: 68.792)
G1 X-8.039 Y-34.396 Z0.600 F4800.000 A663.165 (d: 0.4085)
G1 X-8.039 Y34.396 Z0.600 F4800.000 A665.821 (d: 68.792)
G1 X-7.631 Y34.396 Z0.600 F4800.000 A665.837 (d: 0.4085)
G1 X-7.631 Y-34.396 Z0.600 F4800.000 A668.493 (d: 68.792)
G1 X-7.222 Y-34.396 Z0.600 F4800.000 A668.509 (d: 0.4085)
G1 X-7.222 Y34.396 Z0.600 F4800.000 A671.165 (d: 68.792)
G1 X-6.814 Y34.396 Z0.600 F4800.000 A671.181 (d: 0.4085)
G1 X-6.814 Y-34.396 Z0.600 F4800.000 A673.837 (d: 68.792)
G1 X-6.405 Y-34.396 Z0.600 F4800.000 A673.853 (d: 0.4085)
G1 X-6.405 Y34.396 Z0.600 F4800.000 A676.509 (d: 68.792)
G1 X-5.997 Y34.396 Z0.600 F4800.000 A676.525 (d: 0.4085)
G1 X-5.997 Y-34.396 Z0.600 F4800.000 A679.181 (d: 68.792)
G1 X-5.588 Y-34.396 Z0.600 F4800.000 A679.197 (d: 0.4085)
G1 X-5.588 Y34.396 Z0.600 F4800.000 A681.853 (d: 68.792)
G1 X-5.180 Y34.396 Z0.600 F4800.000 A681.869 (d: 0.4085)
G1 X-5.180 Y-34.396 Z0.600 F4800.000 A684.526 (d: 68.792)
G1 X-4.771 Y-34.396 Z0.600 F4800.000 A684.541 (d: 0.4085)
G1 X-4.771 Y34.396 Z0.600 F4800.000 A687.198 (d: 68.792)
G1 X-4.363 Y34.396 Z0.600 F4800.000 A687.213 (d: 0.4085)
G1 X-4.363 Y-34.396 Z0.600 F4800.000 A689.870 (d: 68.792)
G1 X-3.954 Y-34.396 Z0.600 F4800.000 A689.885 (d: 0.4085)
G1 X-3.954 Y34.396 Z0.600 F4800.000 A692.542 (d: 68.792)
G1 X-3.546 Y34.396 Z0.600 F4800.000 A692.558 (d: 0.4085)
G1 X-3.546 Y-34.396 Z0.600 F4800.000 A695.214 (d: 68.792)
G1 X-3.137 Y-34.396 Z0.600 F4800.000 A695.230 (d: 0.4085)
G1 X-3.137 Y34.396 Z0.600 F4800.000 A697.886 (d: 68.792)
G1 X-2.729 Y34.396 Z0.600 F4800.000 A697.902 (d: 0.4085)
G1 X-2.729 Y-34.396 Z0.600 F4800.000 A700.558 (d: 68.792)
G1 X-2.320 Y-34.396 Z0.600 F4800.000 A700.574 (d: 0.4085)
G1 X-2.320 Y34.396 Z0.600 F4800.000 A703.230 (d: 68.792)
G1 X-1.912 Y34.396 Z0.600 F4800.000 A703.246 (d: 0.4085)
G1 X-1.912 Y-34.396 Z0.600 F4800.000 A705.902 (d: 68.792)
G1 X-1.503 Y-34.396 Z0.600 F4800.000 A705.918 (d: 0.4085)
G1 X-1.503 Y34.396 Z0.600 F4800.000 A708.574 (d: 68.792)
G1 X-1.095 Y34.396 Z0.600 F4800.000 A708.590 (d: 0.4085)
G1 X-1.095 Y-34.396 Z0.600 F4800.000 A711.246 (d: 68.792)
G1 X-0.686 Y-34.396 Z0.600 F4800.000 A711.262 (d: 0.4085)
G1 X-0.686 Y34.396 Z0.600 F4800.000 A713.918 (d: 68.792)
G1 X-0.278 Y34.396 Z0.600 F4800.000 A713.934 (d: 0.4085)
G1 X-0.278 Y-34.396 Z0.600 F4800.000 A716.591 (d: 68.792)
G1 X0.131 Y-34.396 Z0.600 F4800.000 A716.606 (d: 0.4085)
G1 X0.131 Y34.396 Z0.600 F4800.000 A719.263 (d: 68.792)
G1 F798.000 A718.763 (snort)

G1 X0.539 Y34.396 Z0.600 F6000.000 (move into position)
G1 F798.000 A719.263 (squirt)
G1 X0.539 Y-34.396 Z0.600 F4800.000 A721.919 (d: 68.792)
G1 X0.948 Y-34.396 Z0.600 F4800.000 A721.935 (d: 0.4085)
G1 X0.948 Y34.396 Z0.600 F4800.000 A724.591 (d: 68.792)
G1 X1.356 Y34.396 Z0.600 F4800.000 A724.607 (d: 0.4085)
G1 X1.356 Y-34.396 Z0.600 F4800.000 A727.263 (d: 68.792)
G1 X1.765 Y-34.396 Z0.600 F4800.000 A727.279 (d: 0.4085)
G1 X1.765 Y34.396 Z0.600 F4800.000 A729.935 (d: 68.792)
G1 X2.173 Y34.396 Z0.600 F4800.000 A729.951 (d: 0.4085)
G1 X2.173 Y-34.396 Z0.600 F4800.000 A732.607 (d: 68.792)
G1 X2.582 Y-34.396 Z0.600 F4800.000 A732.623 (d: 0.4085)
G1 X2.582 Y34.396 Z0.600 F4800.000 A735.279 (d: 68.792)
G1 X2.990 Y34.396 Z0.600 F4800.000 A735.295 (d: 0.4085)
G1 X2.990 Y-34.396 Z0.600 F4800.000 A737.951 (d: 68.792)
G1 X3.399 Y-34.396 Z0.600 F4800.000 A737.967 (d: 0.4085)
G1 X3.399 Y34.396 Z0.600 F4800.000 A740.624 (d: 68.792)
G1 X3.807 Y34.396 Z0.600 F4800.000 A740.639 (d: 0.4085)
G1 X3.807 Y-34.396 Z0.600 F4800.000 A743.296 (d: 68.792)
G1 X4.216 Y-34.396 Z0.600 F4800.000 A743.311 (d: 0.4085)
G1 X4.216 Y34.396 Z0.600 F4800.000 A745.968 (d: 68.792)
G1 X4.624 Y34.396 Z0.600 F4800.000 A745.984 (d: 0.4085)
G1 X4.624 Y-34.396 Z0.600 F4800.000 A748.640 (d: 68.792)
G1 X5.033 Y-34.396 Z0.600 F4800.000 A748.656 (d: 0.4085)
G1 X5.033 Y34.396 Z0.600 F4800.000 A751.312 (d: 68.792)
G1 X5.441 Y34.396 Z0.600 F4800.000 A751.328 (d: 0.4085)
G1 X5.441 Y-34.396 Z0.600 F4800.000 A753.984 (d: 68.792)
G1 X5.850 Y-34.396 Z0.600 F4800.000 A754.000 (d: 0.4085)
G1 X5.850 Y34.396 Z0.600 F4800.000 A756.656 (d: 68.792)
G1 X6.258 Y34.396 Z0.600 F4800.000 A756.672 (d: 0.4085)
G1 X6.258 Y-34.396 Z0.600 F4800.000 A759.328 (d: 68.792)
G1 X6.667 Y-34.396 Z0.600 F4800.000 A759.344 (d: 0.4085)
G1 X6.667 Y34.396 Z0.600 F4800.000 A762.000 (d: 68.792)
G1 X7.075 Y34.396 Z0.600 F4800.000 A762.016 (d: 0.4085)
G1 X7.075 Y-34.396 Z0.600 F4800.000 A764.672 (d: 68.792)
G1 X7.484 Y-34.396 Z0.600 F4800.000 A764.688 (d: 0.4085)
G1 X7.484 Y34.396 Z0.600 F4800.000 A767.344 (d: 68.792)
G1 X7.892 Y34.396 Z0.600 F4800.000 A767.360 (d: 0.4085)
G1 X7.892 Y-34.396 Z0.600 F4800.000 A770.017 (d: 68.792)
G1 X8.301 Y-34.396 Z0.600 F4800.000 A770.032 (d: 0.4085)
G1 X8.301 Y34.396 Z0.600 F4800.000 A772.689 (d: 68.792)
G1 X8.709 Y34.396 Z0.600 F4800.000 A772.704 (d: 0.4085)
G1 X8.709 Y-34.396 Z0.600 F4800.000 A775.361 (d: 68.792)
G1 X9.118 Y-34.396 Z0.600 F4800.000 A775.376 (d: 0.4085)
G1 X9.118 Y34.396 Z0.600 F4800.000 A778.033 (d: 68.792)
G1 X9.526 Y34.396 Z0.600 F4800.000 A778.049 (d: 0.4085)
G1 X9.526 Y-34.396 Z0.600 F4800.000 A780.705 (d: 68.792)
G1 X9.935 Y-34.396 Z0.600 F4800.000 A780.721 (d: 0.4085)
G1 X9.935 Y34.396 Z0.600 F4800.000 A783.377 (d: 68.792)
G1 X10.343 Y34.396 Z0.600 F4800.000 A783.393 (d: 0.4085)
G1 X10.343 Y-34.396 Z0.600 F4800.000 A786.049 (d: 68.792)
G1 X10.752 Y-34.396 Z0.600 F4800.000 A786.065 (d: 0.4085)
G1 X10.752 Y34.396 Z0.600 F4800.000 A788.721 (d: 68.792)
G1 X11.160 Y34.396 Z0.600 F4800.000 A788.737 (d: 0.4085)
G1 X11.160 Y-34.396 Z0.600 F4800.000 A791.393 (d: 68.792)
G1 X11.569 Y-34.396 Z0.600 F4800.000 A791.409 (d: 0.4085)
G1 X11.569 Y34.396 Z0.600 F4800.000 A794.065 (d: 68.792)
G1 X11.977 Y34.396 Z0.600 F4800.000 A794.081 (d: 0.4085)
G1 X11.977 Y-34.396 Z0.600 F4800.000 A796.737 (d: 68.792)
G1 X12.386 Y-34.396 Z0.600 F4800.000 A796.753 (d: 0.4085)
G1 X12.386 Y34.396 Z0.600 F4800.000 A799.409 (d: 68.792)
G1 X12.794 Y34.396 Z0.600 F4800.000 A799.425 (d: 0.4085)
G1 X12.794 Y-34.396 Z0.600 F4800.000 A802.082 (d: 68.792)
G1 X13.203 Y-34.396 Z0.600 F4800.000 A802.097 (d: 0.4085)
G1 X13.203 Y34.396 Z0.600 F4800.000 A804.754 (d: 68.792)
G1 X13.611 Y34.396 Z0.600 F4800.000 A804.769 (d: 0.4085)
G1 X13.611 Y-34.396 Z0.600 F4800.000 A807.426 (d: 68.792)
G1 X14.020 Y-34.396 Z0.600 F4800.000 A807.441 (d: 0.4085)
G1 X14.020 Y34.396 Z0.600 F4800.000 A810.098 (d: 68.792)
G1 X14.428 Y34.396 Z0.600 F4800.000 A810.114 (d: 0.4085)
G1 X14.428 Y-34.396 Z0.600 F4800.000 A812.770 (d: 68.792)
G1 X14.837 Y-34.396 Z0.600 F4800.000 A812.786 (d: 0.4085)
G1 X14.837 Y34.396 Z0.600 F4800.000 A815.442 (d: 68.792)
G1 X15.245 Y34.396 Z0.600 F4800.000 A815.458 (d: 0.4085)
G1 X15.245 Y-34.396 Z0.600 F4800.000 A818.114 (d: 68.792)
G1 X15.654 Y-34.396 Z0.600 F4800.000 A818.130 (d: 0.4085)
G1 X15.654 Y34.396 Z0.600 F4800.000 A820.786 (d: 68.792)
G1 X16.062 Y34.396 Z0.600 F4800.000 A820.802 (d: 0.4085)
G1 X16.062 Y-34.396 Z0.600 F4800.000 A823.458 (d: 68.792)
G1 X16.471 Y-34.396 Z0.600 F4800.000 A823.474 (d: 0.4085)
G1 X16.471 Y34.396 Z0.600 F4800.000 A826.130 (d: 68.792)
G1 X16.879 Y34.396 Z0.600 F4800.000 A826.146 (d: 0.4085)
G1 X16.879 Y-34.396 Z0.600 F4800.000 A828.802 (d: 68.792)
G1 X17.288 Y-34.396 Z0.600 F4800.000 A828.818 (d: 0.4085)
G1 X17.288 Y34.396 Z0.600 F4800.000 A831.474 (d: 68.792)
G1 X17.696 Y34.396 Z0.600 F4800.000 A831.490 (d: 0.4085)
G1 X17.696 Y-34.396 Z0.600 F4800.000 A834.147 (d: 68.792)
G1 X18.105 Y-34.396 Z0.600 F4800.000 A834.162 (d: 0.4085)
G1 X18.105 Y34.396 Z0.600 F4800.000 A836.819 (d: 68.792)
G1 X18.513 Y34.396 Z0.600 F4800.000 A836.834 (d: 0.4085)
G1 X18.513 Y-34.396 Z0.600 F4800.000 A839.491 (d: 68.792)
G1 X18.922 Y-34.396 Z0.600 F4800.000 A839.507 (d: 0.4085)
G1 X18.922 Y34.396 Z0.600 F4800.000 A842.163 (d: 68.792)
G1 X19.330 Y34.396 Z0.600 F4800.000 A842.179 (d: 0.4085)
G1 X19.330 Y-34.396 Z0.600 F4800.000 A844.835 (d: 68.792)
G1 X19.739 Y-34.396 Z0.600 F4800.000 A844.851 (d: 0.4085)
G1 X19.739 Y34.396 Z0.600 F4800.000 A847.507 (d: 68.792)
G1 X20.147 Y34.396 Z0.600 F4800.000 A847.523 (d: 0.4085)
G1 X20.147 Y-34.396 Z0.600 F4800.000 A850.179 (d: 68.792)
G1 X20.556 Y-34.396 Z0.600 F4800.000 A850.195 (d: 0.4085)
G1 X20.556 Y34.396 Z0.600 F4800.000 A852.851 (d: 68.792)
G1 X20.964 Y34.396 Z0.600 F4800.000 A852.867 (d: 0.4085)
G1 X20.964 Y-34.396 Z0.600 F4800.000 A855.523 (d: 68.792)
G1 X21.373 Y-34.396 Z0.600 F4800.000 A855.539 (d: 0.4085)
G1 X21.373 Y34.396 Z0.600 F4800.000 A858.195 (d: 68.792)
G1 X21.781 Y34.396 Z0.600 F4800.000 A858.211 (d: 0.4085)
G1 X21.781 Y-34.396 Z0.600 F4800.000 A860.867 (d: 68.792)
G1 X22.190 Y-34.396 Z0.600 F4800.000 A860.883 (d: 0.4085)
G1 X22.190 Y34.396 Z0.600 F4800.000 A863.540 (d: 68.792)
G1 X22.598 Y34.396 Z0.600 F4800.000 A863.555 (d: 0.4085)
G1 X22.598 Y-34.396 Z0.600 F4800.000 A866.212 (d: 68.792)
G1 X23.007 Y-34.396 Z0.600 F4800.000 A866.227 (d: 0.4085)
G1 X23.007 Y34.396 Z0.600 F4800.000 A868.884 (d: 68.792)
G1 X23.415 Y34.396 Z0.600 F4800.000 A868.899 (d: 0.4085)
G1 X23.415 Y-34.396 Z0.600 F4800.000 A871.556 (d: 68.792)
G1 X23.824 Y-34.396 Z0.600 F4800.000 A871.572 (d: 0.4085)
G1 X23.824 Y34.396 Z0.600 F4800.000 A874.228 (d: 68.792)
G1 X24.232 Y34.396 Z0.600 F4800.000 A874.244 (d: 0.4085)
G1 X24.232 Y-34.396 Z0.600 F4800.000 A876.900 (d: 68.792)
G1 X24.641 Y-34.396 Z0.600 F4800.000 A876.916 (d: 0.4085)
G1 X24.641 Y34.396 Z0.600 F4800.000 A879.572 (d: 68.792)
G1 X25.049 Y34.396 Z0.600 F4800.000 A879.588 (d: 0.4085)
G1 X25.049 Y-34.396 Z0.600 F4800.000 A882.244 (d: 68.792)
G1 X25.458 Y-34.396 Z0.600 F4800.000 A882.260 (d: 0.4085)
G1 X25.458 Y34.396 Z0.600 F4800.000 A884.916 (d: 68.792)
G1 X25.866 Y34.396 Z0.600 F4800.000 A884.932 (d: 0.4085)
G1 X25.866 Y-34.396 Z0.600 F4800.000 A887.588 (d: 68.792)
G1 X26.275 Y-34.396 Z0.600 F4800.000 A887.604 (d: 0.4085)
G1 X26.275 Y34.396 Z0.600 F4800.000 A890.260 (d: 68.792)
G1 X26.683 Y34.396 Z0.600 F4800.000 A890.276 (d: 0.4085)
G1 X26.683 Y-34.396 Z0.600 F4800.000 A892.932 (d: 68.792)
G1 X27.092 Y-34.396 Z0.600 F4800.000 A892.948 (d: 0.4085)
G1 X27.092 Y34.396 Z0.600 F4800.000 A895.605 (d: 68.792)
G1 X27.500 Y34.396 Z0.600 F4800.000 A895.620 (d: 0.4085)
G1 X27.500 Y-34.396 Z0.600 F4800.000 A898.277 (d: 68.792)
G1 X27.909 Y-34.396 Z0.600 F4800.000 A898.292 (d: 0.4085)
G1 X27.909 Y34.396 Z0.600 F4800.000 A900.949 (d: 68.792)
G1 X28.317 Y34.396 Z0.600 F4800.000 A900.964 (d: 0.4085)
G1 X28.317 Y-34.396 Z0.600 F4800.000 A903.621 (d: 68.792)
G1 X28.726 Y-34.396 Z0.600 F4800.000 A903.637 (d: 0.4085)
G1 X28.726 Y34.396 Z0.600 F4800.000 A906.293 (d: 68.792)
G1 X29.134 Y34.396 Z0.600 F4800.000 A906.309 (d: 0.4085)
G1 X29.134 Y-34.396 Z0.600 F4800.000 A908.965 (d: 68.792)
G1 X29.543 Y-34.396 Z0.600 F4800.000 A908.981 (d: 0.4085)
G1 X29.543 Y34.396 Z0.600 F4800.000 A911.637 (d: 68.792)
G1 X29.951 Y34.396 Z0.600 F4800.000 A911.653 (d: 0.4085)
G1 X29.951 Y-34.396 Z0.600 F4800.000 A914.309 (d: 68.792)
G1 X30.360 Y-34.396 Z0.600 F4800.000 A914.325 (d: 0.4085)
G1 X30.360 Y34.396 Z0.600 F4800.000 A916.981 (d: 68.792)
G1 X30.768 Y34.396 Z0.600 F4800.000 A916.997 (d: 0.4085)
G1 X30.768 Y-34.396 Z0.600 F4800.000 A919.653 (d: 68.792)
G1 X31.177 Y-34.396 Z0.600 F4800.000 A919.669 (d: 0.4085)
G1 X31.177 Y34.396 Z0.600 F4800.000 A922.325 (d: 68.792)
G1 X31.585 Y34.396 Z0.600 F4800.000 A922.341 (d: 0.4085)
G1 X31.585 Y-34.396 Z0.600 F4800.000 A924.997 (d: 68.792)
G1 X31.994 Y-34.396 Z0.600 F4800.000 A925.013 (d: 0.4085)
G1 X31.994 Y34.396 Z0.600 F4800.000 A927.670 (d: 68.792)
G1 X32.402 Y34.396 Z0.600 F4800.000 A927.685 (d: 0.4085)
G1 X32.402 Y-34.396 Z0.600 F4800.000 A930.342 (d: 68.792)
G1 X32.811 Y-34.396 Z0.600 F4800.000 A930.357 (d: 0.4085)
G1 X32.811 Y34.396 Z0.600 F4800.000 A933.014 (d: 68.792)
G1 X33.219 Y34.396 Z0.600 F4800.000 A933.030 (d: 0.4085)
G1 X33.219 Y-34.396 Z0.600 F4800.000 A935.686 (d: 68.792)
G1 X33.628 Y-34.396 Z0.600 F4800.000 A935.702 (d: 0.4085)
G1 X33.628 Y34.396 Z0.600 F4800.000 A938.358 (d: 68.792)
G1 X34.036 Y34.396 Z0.600 F4800.000 A938.374 (d: 0.4085)
G1 X34.036 Y-34.396 Z0.600 F4800.000 A941.030 (d: 68.792)
G1 F798.000 A940.530 (snort)

(Slice 2, 1 Extruder)
G1 Z0.870 F500.000 (move Z)
(insets: 2)
G1 X34.784 Y34.784 Z0.870 F6000.000 (move into position)
G1 F798.000 A941.030 (squirt)
G1 X34.784 Y-34.784 Z0.870 F4800.000 A943.716 (d: 69.568)
G1 X-34.784 Y-34.784 Z0.870 F4800.000 A946.403 (d: 69.568)
G1 X-34.784 Y34.784 Z0.870 F4800.000 A949.089 (d: 69.568)
G1 X34.784 Y34.784 Z0.870 F4800.000 A951.775 (d: 69.568)
G1 F798.000 A951.275 (snort)

G1 X34.396 Y34.396 Z0.870 F6000.000 (move into position)
G1 F798.000 A951.775 (squirt)
G1 X34.396 Y-34.396 Z0.870 F4800.000 A954.431 (d: 68.792)
G1 X-34.396 Y-34.396 Z0.870 F4800.000 A957.088 (d: 68.792)
G1 X-34.396 Y34.396 Z0.870 F4800.000 A959.744 (d: 68.792)
G1 X34.396 Y34.396 Z0.870 F4800.000 A962.400 (d: 68.792)
G1 F798.000 A961.900 (snort)

(infills: 2)
G1 X-34.396 Y-33.775 Z0.870 F6000.000 (move into position)
G1 F798.000 A962.400 (squirt)
G1 X34.396 Y-33.775 Z0.870 F4800.000 A965.057 (d: 68.792)
G1 F798.000 A964.557 (snort)

G1 X34.396 Y-34.183 Z0.870 F6000.000 (move into position)
G1 F798.000 A965.057 (squirt)
G1 X-34.396 Y-34.183 Z0.870 F4800.000 A967.713 (d: 68.792)
G1 X-34.396 Y-33.366 Z0.870 F4800.000 A967.745 (d: 0.817)
G1 X34.396 Y-33.366 Z0.870 F4800.000 A970.401 (d: 68.792)
G1 X34.396 Y-32.958 Z0.870 F4800.000 A970.417 (d: 0.4085)
G1 X-34.396 Y-32.958 Z0.870 F4800.000 A973.073 (d: 68.792)
G1 X-34.396 Y-32.549 Z0.870 F4800.000 A973.089 (d: 0.4085)
G1 X34.396 Y-32.549 Z0.870 F4800.000 A975.745 (d: 68.792)
G1 X34.396 Y-32.141 Z0.870 F4800.000 A975.761 (d: 0.4085)
G1 X-34.396 Y-32.141 Z0.870 F4800.000 A978.417 (d: 68.792)
G1 X-34.396 Y-31.732 Z0.870 F4800.000 A978.433 (d: 0.4085)
G1 X34.396 Y-31.732 Z0.870 F4800.000 A981.089 (d: 68.792)
G1 X34.396 Y-31.323 Z0.870 F4800.000 A981.105 (d: 0.4085)
G1 X-34.396 Y-31.323 Z0.870 F4800.000 A983.761 (d: 68.792)
G1 X-34.396 Y-30.915 Z0.870 F4800.000 A983.777 (d: 0.4085)
G1 X34.396 Y-30.915 Z0.870 F4800.000 A986.433 (d: 68.792)
G1 X34.396 Y-30.506 Z0.870 F4800.000 A986.449 (d: 0.4085)
G1 X-34.396 Y-30.506 Z0.870 F4800.000 A989.105 (d: 68.792)
G1 X-34.396 Y-30.098 Z0.870 F4800.000 A989.121 (d: 0.4085)
G1 X34.396 Y-30.098 Z0.870 F4800.000 A991.778 (d: 68.792)
G1 X34.396 Y-29.689 Z0.870 F4800.000 A991.793 (d: 0.4085)
G1 X-34.396 Y-29.689 Z0.870 F4800.000 A994.450 (d: 68.792)
G1 X-34.396 Y-29.281 Z0.870 F4800.000 A994.465 (d: 0.4085)
G1 X34.396 Y-29.281 Z0.870 F4800.000 A997.122 (d: 68.792)
G1 X34.396 Y-28.872 Z0.870 F4800.000 A997.137 (d: 0.4085)
G1 X-34.396 Y-28.872 Z0.870 F4800.000 A999.794 (d: 68.792)
G1 X-34.396 Y-28.464 Z0.870 F4800.000 A999.810 (d: 0.4085)
G1 X34.396 Y-28.464 Z0.870 F4800.000 A1002.466 (d: 68.792)
G1 X34.396 Y-28.056 Z0.870 F4800.000 A1002.482 (d: 0.4085)
G1 X-34.396 Y-28.056 Z0.870 F4800.000 A1005.138 (d: 68.792)
G1 X-34.396 Y-27.647 Z0.870 F4800.000 A1005.154 (d: 0.4085)
G1 X34.396 Y-27.647 Z0.870 F4800.000 A1007.810 (d: 68.792)
G1 X34.396 Y-27.239 Z0.870 F4800.000 A1007.826 (d: 0.4085)
G1 X-34.396 Y-27.239 Z0.870 F4800.000 A1010.482 (d: 68.792)
G1 X-34.396 Y-26.830 Z0.870 F4800.000 A1010.498 (d: 0.4085)
G1 X34.396 Y-26.830 Z0.870 F4800.000 A1013.154 (d: 68.792)
G1 X34.396 Y-26.422 Z0.870 F4800.000 A1013.170 (d: 0.4085)
G1 X-34.396 Y-26.422 Z0.870 F4800.000 A1015.826 (d: 68.792)
G1 X-34.396 Y-26.013 Z0.870 F4800.000 A1015.842 (d: 0.4085)
G1 X34.396 Y-26.013 Z0.870 F4800.000 A1018.498 (d: 68.792)
G1 X34.396 Y-25.605 Z0.870 F4800.000 A1018.514 (d: 0.4085)
G1 X-34.396 Y-25.605 Z0.870 F4800.000 A1021.170 (d: 68.792)
G1 X-34.396 Y-25.196 Z0.870 F4800.000 A1021.186 (d: 0.4085)
G1 X34.396 Y-25.196 Z0.870 F4800.000 A1023.843 (d: 68.792)
G1 X34.396 Y-24.788 Z0.870 F4800.000 A1023.858 (d: 0.4085)
G1 X-34.396 Y-24.788 Z0.870 F4800.000 A1026.515 (d: 68.792)
G1 X-34.396 Y-24.379 Z0.870 F4800.000 A1026.530 (d: 0.4085)
G1 X34.396 Y-24.379 Z0.870 F4800.000 A1029.187 (d: 68.792)
G1 X34.396 Y-23.971 Z0.870 F4800.000 A1029.203 (d: 0.4085)
G1 X-34.396 Y-23.971 Z0.870 F4800.000 A1031.859 (d: 68.792)
G1 X-34.396 Y-23.562 Z0.870 F4800.000 A1031.875 (d: 0.4085)
G1 X34.396 Y-23.562 Z0.870 F4800.000 A1034.531 (d: 68.792)
G1 X34.396 Y-23.154 Z0.870 F4800.000 A1034.547 (d: 0.4085)
G1 X-34.396 Y-23.154 Z0.870 F4800.000 A1037.203 (d: 68.792)
G1 X-34.396 Y-22.745 Z0.870 F4800.000 A1037.219 (d: 0.4085)
G1 X34.396 Y-22.745 Z0.870 F4800.000 A1039.875 (d: 68.792)
G1 X34.396 Y-22.337 Z0.870 F4800.000 A1039.891 (d: 0.4085)
G1 X-34.396 Y-22.337 Z0.870 F4800.000 A1042.547 (d: 68.792)
G1 X-34.396 Y-21.928 Z0.870 F4800.000 A1042.563 (d: 0.4085)
G1 X34.396 Y-21.928 Z0.870 F4800.000 A1045.219 (d: 68.792)
G1 X34.396 Y-21.520 Z0.870 F4800.000 A1045.235 (d: 0.4085)
G1 X-34.396 Y-21.520 Z0.870 F4800.000 A1047.891 (d: 68.792)
G1 X-34.396 Y-21.111 Z0.870 F4800.000 A1047.907 (d: 0.4085)
G1 X34.396 Y-21.111 Z0.870 F4800.000 A1050.563 (d: 68.792)
G1 X34.396 Y-20.703 Z0.870 F4800.000 A1050.579 (d: 0.4085)
G1 X-34.396 Y-20.703 Z0.870 F4800.000 A1053.236 (d: 68.792)
G1 X-34.396 Y-20.294 Z0.870 F4800.000 A1053.251 (d: 0.4085)
G1 X34.396 Y-20.294 Z0.870 F4800.000 A1055.908 (d: 68.792)
G1 X34.396 Y-19.886 Z0.870 F4800.000 A1055.923 (d: 0.4085)
G1 X-34.396 Y-19.886 Z0.870 F4800.000 A1058.580 (d: 68.792)
G1 X-34.396 Y-19.477 Z0.870 F4800.000 A1058.595 (d: 0.4085)
G1 X34.396 Y-19.477 Z0.870 F4800.000 A1061.252 (d: 68.792)
G1 X34.396 Y-19.069 Z0.870 F4800.000 A1061.268 (d: 0.4085)
G1 X-34.396 Y-19.069 Z0.870 F4800.000 A1063.924 (d: 68.792)
G1 X-34.396 Y-18.660 Z0.870 F4800.000 A1063.940 (d: 0.4085)
G1 X34.396 Y-18.660 Z0.870 F4800.000 A1066.596 (d: 68.792)
G1 X34.396 Y-18.252 Z0.870 F4800.000 A1066.612 (d: 0.4085)
G1 X-34.396 Y-18.252 Z0.870 F4800.000 A1069.268 (d: 68.792)
G1 X-34.396 Y-17.843 Z0.870 F4800.000 A1069.284 (d: 0.4085)
G1 X34.396 Y-17.843 Z0.870 F4800.000 A1071.940 (d: 68.792)
G1 X34.396 Y-17.434 Z0.870 F4800.000 A1071.956 (d: 0.4085)
G1 X-34.396 Y-17.434 Z0.870 F4800.000 A1074.612 (d: 68.792)
G1 X-34.396 Y-17.026 Z0.870 F4800.000 A1074.628 (d: 0.4085)
G1 X34.396 Y-17.026 Z0.870 F4800.000 A1077.284 (d: 68.792)
G1 X34.396 Y-16.617 Z0.870 F4800.000 A1077.300 (d: 0.4085)
G1 X-34.396 Y-16.617 Z0.870 F4800.000 A1079.956 (d: 68.792)
G1 X-34.396 Y-16.209 Z0.870 F4800.000 A1079.972 (d: 0.4085)
G1 X34.396 Y-16.209 Z0.870 F4800.000 A1082.628 (d: 68.792)
G1 X34.396 Y-15.801 Z0.870 F4800.000 A1082.644 (d: 0.4085)
G1 X-34.396 Y-15.801 Z0.870 F4800.000 A1085.301 (d: 68.792)
G1 X-34.396 Y-15.392 Z0.870 F4800.000 A1085.316 (d: 0.4085)
G1 X34.396 Y-15.392 Z0.870 F4800.000 A1087.973 (d: 68.792)
G1 X34.396 Y-14.984 Z0.870 F4800.000 A1087.988 (d: 0.4085)
G1 X-34.396 Y-14.984 Z0.870 F4800.000 A1090.645 (d: 68.792)
G1 X-34.396 Y-14.575 Z0.870 F4800.000 A1090.660 (d: 0.4085)
G1 X34.396 Y-14.575 Z0.870 F4800.000 A1093.317 (d: 68.792)
G1 X34.396 Y-14.167 Z0.870 F4800.000 A1093.333 (d: 0.4085)
G1 X-34.396 Y-14.167 Z0.870 F4800.000 A1095.989 (d: 68.792)
G1 X-34.396 Y-13.758 Z0.870 F4800.000 A1096.005 (d: 0.4085)
G1 X34.396 Y-13.758 Z0.870 F4800.000 A1098.661 (d: 68.792)
G1 X34.396 Y-13.350 Z0.870 F4800.000 A1098.677 (d: 0.4085)
G1 X-34.396 Y-13.350 Z0.870 F4800.000 A1101.333 (d: 68.792)
G1 X-34.396 Y-12.941 Z0.870 F4800.000 A1101.349 (d: 0.4085)
G1 X34.396 Y-12.941 Z0.870 F4800.000 A1104.005 (d: 68.792)
G1 X34.396 Y-12.533 Z0.870 F4800.000 A1104.021 (d: 0.4085)
G1 X-34.396 Y-12.533 Z0.870 F4800.000 A1106.677 (d: 68.792)
G1 X-34.396 Y-12.124 Z0.870 F4800.000 A1106.693 (d: 0.4085)
G1 X34.396 Y-12.124 Z0.870 F4800.000 A1109.349 (d: 68.792)
G1 X34.396 Y-11.716 Z0.870 F4800.000 A1109.365 (d: 0.4085)
G1 X-34.396 Y-11.716 Z0.870 F4800.000 A1112.021 (d: 68.792)
G1 X-34.396 Y-11.307 Z0.870 F4800.000 A1112.037 (d: 0.4085)
G1 X34.396 Y-11.307 Z0.870 F4800.000 A1114.693 (d: 68.792)
G1 X34.396 Y-10.899 Z0.870 F4800.000 A1114.709 (d: 0.4085)
G1 X-34.396 Y-10.899 Z0.870 F4800.000 A1117.366 (d: 68.792)
G1 X-34.396 Y-10.490 Z0.870 F4800.000 A1117.381 (d: 0.4085)
G1 X34.396 Y-10.490 Z0.870 F4800.000 A1120.038 (d: 68.792)
G1 X34.396 Y-10.082 Z0.870 F4800.000 A1120.053 (d: 0.4085)
G1 X-34.396 Y-10.082 Z0.870 F4800.000 A1122.710 (d: 68.792)
G1 X-34.396 Y-9.673 Z0.870 F4800.000 A1122.726 (d: 0.4085)
G1 X34.396 Y-9.673 Z0.870 F4800.000 A1125.382 (d: 68.792)
G1 X34.396 Y-9.265 Z0.870 F4800.000 A1125.398 (d: 0.4085)
G1 X-34.396 Y-9.265 Z0.870 F4800.000 A1128.054 (d: 68.792)
G1 X-34.396 Y-8.856 Z0.870 F4800.000 A1128.070 (d: 0.4085)
G1 X34.396 Y-8.856 Z0.870 F4800.000 A1130.726 (d: 68.792)
G1 X34.396 Y-8.448 Z0.870 F4800.000 A1130.742 (d: 0.4085)
G1 X-34.396 Y-8.448 Z0.870 F4800.000 A1133.398 (d: 68.792)
G1 X-34.396 Y-8.039 Z0.870 F4800.000 A1133.414 (d: 0.4085)
G1 X34.396 Y-8.039 Z0.870 F4800.000 A1136.070 (d: 68.792)
G1 X34.396 Y-7.631 Z0.870 F4800.000 A1136.086 (d: 0.4085)
G1 X-34.396 Y-7.631 Z0.870 F4800.000 A1138.742 (d: 68.792)
G1 X-34.396 Y-7.222 Z0.870 F4800.000 A1138.758 (d: 0.4085)
G1 X34.396 Y-7.222 Z0.870 F4800.000 A1141.414 (d: 68.792)
G1 X34.396 Y-6.814 Z0.870 F4800.000 A1141.430 (d: 0.4085)
G1 X-34.396 Y-6.814 Z0.870 F4800.000 A1144.086 (d: 68.792)
G1 X-34.396 Y-6.405 Z0.870 F4800.000 A1144.102 (d: 0.4085)
G1 X34.396 Y-6.405 Z0.870 F4800.000 A1146.759 (d: 68.792)
G1 X34.396 Y-5.997 Z0.870 F4800.000 A1146.774 (d: 0.4085)
G1 X-34.396 Y-5.997 Z0.870 F4800.000 A1149.431 (d: 68.792)
G1 X-34.396 Y-5.588 Z0.870 F4800.000 A1149.446 (d: 0.4085)
G1 X34.396 Y-5.588 Z0.870 F4800.000 A1152.103 (d: 68.792)
G1 X34.396 Y-5.180 Z0.870 F4800.000 A1152.118 (d: 0.4085)
G1 X-34.396 Y-5.180 Z0.870 F4800.000 A1154.775 (d: 68.792)
G1 X-34.396 Y-4.771 Z0.870 F4800.000 A1154.791 (d: 0.4085)
G1 X34.396 Y-4.771 Z0.870 F4800.000 A1157.447 (d: 68.792)
G1 X34.396 Y-4.363 Z0.870 F4800.000 A1157.463 (d: 0.4085)
G1 X-34.396 Y-4.363 Z0.870 F4800.000 A1160.119 (d: 68.792)
G1 X-34.396 Y-3.954 Z0.870 F4800.000 A1160.135 (d: 0.4085)
G1 X34.396 Y-3.954 Z0.870 F4800.000 A1162.791 (d: 68.792)
G1 X34.396 Y-3.546 Z0.870 F4800.000 A1162.807 (d: 0.4085)
G1 X-34.396 Y-3.546 Z0.870 F4800.000 A1165.463 (d: 68.792)
G1 X-34.396 Y-3.137 Z0.870 F4800.000 A1165.479 (d: 0.4085)
G1 X34.396 Y-3.137 Z0.870 F4800.000 A1168.135 (d: 68.792)
G1 X34.396 Y-2.729 Z0.870 F4800.000 A1168.151 (d: 0.4085)
G1 X-34.396 Y-2.729 Z0.870 F4800.000 A1170.807 (d: 68.792)
G1 X-34.396 Y-2.320 Z0.870 F4800.000 A1170.823 (d: 0.4085)
G1 X34.396 Y-2.320 Z0.870 F4800.000 A1173.479 (d: 68.792)
G1 X34.396 Y-1.912 Z0.870 F4800.000 A1173.495 (d: 0.4085)
G1 X-34.396 Y-1.912 Z0.870 F4800.000 A1176.151 (d: 68.792)
G1 X-34.396 Y-1.503 Z0.870 F4800.000 A1176.167 (d: 0.4085)
G1 X34.396 Y-1.503 Z0.870 F4800.000 A1178.824 (d: 68.792)
G1 X34.396 Y-1.095 Z0.870 F4800.000 A1178.839 (d: 0.4085)
G1 X-34.396 Y-1.095 Z0.870 F4800.000 A1181.496 (d: 68.792)
G1 X-34.396 Y-0.686 Z0.870 F4800.000 A1181.511 (d: 0.4085)
G1 X34.396 Y-0.686 Z0.870 F4800.000 A1184.168 (d: 68.792)
G1 X34.396 Y-0.278 Z0.870 F4800.000 A1184.183 (d: 0.4085)
G1 X-34.396 Y-0.278 Z0.870 F4800.000 A1186.840 (d: 68.792)
G1 X-34.396 Y0.131 Z0.870 F4800.000 A1186.856 (d: 0.4085)
G1 X34.396 Y0.131 Z0.870 F4800.000 A1189.512 (d: 68.792)
G1 X34.396 Y0.539 Z0.870 F4800.000 A1189.528 (d: 0.4085)
G1 X-34.396 Y0.539 Z0.870 F4800.000 A1192.184 (d: 68.792)
G1 X-34.396 Y0.948 Z0.870 F4800.000 A1192.200 (d: 0.4085)
G1 X34.396 Y0.948 Z0.870 F4800.000 A1194.856 (d: 68.792)
G1 X34.396 Y1.356 Z0.870 F4800.000 A1194.872 (d: 0.4085)
G1 X-34.396 Y1.356 Z0.870 F4800.000 A1197.528 (d: 68.792)
G1 X-34.396 Y1.765 Z0.870 F4800.000 A1197.544 (d: 0.4085)
G1 X34.396 Y1.765 Z0.870 F4800.000 A1200.200 (d: 68.792)
G1 X34.396 Y2.173 Z0.870 F4800.000 A1200.216 (d: 0.4085)
G1 X-34.396 Y2.173 Z0.870 F4800.000 A1202.872 (d: 68.792)
G1 X-34.396 Y2.582 Z0.870 F4800.000 A1202.888 (d: 0.4085)
G1 X34.396 Y2.582 Z0.870 F4800.000 A1205.544 (d: 68.792)
G1 X34.396 Y2.990 Z0.870 F4800.000 A1205.560 (d: 0.4085)
G1 X-34.396 Y2.990 Z0.870 F4800.000 A1208.216 (d: 68.792)
G1 X-34.396 Y3.399 Z0.870 F4800.000 A1208.232 (d: 0.4085)
G1 X34.396 Y3.399 Z0.870 F4800.000 A1210.889 (d: 68.792)
G1 X34.396 Y3.807 Z0.870 F4800.000 A1210.904 (d: 0.4085)
G1 X-34.396 Y3.807 Z0.870 F4800.000 A1213.561 (d: 68.792)
G1 X-34.396 Y4.216 Z0.870 F4800.000 A1213.576 (d: 0.4085)
G1 X34.396 Y4.216 Z0.870 F4800.000 A1216.233 (d: 68.792)
G1 X34.396 Y4.624 Z0.870 F4800.000 A1216.249 (d: 0.4085)
G1 X-34.396 Y4.624 Z0.870 F4800.000 A1218.905 (d: 68.792)
G1 X-34.396 Y5.033 Z0.870 F4800.000 A1218.921 (d: 0.4085)
G1 X34.396 Y5.033 Z0.870 F4800.000 A1221.577 (d: 68.792)
G1 X34.396 Y5.441 Z0.870 F4800.000 A1221.593 (d: 0.4085)
G1 X-34.396 Y5.441 Z0.870 F4800.000 A1224.249 (d: 68.792)
G1 X-34.396 Y5.850 Z0.870 F4800.000 A1224.265 (d: 0.4085)
G1 X34.396 Y5.850 Z0.870 F4800.000 A1226.921 (d: 68.792)
G1 X34.396 Y6.258 Z0.870 F4800.000 A1226.937 (d: 0.4085)
G1 X-34.396 Y6.258 Z0.870 F4800.000 A1229.593 (d: 68.792)
G1 X-34.396 Y6.667 Z0.870 F4800.000 A1229.609 (d: 0.4085)
G1 X34.396 Y6.667 Z0.870 F4800.000 A1232.265 (d: 68.792)
G1 X34.396 Y7.075 Z0.870 F4800.000 A1232.281 (d: 0.4085)
G1 X-34.396 Y7.075 Z0.870 F4800.000 A1234.937 (d: 68.792)
G1 X-34.396 Y7.484 Z0.870 F4800.000 A1234.953 (d: 0.4085)
G1 X34.396 Y7.484 Z0.870 F4800.000 A1237.609 (d: 68.792)
G1 X34.396 Y7.892 Z0.870 F4800.000 A1237.625 (d: 0.4085)
G1 X-34.396 Y7.892 Z0.870 F4800.000 A1240.282 (d: 68.792)
G1 X-34.396 Y8.301 Z0.870 F4800.000 A1240.297 (d: 0.4085)
G1 X34.396 Y8.301 Z0.870 F4800.000 A1242.954 (d: 68.792)
G1 X34.396 Y8.709 Z0.870 F4800.000 A1242.969 (d: 0.4085)
G1 X-34.396 Y8.709 Z0.870 F4800.000 A1245.626 (d: 68.792)
G1 X-34.396 Y9.118 Z0.870 F4800.000 A1245.641 (d: 0.4085)
G1 X34.396 Y9.118 Z0.870 F4800.000 A1248.298 (d: 68.792)
G1 X34.396 Y9.526 Z0.870 F4800.000 A1248.314 (d: 0.4085)
G1 X-34.396 Y9.526 Z0.870 F4800.000 A1250.970 (d: 68.792)
G1 X-34.396 Y9.935 Z0.870 F4800.000 A1250.986 (d: 0.4085)
G1 X34.396 Y9.935 Z0.870 F4800.000 A1253.642 (d: 68.792)
G1 X34.396 Y10.343 Z0.870 F4800.000 A1253.658 (d: 0.4085)
G1 X-34.396 Y10.343 Z0.870 F4800.000 A1256.314 (d: 68.792)
G1 X-34.396 Y10.752 Z0.870 F4800.000 A1256.330 (d: 0.4085)
G1 X34.396 Y10.752 Z0.870 F4800.000 A1258.986 (d: 68.792)
G1 X34.396 Y11.160 Z0.870 F4800.000 A1259.002 (d: 0.4085)
G1 X-34.396 Y11.160 Z0.870 F4800.000 A1261.658 (d: 68.792)
G1 X-34.396 Y11.569 Z0.870 F4800.000 A1261.674 (d: 0.4085)
G1 X34.396 Y11.569 Z0.870 F4800.000 A1264.330 (d: 68.792)
G1 X34.396 Y11.977 Z0.870 F4800.000 A1264.346 (d: 0.4085)
G1 X-34.396 Y11.977 Z0.870 F4800.000 A1267.002 (d: 68.792)
G1 X-34.396 Y12.386 Z0.870 F4800.000 A1267.018 (d: 0.4085)
G1 X34.396 Y12.386 Z0.870 F4800.000 A1269.674 (d: 68.792)
G1 X34.396 Y12.794 Z0.870 F4800.000 A1269.690 (d: 0.4085)
G1 X-34.396 Y12.794 Z0.870 F4800.000 A1272.347 (d: 68.792)
G1 X-34.396 Y13.203 Z0.870 F4800.000 A1272.362 (d: 0.4085)
G1 X34.396 Y13.203 Z0.870 F4800.000 A1275.019 (d: 68.792)
G1 X34.396 Y13.611 Z0.870 F4800.000 A1275.034 (d: 0.4085)
G1 X-34.396 Y13.611 Z0.870 F4800.000 A1277.691 (d: 68.792)
G1 X-34.396 Y14.020 Z0.870 F4800.000 A1277.706 (d: 0.4085)
G1 X34.396 Y14.020 Z0.870 F4800.000 A1280.363 (d: 68.792)
G1 X34.396 Y14.428 Z0.870 F4800.000 A1280.379 (d: 0.4085)
G1 X-34.396 Y14.428 Z0.870 F4800.000 A1283.035 (d: 68.792)
G1 X-34.396 Y14.837 Z0.870 F4800.000 A1283.051 (d: 0.4085)
G1 X34.396 Y14.837 Z0.870 F4800.000 A1285.707 (d: 68.792)
G1 X34.396 Y15.245 Z0.870 F4800.000 A1285.723 (d: 0.4085)
G1 X-34.396 Y15.245 Z0.870 F4800.000 A1288.379 (d: 68.792)
G1 X-34.396 Y15.654 Z0.870 F4800.000 A1288.395 (d: 0.4085)
G1 X34.396 Y15.654 Z0.870 F4800.000 A1291.051 (d: 68.792)
G1 X34.396 Y16.062 Z0.870 F4800.000 A1291.067 (d: 0.4085)
G1 X-34.396 Y16.062 Z0.870 F4800.000 A1293.723 (d: 68.792)
G1 X-34.396 Y16.471 Z0.870 F4800.000 A1293.739 (d: 0.4085)
G1 X34.396 Y16.471 Z0.870 F4800.000 A1296.395 (d: 68.792)
G1 X34.396 Y16.879 Z0.870 F4800.000 A1296.411 (d: 0.4085)
G1 X-34.396 Y16.879 Z0.870 F4800.000 A1299.067 (d: 68.792)
G1 X-34.396 Y17.288 Z0.870 F4800.000 A1299.083 (d: 0.4085)
G1 X34.396 Y17.288 Z0.870 F4800.000 A1301.739 (d: 68.792)
G1 X34.396 Y17.696 Z0.870 F4800.000 A1301.755 (d: 0.4085)
G1 X-34.396 Y17.696 Z0.870 F4800.000 A1304.412 (d: 68.792)
G1 X-34.396 Y18.105 Z0.870 F4800.000 A1304.427 (d: 0.4085)
G1 X34.396 Y18.105 Z0.870 F4800.000 A1307.084 (d: 68.792)
G1 X34.396 Y18.513 Z0.870 F4800.000 A1307.099 (d: 0.4085)
G1 X-34.396 Y18.513 Z0.870 F4800.000 A1309.756 (d: 68.792)
G1 X-34.396 Y18.922 Z0.870 F4800.000 A1309.772 (d: 0.4085)
G1 X34.396 Y18.922 Z0.870 F4800.000 A1312.428 (d: 68.792)
G1 X34.396 Y19.330 Z0.870 F4800.000 A1312.444 (d: 0.4085)
G1 X-34.396 Y19.330 Z0.870 F4800.000 A1315.100 (d: 68.792)
G1 X-34.396 Y19.739 Z0.870 F4800.000 A1315.116 (d: 0.4085)
G1 X34.396 Y19.739 Z0.870 F4800.000 A1317.772 (d: 68.792)
G1 X34.396 Y20.147 Z0.870 F4800.000 A1317.788 (d: 0.4085)
G1 X-34.396 Y20.147 Z0.870 F4800.000 A1320.444 (d: 68.792)
G1 X-34.396 Y20.556 Z0.870 F4800.000 A1320.460 (d: 0.4085)
G1 X34.396 Y20.556 Z0.870 F4800.000 A1323.116 (d: 68.792)
G1 X34.396 Y20.964 Z0.870 F4800.000 A1323.132 (d: 0.4085)
G1 X-34.396 Y20.964 Z0.870 F4800.000 A1325.788 (d: 68.792)
G1 X-34.396 Y21.373 Z0.870 F4800.000 A1325.804 (d: 0.4085)
G1 X34.396 Y21.373 Z0.870 F4800.000 A1328.460 (d: 68.792)
G1 X34.396 Y21.781 Z0.870 F4800.000 A1328.476 (d: 0.4085)
G1 X-34.396 Y21.781 Z0.870 F4800.000 A1331.132 (d: 68.792)
G1 X-34.396 Y22.190 Z0.870 F4800.000 A1331.148 (d: 0.4085)
G1 X34.396 Y22.190 Z0.870 F4800.000 A1333.805 (d: 68.792)
G1 X34.396 Y22.598 Z0.870 F4800.000 A1333.820 (d: 0.4085)
G1 X-34.396 Y22.598 Z0.870 F4800.000 A1336.477 (d: 68.792)
G1 X-34.396 Y23.007 Z0.870 F4800.000 A1336.492 (d: 0.4085)
G1 X34.396 Y23.007 Z0.870 F4800.000 A1339.149 (d: 68.792)
G1 X34.396 Y23.415 Z0.870 F4800.000 A1339.164 (d: 0.4085)
G1 X-34.396 Y23.415 Z0.870 F4800.000 A1341.821 (d: 68.792)
G1 X-34.396 Y23.824 Z0.870 F4800.000 A1341.837 (d: 0.4085)
G1 X34.396 Y23.824 Z0.870 F4800.000 A1344.493 (d: 68.792)
G1 X34.396 Y24.232 Z0.870 F4800.000 A1344.509 (d: 0.4085)
G1 X-34.396 Y24.232 Z0.870 F4800.000 A1347.165 (d: 68.792)
G1 X-34.396 Y24.641 Z0.870 F4800.000 A1347.181 (d: 0.4085)
G1 X34.396 Y24.641 Z0.870 F4800.000 A1349.837 (d: 68.792)
G1 X34.396 Y25.049 Z0.870 F4800.000 A1349.853 (d: 0.4085)
G1 X-34.396 Y25.049 Z0.870 F4800.000 A1352.509 (d: 68.792)
G1 X-34.396 Y25.458 Z0.870 F4800.000 A1352.525 (d: 0.4085)
G1 X34.396 Y25.458 Z0.870 F4800.000 A1355.181 (d: 68.792)
G1 X34.396 Y25.866 Z0.870 F4800.000 A1355.197 (d: 0.4085)
G1 X-34.396 Y25.866 Z0.870 F4800.000 A1357.853 (d: 68.792)
G1 X-34.396 Y26.275 Z0.870 F4800.000 A1357.869 (d: 0.4085)
G1 X34.396 Y26.275 Z0.870 F4800.000 A1360.525 (d: 68.792)
G1 X34.396 Y26.683 Z0.870 F4800.000 A1360.541 (d: 0.4085)
G1 X-34.396 Y26.683 Z0.870 F4800.000 A1363.197 (d: 68.792)
G1 X-34.396 Y27.092 Z0.870 F4800.000 A1363.213 (d: 0.4085)
G1 X34.396 Y27.092 Z0.870 F4800.000 A1365.870 (d: 68.792)
G1 X34.396 Y27.500 Z0.870 F4800.000 A1365.885 (d: 0.4085)
G1 X-34.396 Y27.500 Z0.870 F4800.000 A1368.542 (d: 68.792)
G1 X-34.396 Y27.909 Z0.870 F4800.000 A1368.557 (d: 0.4085)
G1 X34.396 Y27.909 Z0.870 F4800.000 A1371.214 (d: 68.792)
G1 X34.396 Y28.317 Z0.870 F4800.000 A1371.229 (d: 0.4085)
G1 X-34.396 Y28.317 Z0.870 F4800.000 A1373.886 (d: 68.792)
G1 X-34.396 Y28.726 Z0.870 F4800.000 A1373.902 (d: 0.4085)
G1 X34.396 Y28.726 Z0.870 F4800.000 A1376.558 (d: 68.792)
G1 X34.396 Y29.134 Z0.870 F4800.000 A1376.574 (d: 0.4085)
G1 X-34.396 Y29.134 Z0.870 F4800.000 A1379.230 (d: 68.792)
G1 X-34.396 Y29.543 Z0.870 F4800.000 A1379.246 (d: 0.4085)
G1 X34.396 Y29.543 Z0.870 F4800.000 A1381.902 (d: 68.792)
G1 X34.396 Y29.951 Z0.870 F4800.000 A1381.918 (d: 0.4085)
G1 X-34.396 Y29.951 Z0.870 F4800.000 A1384.574 (d: 68.792)
G1 X-34.396 Y30.360 Z0.870 F4800.000 A1384.590 (d: 0.4085)
G1 X34.396 Y30.360 Z0.870 F4800.000 A1387.246 (d: 68.792)
G1 X34.396 Y30.768 Z0.870 F4800.000 A1387.262 (d: 0.4085)
G1 X-34.396 Y30.768 Z0.870 F4800.000 A1389.918 (d: 68.792)
G1 X-34.396 Y31.177 Z0.870 F4800.000 A1389.934 (d: 0.4085)
G1 X34.396 Y31.177 Z0.870 F4800.000 A1392.590 (d: 68.792)
G1 X34.396 Y31.585 Z0.870 F4800.000 A1392.606 (d: 0.4085)
G1 X-34.396 Y31.585 Z0.870 F4800.000 A1395.262 (d: 68.792)
G1 X-34.396 Y31.994 Z0.870 F4800.000 A1395.278 (d: 0.4085)
G1 X34.396 Y31.994 Z0.870 F4800.000 A1397.935 (d: 68.792)
G1 X34.396 Y32.402 Z0.870 F4800.000 A1397.950 (d: 0.4085)
G1 X-34.396 Y32.402 Z0.870 F4800.000 A1400.607 (d: 68.792)
G1 X-34.396 Y32.811 Z0.870 F4800.000 A1400.622 (d: 0.4085)
G1 X34.396 Y32.811 Z0.870 F4800.000 A1403.279 (d: 68.792)
G1 X34.396 Y33.219 Z0.870 F4800.000 A1403.295 (d: 0.4085)
G1 X-34.396 Y33.219 Z0.870 F4800.000 A1405.951 (d: 68.792)
G1 X-34.396 Y33.628 Z0.870 F4800.000 A1405.967 (d: 0.4085)
G1 X34.396 Y33.628 Z0.870 F4800.000 A1408.623 (d: 68.792)
G1 X34.396 Y34.036 Z0.870 F4800.000 A1408.639 (d: 0.4085)
G1 X-34.396 Y34.036 Z0.870 F4800.000 A1411.295 (d: 68.792)
G1 F798.000 A1410.795 (snort)

(Slice 3, 1 Extruder)
G1 Z1.140 F500.000 (move Z)
(insets: 2)
G1 X34.784 Y34.784 Z1.140 F6000.000 (move into position)
G1 F798.000 A1411.295 (squirt)
G1 X34.784 Y-34.784 Z1.140 F4800.000 A1413.981 (d: 69.568)
G1 X-34.784 Y-34.784 Z1.140 F4800.000 A1416.668 (d: 69.568)
G1 X-34.784 Y34.784 Z1.140 F4800.000 A1419.354 (d: 69.568)
G1 X34.784 Y34.784 Z1.140 F4800.000 A1422.040 (d: 69.568)
G1 F798.000 A1421.540 (snort)

G1 X34.396 Y34.396 Z1.140 F6000.000 (move into position)
G1 F798.000 A1422.040 (squirt)
G1 X34.396 Y-34.396 Z1.140 F4800.000 A1424.696 (d: 68.792)
G1 X-34.396 Y-34.396 Z1.140 F4800.000 A1427.353 (d: 68.792)
G1 X-34.396 Y34.396 Z1.140 F4800.000 A1430.009 (d: 68.792)
G1 X34.396 Y34.396 Z1.140 F4800.000 A1432.665 (d: 68.792)
G1 F798.000 A1432.165 (snort)

(infills: 1)
G1 X-33.775 Y-34.396 Z1.140 F6000.000 (move into position)
G1 F798.000 A1432.665 (squirt)
G1 X-33.775 Y34.396 Z1.140 F4800.000 A1435.322 (d: 68.792)
G1 X-34.183 Y34.396 Z1.140 F4800.000 A1435.337 (d: 0.4085)
G1 X-34.183 Y-34.396 Z1.140 F4800.000 A1437.994 (d: 68.792)
G1 X-33.366 Y-34.396 Z1.140 F4800.000 A1438.025 (d: 0.817)
G1 X-33.366 Y34.396 Z1.140 F4800.000 A1440.682 (d: 68.792)
G1 X-32.958 Y34.396 Z1.140 F4800.000 A1440.697 (d: 0.4085)
G1 X-32.958 Y-34.396 Z1.140 F4800.000 A1443.354 (d: 68.792)
G1 X-32.549 Y-34.396 Z1.140 F4800.000 A1443.369 (d: 0.4085)
G1 X-32.549 Y34.396 Z1.140 F4800.000 A1446.026 (d: 68.792)
G1 X-32.141 Y34.396 Z1.140 F4800.000 A1446.042 (d: 0.4085)
G1 X-32.141 Y-34.396 Z1.140 F4800.000 A1448.698 (d: 68.792)
G1 X-31.732 Y-34.396 Z1.140 F4800.000 A1448.714 (d: 0.4085)
G1 X-31.732 Y34.396 Z1.140 F4800.000 A1451.370 (d: 68.792)
G1 X-31.323 Y34.396 Z1.140 F4800.000 A1451.386 (d: 0.4085)
G1 X-31.323 Y-34.396 Z1.140 F4800.000 A1454.042 (d: 68.792)
G1 X-30.915 Y-34.396 Z1.140 F4800.000 A1454.058 (d: 0.4085)
G1 X-30.915 Y34.396 Z1.140 F4800.000 A1456.714 (d: 68.792)
G1 X-30.506 Y34.396 Z1.140 F4800.000 A1456.730 (d: 0.4085)
G1 X-30.506 Y-34.396 Z1.140 F4800.000 A1459.386 (d: 68.792)
G1 X-30.098 Y-34.396 Z1.140 F4800.000 A1459.402 (d: 0.4085)
G1 X-30.098 Y34.396 Z1.140 F4800.000 A1462.058 (d: 68.792)
G1 X-29.689 Y34.396 Z1.140 F4800.000 A1462.074 (d: 0.4085)
G1 X-29.689 Y-34.396 Z1.140 F4800.000 A1464.730 (d: 68.792)
G1 X-29.281 Y-34.396 Z1.140 F4800.000 A1464.746 (d: 0.4085)
G1 X-29.281 Y34.396 Z1.140 F4800.000 A1467.402 (d: 68.792)
G1 X-28.872 Y34.396 Z1.140 F4800.000 A1467.418 (d: 0.4085)
G1 X-28.872 Y-34.396 Z1.140 F4800.000 A1470.075 (d: 68.792)
G1 X-28.464 Y-34.396 Z1.140 F4800.000 A1470.090 (d: 0.4085)
G1 X-28.464 Y34.396 Z1.140 F4800.000 A1472.747 (d: 68.792)
G1 X-28.056 Y34.396 Z1.140 F4800.000 A1472.762 (d: 0.4085)
G1 X-28.056 Y-34.396 Z1.140 F4800.000 A1475.419 (d: 68.792)
G1 X-27.647 Y-34.396 Z1.140 F4800.000 A1475.435 (d: 0.4085)
G1 X-27.647 Y34.396 Z1.140 F4800.000 A1478.091 (d: 68.792)
G1 X-27.239 Y34.396 Z1.140 F4800.000 A1478.107 (d: 0.4085)
G1 X-27.239 Y-34.396 Z1.140 F4800.000 A1480.763 (d: 68.792)
G1 X-26.830 Y-34.396 Z1.140 F4800.000 A1480.779 (d: 0.4085)
G1 X-26.830 Y34.396 Z1.140 F4800.000 A1483.435 (d: 68.792)
G1 X-26.422 Y34.396 Z1.140 F4800.000 A1483.451 (d: 0.4085)
G1 X-26.422 Y-34.396 Z1.140 F4800.000 A1486.107 (d: 68.792)
G1 X-26.013 Y-34.396 Z1.140 F4800.000 A1486.123 (d: 0.4085)
G1 X-26.013 Y34.396 Z1.140 F4800.000 A1488.779 (d: 68.792)
G1 X-25.605 Y34.396 Z1.140 F4800.000 A1488.795 (d: 0.4085)
G1 X-25.605 Y-34.396 Z1.140 F4800.000 A1491.451 (d: 68.792)
G1 X-25.196 Y-34.396 Z1.140 F4800.000 A1491.467 (d: 0.4085)
G1 X-25.196 Y34.396 Z1.140 F4800.000 A1494.123 (d: 68.792)
G1 X-24.788 Y34.396 Z1.140 F4800.000 A1494.139 (d: 0.4085)
G1 X-24.788 Y-34.396 Z1.140 F4800.000 A1496.795 (d: 68.792)
G1 X-24.379 Y-34.396 Z1.140 F4800.000 A1496.811 (d: 0.4085)
G1 X-24.379 Y34.396 Z1.140 F4800.000 A1499.468 (d: 68.792)
G1 X-23.971 Y34.396 Z1.140 F4800.000 A1499.483 (d: 0.4085)
G1 X-23.971 Y-34.396 Z1.140 F4800.000 A1502.140 (d: 68.792)
G1 X-23.562 Y-34.396 Z1.140 F4800.000 A1502.155 (d: 0.4085)
G1 X-23.562 Y34.396 Z1.140 F4800.000 A1504.812 (d: 68.792)
G1 X-23.154 Y34.396 Z1.140 F4800.000 A1504.827 (d: 0.4085)
G1 X-23.154 Y-34.396 Z1.140 F4800.000 A1507.484 (d: 68.792)
G1 X-22.745 Y-34.396 Z1.140 F4800.000 A1507.500 (d: 0.4085)
G1 X-22.745 Y34.396 Z1.140 F4800.000 A1510.156 (d: 68.792)
G1 X-22.337 Y34.396 Z1.140 F4800.000 A1510.172 (d: 0.4085)
G1 X-22.337 Y-34.396 Z1.140 F4800.000 A1512.828 (d: 68.792)
G1 X-21.928 Y-34.396 Z1.140 F4800.000 A1512.844 (d: 0.4085)
G1 X-21.928 Y34.396 Z1.140 F4800.000 A1515.500 (d: 68.792)
G1 X-21.520 Y34.396 Z1.140 F4800.000 A1515.516 (d: 0.4085)
G1 X-21.520 Y-34.396 Z1.140 F4800.000 A1518.172 (d: 68.792)
G1 X-21.111 Y-34.396 Z1.140 F4800.000 A1518.188 (d: 0.4085)
G1 X-21.111 Y34.396 Z1.140 F4800.000 A1520.844 (d: 68.792)
G1 X-20.703 Y34.396 Z1.140 F4800.000 A1520.860 (d: 0.4085)
G1 X-20.703 Y-34.396 Z1.140 F4800.000 A1523.516 (d: 68.792)
G1 X-20.294 Y-34.396 Z1.140 F4800.000 A1523.532 (d: 0.4085)
G1 X-20.294 Y34.396 Z1.140 F4800.000 A1526.188 (d: 68.792)
G1 X-19.886 Y34.396 Z1.140 F4800.000 A1526.204 (d: 0.4085)
G1 X-19.886 Y-34.396 Z1.140 F4800.000 A1528.860 (d: 68.792)
G1 X-19.477 Y-34.396 Z1.140 F4800.000 A1528.876 (d: 0.4085)
G1 X-19.477 Y34.396 Z1.140 F4800.000 A1531.533 (d: 68.792)
G1 X-19.069 Y34.396 Z1.140 F4800.000 A1531.548 (d: 0.4085)
G1 X-19.069 Y-34.396 Z1.140 F4800.000 A1534.205 (d: 68.792)
G1 X-18.660 Y-34.396 Z1.140 F4800.000 A1534.220 (d: 0.4085)
G1 X-18.660 Y34.396 Z1.140 F4800.000 A1536.877 (d: 68.792)
G1 X-18.252 Y34.396 Z1.140 F4800.000 A1536.892 (d: 0.4085)
G1 X-18.252 Y-34.396 Z1.140 F4800.000 A1539.549 (d: 68.792)
G1 X-17.843 Y-34.396 Z1.140 F4800.000 A1539.565 (d: 0.4085)
G1 X-17.843 Y34.396 Z1.140 F4800.000 A1542.221 (d: 68.792)
G1 X-17.434 Y34.396 Z1.140 F4800.000 A1542.237 (d: 0.4085)
G1 X-17.434 Y-34.396 Z1.140 F4800.000 A1544.893 (d: 68.792)
G1 X-17.026 Y-34.396 Z1.140 F4800.000 A1544.909 (d: 0.4085)
G1 X-17.026 Y34.396 Z1.140 F4800.000 A1547.565 (d: 68.792)
G1 X-16.617 Y34.396 Z1.140 F4800.000 A1547.581 (d: 0.4085)
G1 X-16.617 Y-34.396 Z1.140 F4800.000 A1550.237 (d: 68.792)
G1 X-16.209 Y-34.396 Z1.140 F4800.000 A1550.253 (d: 0.4085)
G1 X-16.209 Y34.396 Z1.140 F4800.000 A1552.909 (d: 68.792)
G1 X-15.801 Y34.396 Z1.140 F4800.000 A1552.925 (d: 0.4085)
G1 X-15.801 Y-34.396 Z1.140 F4800.000 A1555.581 (d: 68.792)
G1 X-15.392 Y-34.396 Z1.140 F4800.000 A1555.597 (d: 0.4085)
G1 X-15.392 Y34.396 Z1.140 F4800.000 A1558.253 (d: 68.792)
G1 X-14.984 Y34.396 Z1.140 F4800.000 A1558.269 (d: 0.4085)
G1 X-14.984 Y-34.396 Z1.140 F4800.000 A1560.925 (d: 68.792)
G1 X-14.575 Y-34.396 Z1.140 F4800.000 A1560.941 (d: 0.4085)
G1 X-14.575 Y34.396 Z1.140 F4800.000 A1563.598 (d: 68.792)
G1 X-14.167 Y34.396 Z1.140 F4800.000 A1563.613 (d: 0.4085)
G1 X-14.167 Y-34.396 Z1.140 F4800.000 A1566.270 (d: 68.792)
G1 X-13.758 Y-34.396 Z1.140 F4800.000 A1566.285 (d: 0.4085)
G1 X-13.758 Y34.396 Z1.140 F4800.000 A1568.942 (d: 68.792)
G1 X-13.350 Y34.396 Z1.140 F4800.000 A1568.958 (d: 0.4085)
G1 X-13.350 Y-34.396 Z1.140 F4800.000 A1571.614 (d: 68.792)
G1 X-12.941 Y-34.396 Z1.140 F4800.000 A1571.630 (d: 0.4085)
G1 X-12.941 Y34.396 Z1.140 F4800.000 A1574.286 (d: 68.792)
G1 X-12.533 Y34.396 Z1.140 F4800.000 A1574.302 (d: 0.4085)
G1 X-12.533 Y-34.396 Z1.140 F4800.000 A1576.958 (d: 68.792)
G1 X-12.124 Y-34.396 Z1.140 F4800.000 A1576.974 (d: 0.4085)
G1 X-12.124 Y34.396 Z1.140 F4800.000 A1579.630 (d: 68.792)
G1 X-11.716 Y34.396 Z1.140 F4800.000 A1579.646 (d: 0.4085)
G1 X-11.716 Y-34.396 Z1.140 F4800.000 A1582.302 (d: 68.792)
G1 X-11.307 Y-34.396 Z1.140 F4800.000 A1582.318 (d: 0.4085)
G1 X-11.307 Y34.396 Z1.140 F4800.000 A1584.974 (d: 68.792)
G1 X-10.899 Y34.396 Z1.140 F4800.000 A1584.990 (d: 0.4085)
G1 X-10.899 Y-34.396 Z1.140 F4800.000 A1587.646 (d: 68.792)
G1 X-10.490 Y-34.396 Z1.140 F4800.000 A1587.662 (d: 0.4085)
G1 X-10.490 Y34.396 Z1.140 F4800.000 A1590.318 (d: 68.792)
G1 X-10.082 Y34.396 Z1.140 F4800.000 A1590.334 (d: 0.4085)
G1 X-10.082 Y-34.396 Z1.140 F4800.000 A1592.991 (d: 68.792)
G1 X-9.673 Y-34.396 Z1.140 F4800.000 A1593.006 (d: 0.4085)
G1 X-9.673 Y34.396 Z1.140 F4800.000 A1595.663 (d: 68.792)
G1 X-9.265 Y34.396 Z1.140 F4800.000 A1595.678 (d: 0.4085)
G1 X-9.265 Y-34.396 Z1.140 F4800.000 A1598.335 (d: 68.792)
G1 X-8.856 Y-34.396 Z1.140 F4800.000 A1598.350 (d: 0.4085)
G1 X-8.856 Y34.396 Z1.140 F4800.000 A1601.007 (d: 68.792)
G1 X-8.448 Y34.396 Z1.140 F4800.000 A1601.023 (d: 0.4085)
G1 X-8.448 Y-34.396 Z1.140 F4800.000 A1603.679 (d: 68.792)
G1 X-8.039 Y-34.396 Z1.140 F4800.000 A1603.695 (d: 0.4085)
G1 X-8.039 Y34.396 Z1.140 F4800.000 A1606.351 (d: 68.792)
G1 X-7.631 Y34.396 Z1.140 F4800.000 A1606.367 (d: 0.4085)
G1 X-7.631 Y-34.396 Z1.140 F4800.000 A1609.023 (d: 68.792)
G1 X-7.222 Y-34.396 Z1.140 F4800.000 A1609.039 (d: 0.4085)
G1 X-7.222 Y34.396 Z1.140 F4800.000 A1611.695 (d: 68.792)
G1 X-6.814 Y34.396 Z1.140 F4800.000 A1611.711 (d: 0.4085)
G1 X-6.814 Y-34.396 Z1.140 F4800.000 A1614.367 (d: 68.792)
G1 X-6.405 Y-34.396 Z1.140 F4800.000 A1614.383 (d: 0.4085)
G1 X-6.405 Y34.396 Z1.140 F4800.000 A1617.039 (d: 68.792)
G1 X-5.997 Y34.396 Z1.140 F4800.000 A1617.055 (d: 0.4085)
G1 X-5.997 Y-34.396 Z1.140 F4800.000 A1619.711 (d: 68.792)
G1 X-5.588 Y-34.396 Z1.140 F4800.000 A1619.727 (d: 0.4085)
G1 X-5.588 Y34.396 Z1.140 F4800.000 A1622.383 (d: 68.792)
G1 X-5.180 Y34.396 Z1.140 F4800.000 A1622.399 (d: 0.4085)
G1 X-5.180 Y-34.396 Z1.140 F4800.000 A1625.056 (d: 68.792)
G1 X-4.771 Y-34.396 Z1.140 F4800.000 A1625.071 (d: 0.4085)
G1 X-4.771 Y34.396 Z1.140 F4800.000 A1627.728 (d: 68.792)
G1 X-4.363 Y34.396 Z1.140 F4800.000 A1627.743 (d: 0.4085)
G1 X-4.363 Y-34.396 Z1.140 F4800.000 A1630.400 (d: 68.792)
G1 X-3.954 Y-34.396 Z1.140 F4800.000 A1630.415 (d: 0.4085)
G1 X-3.954 Y34.396 Z1.140 F4800.000 A1633.072 (d: 68.792)
G1 X-3.546 Y34.396 Z1.140 F4800.000 A1633.088 (d: 0.4085)
G1 X-3.546 Y-34.396 Z1.140 F4800.000 A1635.744 (d: 68.792)
G1 X-3.137 Y-34.396 Z1.140 F4800.000 A1635.760 (d: 0.4085)
G1 X-3.137 Y34.396 Z1.140 F4800.000 A1638.416 (d: 68.792)
G1 X-2.729 Y34.396 Z1.140 F4800.000 A1638.432 (d: 0.4085)
G1 X-2.729 Y-34.396 Z1.140 F4800.000 A1641.088 (d: 68.792)
G1 X-2.320 Y-34.396 Z1.140 F4800.000 A1641.104 (d: 0.4085)
G1 X-2.320 Y34.396 Z1.140 F4800.000 A1643.760 (d: 68.792)
G1 X-1.912 Y34.396 Z1.140 F4800.000 A1643.776 (d: 0.4085)
G1 X-1.912 Y-34.396 Z1.140 F4800.000 A1646.432 (d: 68.792)
G1 X-1.503 Y-34.396 Z1.140 F4800.000 A1646.448 (d: 0.4085)
G1 X-1.503 Y34.396 Z1.140 F4800.000 A1649.104 (d: 68.792)
G1 X-1.095 Y34.396 Z1.140 F4800.000 A1649.120 (d: 0.4085)
G1 X-1.095 Y-34.396 Z1.140 F4800.000 A1651.776 (d: 68.792)
G1 X-0.686 Y-34.396 Z1.140 F4800.000 A1651.792 (d: 0.4085)
G1 X-0.686 Y34.396 Z1.140 F4800.000 A1654.448 (d: 68.792)
G1 X-0.278 Y34.396 Z1.140 F4800.000 A1654.464 (d: 0.4085)
G1 X-0.278 Y-34.396 Z1.140 F4800.000 A1657.121 (d: 68.792)
G1 X0.131 Y-34.396 Z1.140 F4800.000 A1657.136 (d: 0.4085)
G1 X0.131 Y34.396 Z1.140 F4800.000 A1659.793 (d: 68.792)
G1 X0.539 Y34.396 Z1.140 F4800.000 A1659.808 (d: 0.4085)
G1 X0.539 Y-34.396 Z1.140 F4800.000 A1662.465 (d: 68.792)
G1 X0.948 Y-34.396 Z1.140 F4800.000 A1662.481 (d: 0.4085)
G1 X0.948 Y34.396 Z1.140 F4800.000 A1665.137 (d: 68.792)
G1 X1.356 Y34.396 Z1.140 F4800.000 A1665.153 (d: 0.4085)
G1 X1.356 Y-34.396 Z1.140 F4800.000 A1667.809 (d: 68.792)
G1 X1.765 Y-34.396 Z1.140 F4800.000 A1667.825 (d: 0.4085)
G1 X1.765 Y34.396 Z1.140 F4800.000 A1670.481 (d: 68.792)
G1 X2.173 Y34.396 Z1.140 F4800.000 A1670.497 (d: 0.4085)
G1 X2.173 Y-34.396 Z1.140 F4800.000 A1673.153 (d: 68.792)
G1 X2.582 Y-34.396 Z1.140 F4800.000 A1673.169 (d: 0.4085)
G1 X2.582 Y34.396 Z1.140 F4800.000 A1675.825 (d: 68.792)
G1 X2.990 Y34.396 Z1.140 F4800.000 A1675.841 (d: 0.4085)
G1 X2.990 Y-34.396 Z1.140 F4800.000 A1678.497 (d: 68.792)
G1 X3.399 Y-34.396 Z1.140 F4800.000 A1678.513 (d: 0.4085)
G1 X3.399 Y34.396 Z1.140 F4800.000 A1681.169 (d: 68.792)
G1 X3.807 Y34.396 Z1.140 F4800.000 A1681.185 (d: 0.4085)
G1 X3.807 Y-34.396 Z1.140 F4800.000 A1683.841 (d: 68.792)
G1 X4.216 Y-34.396 Z1.140 F4800.000 A1683.857 (d: 0.4085)
G1 X4.216 Y34.396 Z1.140 F4800.000 A1686.514 (d: 68.792)
G1 X4.624 Y34.396 Z1.140 F4800.000 A1686.529 (d: 0.4085)
G1 X4.624 Y-34.396 Z1.140 F4800.000 A1689.186 (d: 68.792)
G1 X5.033 Y-34.396 Z1.140 F4800.000 A1689.201 (d: 0.4085)
G1 X5.033 Y34.396 Z1.140 F4800.000 A1691.858 (d: 68.792)
G1 X5.441 Y34.396 Z1.140 F4800.000 A1691.873 (d: 0.4085)
G1 X5.441 Y-34.396 Z1.140 F4800.000 A1694.530 (d: 68.792)
G1 X5.850 Y-34.396 Z1.140 F4800.000 A1694.546 (d: 0.4085)
G1 X5.850 Y34.396 Z1.140 F4800.000 A1697.202 (d: 68.792)
G1 X6.258 Y34.396 Z1.140 F4800.000 A1697.218 (d: 0.4085)
G1 X6.258 Y-34.396 Z1.140 F4800.000 A1699.874 (d: 68.792)
G1 X6.667 Y-34.396 Z1.140 F4800.000 A1699.890 (d: 0.4085)
G1 X6.667 Y34.396 Z1.140 F4800.000 A1702.546 (d: 68.792)
G1 X7.075 Y34.396 Z1.140 F4800.000 A1702.562 (d: 0.4085)
G1 X7.075 Y-34.396 Z1.140 F4800.000 A1705.218 (d: 68.792)
G1 X7.484 Y-34.396 Z1.140 F4800.000 A1705.234 (d: 0.4085)
G1 X7.484 Y34.396 Z1.140 F4800.000 A1707.890 (d: 68.792)
G1 X7.892 Y34.396 Z1.140 F4800.000 A1707.906 (d: 0.4085)
G1 X7.892 Y-34.396 Z1.140 F4800.000 A1710.562 (d: 68.792)
G1 X8.301 Y-34.396 Z1.140 F4800.000 A1710.578 (d: 0.4085)
G1 X8.301 Y34.396 Z1.140 F4800.000 A1713.234 (d: 68.792)
G1 X8.709 Y34.396 Z1.140 F4800.000 A1713.250 (d: 0.4085)
G1 X8.709 Y-34.396 Z1.140 F4800.000 A1715.906 (d: 68.792)
G1 X9.118 Y-34.396 Z1.140 F4800.000 A1715.922 (d: 0.4085)
G1 X9.118 Y34.396 Z1.140 F4800.000 A1718.579 (d: 68.792)
G1 X9.526 Y34.396 Z1.140 F4800.000 A1718.594 (d: 0.4085)
G1 X9.526 Y-34.396 Z1.140 F4800.000 A1721.251 (d: 68.792)
G1 X9.935 Y-34.396 Z1.140 F4800.000 A1721.266 (d: 0.4085)
G1 X9.935 Y34.396 Z1.140 F4800.000 A1723.923 (d: 68.792)
G1 X10.343 Y34.396 Z1.140 F4800.000 A1723.938 (d: 0.4085)
G1 X10.343 Y-34.396 Z1.140 F4800.000 A1726.595 (d: 68.792)
G1 X10.752 Y-34.396 Z1.140 F4800.000 A1726.611 (d: 0.4085)
G1 X10.752 Y34.396 Z1.140 F4800.000 A1729.267 (d: 68.792)
G1 X11.160 Y34.396 Z1.140 F4800.000 A1729.283 (d: 0.4085)
G1 X11.160 Y-34.396 Z1.140 F4800.000 A1731.939 (d: 68.792)
G1 X11.569 Y-34.396 Z1.140 F4800.000 A1731.955 (d: 0.4085)
G1 X11.569 Y34.396 Z1.140 F4800.000 A1734.611 (d: 68.792)
G1 X11.977 Y34.396 Z1.140 F4800.000 A1734.627 (d: 0.4085)
G1 X11.977 Y-34.396 Z1.140 F4800.000 A1737.283 (d: 68.792)
G1 X12.386 Y-34.396 Z1.140 F4800.000 A1737.299 (d: 0.4085)
G1 X12.386 Y34.396 Z1.140 F4800.000 A1739.955 (d: 68.792)
G1 X12.794 Y34.396 Z1.140 F4800.000 A1739.971 (d: 0.4085)
G1 X12.794 Y-34.396 Z1.140 F4800.000 A1742.627 (d: 68.792)
G1 X13.203 Y-34.396 Z1.140 F4800.000 A1742.643 (d: 0.4085)
G1 X13.203 Y34.396 Z1.140 F4800.000 A1745.299 (d: 68.792)
G1 X13.611 Y34.396 Z1.140 F4800.000 A1745.315 (d: 0.4085)
G1 X13.611 Y-34.396 Z1.140 F4800.000 A1747.971 (d: 68.792)
G1 X14.020 Y-34.396 Z1.140 F4800.000 A1747.987 (d: 0.4085)
G1 X14.020 Y34.396 Z1.140 F4800.000 A1750.644 (d: 68.792)
G1 X14.428 Y34.396 Z1.140 F4800.000 A1750.659 (d: 0.4085)
G1 X14.428 Y-34.396 Z1.140 F4800.000 A1753.316 (d: 68.792)
G1 X14.837 Y-34.396 Z1.140 F4800.000 A1753.331 (d: 0.4085)
G1 X14.837 Y34.396 Z1.140 F4800.000 A1755.988 (d: 68.792)
G1 X15.245 Y34.396 Z1.140 F4800.000 A1756.004 (d: 0.4085)
G1 X15.245 Y-34.396 Z1.140 F4800.000 A1758.660 (d: 68.792)
G1 X15.654 Y-34.396 Z1.140 F4800.000 A1758.676 (d: 0.4085)
G1 X15.654 Y34.396 Z1.140 F4800.000 A1761.332 (d: 68.792)
G1 X16.062 Y34.396 Z1.140 F4800.000 A1761.348 (d: 0.4085)
G1 X16.062 Y-34.396 Z1.140 F4800.000 A1764.004 (d: 68.792)
G1 X16.471 Y-34.396 Z1.140 F4800.000 A1764.020 (d: 0.4085)
G1 X16.471 Y34.396 Z1.140 F4800.000 A1766.676 (d: 68.792)
G1 X16.879 Y34.396 Z1.140 F4800.000 A1766.692 (d: 0.4085)
G1 X16.879 Y-34.396 Z1.140 F4800.000 A1769.348 (d: 68.792)
G1 X17.288 Y-34.396 Z1.140 F4800.000 A1769.364 (d: 0.4085)
G1 X17.288 Y34.396 Z1.140 F4800.000 A1772.020 (d: 68.792)
G1 X17.696 Y34.396 Z1.140 F4800.000 A1772.036 (d: 0.4085)
G1 X17.696 Y-34.396 Z1.140 F4800.000 A1774.692 (d: 68.792)
G1 X18.105 Y-34.396 Z1.140 F4800.000 A1774.708 (d: 0.4085)
G1 X18.105 Y34.396 Z1.140 F4800.000 A1777.364 (d: 68.792)
G1 X18.513 Y34.396 Z1.140 F4800.000 A1777.380 (d: 0.4085)
G1 X18.513 Y-34.396 Z1.140 F4800.000 A1780.037 (d: 68.792)
G1 X18.922 Y-34.396 Z1.140 F4800.000 A1780.052 (d: 0.4085)
G1 X18.922 Y34.396 Z1.140 F4800.000 A1782.709 (d: 68.792)
G1 X19.330 Y34.396 Z1.140 F4800.000 A1782.724 (d: 0.4085)
G1 X19.330 Y-34.396 Z1.140 F4800.000 A1785.381 (d: 68.792)
G1 X19.739 Y-34.396 Z1.140 F4800.000 A1785.396 (d: 0.4085)
G1 X19.739 Y34.396 Z1.140 F4800.000 A1788.053 (d: 68.792)
G1 X20.147 Y34.396 Z1.140 F4800.000 A1788.069 (d: 0.4085)
G1 X20.147 Y-34.396 Z1.140 F4800.000 A1790.725 (d: 68.792)
G1 X20.556 Y-34.396 Z1.140 F4800.000 A1790.741 (d: 0.4085)
G1 X20.556 Y34.396 Z1.140 F4800.000 A1793.397 (d: 68.792)
G1 X20.964 Y34.396 Z1.140 F4800.000 A1793.413 (d: 0.4085)
G1 X20.964 Y-34.396 Z1.140 F4800.000 A1796.069 (d: 68.792)
G1 X21.373 Y-34.396 Z1.140 F4800.000 A1796.085 (d: 0.4085)
G1 X21.373 Y34.396 Z1.140 F4800.000 A1798.741 (d: 68.792)
G1 X21.781 Y34.396 Z1.140 F4800.000 A1798.757 (d: 0.4085)
G1 X21.781 Y-34.396 Z1.140 F4800.000 A1801.413 (d: 68.792)
G1 X22.190 Y-34.396 Z1.140 F4800.000 A1801.429 (d: 0.4085)
G1 X22.190 Y34.396 Z1.140 F4800.000 A1804.085 (d: 68.792)
G1 X22.598 Y34.396 Z1.140 F4800.000 A1804.101 (d: 0.4085)
G1 X22.598 Y-34.396 Z1.140 F4800.000 A1806.757 (d: 68.792)
G1 X23.007 Y-34.396 Z1.140 F4800.000 A1806.773 (d: 0.4085)
G1 X23.007 Y34.396 Z1.140 F4800.000 A1809.429 (d: 68.792)
G1 X23.415 Y34.396 Z1.140 F4800.000 A1809.445 (d: 0.4085)
G1 X23.415 Y-34.396 Z1.140 F4800.000 A1812.102 (d: 68.792)
G1 X23.824 Y-34.396 Z1.140 F4800.000 A1812.117 (d: 0.4085)
G1 X23.824 Y34.396 Z1.140 F4800.000 A1814.774 (d: 68.792)
G1 X24.232 Y34.396 Z1.140 F4800.000 A1814.789 (d: 0.4085)
G1 X24.232 Y-34.396 Z1.140 F4800.000 A1817.446 (d: 68.792)
G1 X24.641 Y-34.396 Z1.140 F4800.000 A1817.462 (d: 0.4085)
G1 X24.641 Y34.396 Z1.140 F4800.000 A1820.118 (d: 68.792)
G1 X25.049 Y34.396 Z1.140 F4800.000 A1820.134 (d: 0.4085)
G1 X25.049 Y-34.396 Z1.140 F4800.000 A1822.790 (d: 68.792)
G1 X25.458 Y-34.396 Z1.140 F4800.000 A1822.806 (d: 0.4085)
G1 X25.458 Y34.396 Z1.140 F4800.000 A1825.462 (d: 68.792)
G1 X25.866 Y34.396 Z1.140 F4800.000 A1825.478 (d: 0.4085)
G1 X25.866 Y-34.396 Z1.140 F4800.000 A1828.134 (d: 68.792)
G1 X26.275 Y-34.396 Z1.140 F4800.000 A1828.150 (d: 0.4085)
G1 X26.275 Y34.396 Z1.140 F4800.000 A1830.806 (d: 68.792)
G1 X26.683 Y34.396 Z1.140 F4800.000 A1830.822 (d: 0.4085)
G1 X26.683 Y-34.396 Z1.140 F4800.000 A1833.478 (d: 68.792)
G1 X27.092 Y-34.396 Z1.140 F4800.000 A1833.494 (d: 0.4085)
G1 X27.092 Y34.396 Z1.140 F4800.000 A1836.150 (d: 68.792)
G1 X27.500 Y34.396 Z1.140 F4800.000 A1836.166 (d: 0.4085)
G1 X27.500 Y-34.396 Z1.140 F4800.000 A1838.822 (d: 68.792)
G1 X27.909 Y-34.396 Z1.140 F4800.000 A1838.838 (d: 0.4085)
G1 X27.909 Y34.396 Z1.140 F4800.000 A1841.495 (d: 68.792)
G1 X28.317 Y34.396 Z1.140 F4800.000 A1841.510 (d: 0.4085)
G1 X28.317 Y-34.396 Z1.140 F4800.000 A1844.167 (d: 68.792)
G1 X28.726 Y-34.396 Z1.140 F4800.000 A1844.182 (d: 0.4085)
G1 X28.726 Y34.396 Z1.140 F4800.000 A1846.839 (d: 68.792)
G1 X29.134 Y34.396 Z1.140 F4800.000 A1846.854 (d: 0.4085)
G1 X29.134 Y-34.396 Z1.140 F4800.000 A1849.511 (d: 68.792)
G1 X29.543 Y-34.396 Z1.140 F4800.000 A1849.527 (d: 0.4085)
G1 X29.543 Y34.396 Z1.140 F4800.000 A1852.183 (d: 68.792)
G1 X29.951 Y34.396 Z1.140 F4800.000 A1852.199 (d: 0.4085)
G1 X29.951 Y-34.396 Z1.140 F4800.000 A1854.855 (d: 68.792)
G1 X30.360 Y-34.396 Z1.140 F4800.000 A1854.871 (d: 0.4085)
G1 X30.360 Y34.396 Z1.140 F4800.000 A1857.527 (d: 68.792)
G1 X30.768 Y34.396 Z1.140 F4800.000 A1857.543 (d: 0.4085)
G1 X30.768 Y-34.396 Z1.140 F4800.000 A1860.199 (d: 68.792)
G1 X31.177 Y-34.396 Z1.140 F4800.000 A1860.215 (d: 0.4085)
G1 X31.177 Y34.396 Z1.140 F4800.000 A1862.871 (d: 68.792)
G1 X31.585 Y34.396 Z1.140 F4800.000 A1862.887 (d: 0.4085)
G1 X31.585 Y-34.396 Z1.140 F4800.000 A1865.543 (d: 68.792)
G1 X31.994 Y-34.396 Z1.140 F4800.000 A1865.559 (d: 0.4085)
G1 X31.994 Y34.396 Z1.140 F4800.000 A1868.215 (d: 68.792)
G1 X32.402 Y34.396 Z1.140 F4800.000 A1868.231 (d: 0.4085)
G1 X32.402 Y-34.396 Z1.140 F4800.000 A1870.887 (d: 68.792)
G1 X32.811 Y-34.396 Z1.140 F4800.000 A1870.903 (d: 0.4085)
G1 X32.811 Y34.396 Z1.140 F4800.000 A1873.560 (d: 68.792)
G1 X33.219 Y34.396 Z1.140 F4800.000 A1873.575 (d: 0.4085)
G1 X33.219 Y-34.396 Z1.140 F4800.000 A1876.232 (d: 68.792)
G1 X33.628 Y-34.396 Z1.140 F4800.000 A1876.247 (d: 0.4085)
G1 X33.628 Y34.396 Z1.140 F4800.000 A1878.904 (d: 68.792)
G1 X34.036 Y34.396 Z1.140 F4800.000 A1878.919 (d: 0.4085)
G1 X34.036 Y-34.396 Z1.140 F4800.000 A1881.576 (d: 68.792)
G1 F798.000 A1881.076 (snort)

(Slice 4, 1 Extruder)
G1 Z1.410 F500.000 (move Z)
(insets: 2)
G1 X34.784 Y34.784 Z1.410 F6000.000 (move into position)
G1 F798.000 A1881.576 (squirt)
G1 X34.784 Y-34.784 Z1.410 F4800.000 A1884.262 (d: 69.568)
G1 X-34.784 Y-34.784 Z1.410 F4800.000 A1886.948 (d: 69.568)
G1 X-34.784 Y34.784 Z1.410 F4800.000 A1889.635 (d: 69.568)
G1 X34.784 Y34.784 Z1.410 F4800.000 A1892.321 (d: 69.568)
G1 F798.000 A1891.821 (snort)

G1 X34.396 Y34.396 Z1.410 F6000.000 (move into position)
G1 F798.000 A1892.321 (squirt)
G1 X34.396 Y-34.396 Z1.410 F4800.000 A1894.977 (d: 68.792)
G1 X-34.396 Y-34.396 Z1.410 F4800.000 A1897.634 (d: 68.792)
G1 X-34.396 Y34.396 Z1.410 F4800.000 A1900.290 (d: 68.792)
G1 X34.396 Y34.396 Z1.410 F4800.000 A1902.946 (d: 68.792)
G1 F798.000 A1902.446 (snort)

(infills: 2)
G1 X-34.396 Y-33.775 Z1.410 F6000.000 (move into position)
G1 F798.000 A1902.946 (squirt)
G1 X34.396 Y-33.775 Z1.410 F4800.000 A1905.602 (d: 68.792)
G1 F798.000 A1905.102 (snort)

G1 X34.396 Y-34.183 Z1.410 F6000.000 (move into position)
G1 F798.000 A1905.602 (squirt)
G1 X-34.396 Y-34.183 Z1.410 F4800.000 A1908.259 (d: 68.792)
G1 X-34.396 Y-33.366 Z1.410 F4800.000 A1908.290 (d: 0.817)
G1 X34.396 Y-33.366 Z1.410 F4800.000 A1910.947 (d: 68.792)
G1 X34.396 Y-32.958 Z1.410 F4800.000 A1910.962 (d: 0.4085)
G1 X-34.396 Y-32.958 Z1.410 F4800.000 A1913.619 (d: 68.792)
G1 X-34.396 Y-32.549 Z1.410 F4800.000 A1913.634 (d: 0.4085)
G1 X34.396 Y-32.549 Z1.410 F4800.000 A1916.291 (d: 68.792)
G1 X34.396 Y-32.141 Z1.410 F4800.000 A1916.307 (d: 0.4085)
G1 X-34.396 Y-32.141 Z1.410 F4800.000 A1918.963 (d: 68.792)
G1 X-34.396 Y-31.732 Z1.410 F4800.000 A1918.979 (d: 0.4085)
G1 X34.396 Y-31.732 Z1.410 F4800.000 A1921.635 (d: 68.792)
G1 X34.396 Y-31.323 Z1.410 F4800.000 A1921.651 (d: 0.4085)
G1 X-34.396 Y-31.323 Z1.410 F4800.000 A1924.307 (d: 68.792)
G1 X-34.396 Y-30.915 Z1.410 F4800.000 A1924.323 (d: 0.4085)
G1 X34.396 Y-30.915 Z1.410 F4800.000 A1926.979 (d: 68.792)
G1 X34.396 Y-30.506 Z1.410 F4800.000 A1926.995 (d: 0.4085)
G1 X-34.396 Y-30.506 Z1.410 F4800.000 A1929.651 (d: 68.792)
G1 X-34.396 Y-30.098 Z1.410 F4800.000 A1929.667 (d: 0.4085)
G1 X34.396 Y-30.098 Z1.410 F4800.000 A1932.323 (d: 68.792)
G1 X34.396 Y-29.689 Z1.410 F4800.000 A1932.339 (d: 0.4085)
G1 X-34.396 Y-29.689 Z1.410 F4800.000 A1934.995 (d: 68.792)
G1 X-34.396 Y-29.281 Z1.410 F4800.000 A1935.011 (d: 0.4085)
G1 X34.396 Y-29.281 Z1.410 F4800.000 A1937.667 (d: 68.792)
G1 X34.396 Y-28.872 Z1.410 F4800.000 A1937.683 (d: 0.4085)
G1 X-34.396 Y-28.872 Z1.410 F4800.000 A1940.340 (d: 68.792)
G1 X-34.396 Y-28.464 Z1.410 F4800.000 A1940.355 (d: 0.4085)
G1 X34.396 Y-28.464 Z1.410 F4800.000 A1943.012 (d: 68.792)
G1 X34.396 Y-28.056 Z1.410 F4800.000 A1943.027 (d: 0.4085)
G1 X-34.396 Y-28.056 Z1.410 F4800.000 A1945.684 (d: 68.792)
G1 X-34.396 Y-27.647 Z1.410 F4800.000 A1945.700 (d: 0.4085)
G1 X34.396 Y-27.647 Z1.410 F4800.000 A1948.356 (d: 68.792)
G1 X34.396 Y-27.239 Z1.410 F4800.000 A1948.372 (d: 0.4085)
G1 X-34.396 Y-27.239 Z1.410 F4800.000 A1951.028 (d: 68.792)
G1 X-34.396 Y-26.830 Z1.410 F4800.000 A1951.044 (d: 0.4085)
G1 X34.396 Y-26.830 Z1.410 F4800.000 A1953.700 (d: 68.792)
G1 X34.396 Y-26.422 Z1.410 F4800.000 A1953.716 (d: 0.4085)
G1 X-34.396 Y-26.422 Z1.410 F4800.000 A1956.372 (d: 68.792)
G1 X-34.396 Y-26.013 Z1.410 F4800.000 A1956.388 (d: 0.4085)
G1 X34.396 Y-26.013 Z1.410 F4800.000 A1959.044 (d: 68.792)
G1 X34.396 Y-25.605 Z1.410 F4800.000 A1959.060 (d: 0.4085)
G1 X-34.396 Y-25.605 Z1.410 F4800.000 A1961.716 (d: 68.792)
G1 X-34.396 Y-25.196 Z1.410 F4800.000 A1961.732 (d: 0.4085)
G1 X34.396 Y-25.196 Z1.410 F4800.000 A1964.388 (d: 68.792)
G1 X34.396 Y-24.788 Z1.410 F4800.000 A1964.404 (d: 0.4085)
G1 X-34.396 Y-24.788 Z1.410 F4800.000 A1967.060 (d: 68.792)
G1 X-34.396 Y-24.379 Z1.410 F4800.000 A1967.076 (d: 0.4085)
G1 X34.396 Y-24.379 Z1.410 F4800.000 A1969.733 (d: 68.792)
G1 X34.396 Y-23.971 Z1.410 F4800.000 A1969.748 (d: 0.4085)
G1 X-34.396 Y-23.971 Z1.410 F4800.000 A1972.405 (d: 68.792)
G1 X-34.396 Y-23.562 Z1.410 F4800.000 A1972.420 (d: 0.4085)
G1 X34.396 Y-23.562 Z1.410 F4800.000 A1975.077 (d: 68.792)
G1 X34.396 Y-23.154 Z1.410 F4800.000 A1975.092 (d: 0.4085)
G1 X-34.396 Y-23.154 Z1.410 F4800.000 A1977.749 (d: 68.792)
G1 X-34.396 Y-22.745 Z1.410 F4800.000 A1977.765 (d: 0.4085)
G1 X34.396 Y-22.745 Z1.410 F4800.000 A1980.421 (d: 68.792)
G1 X34.396 Y-22.337 Z1.410 F4800.000 A1980.437 (d: 0.4085)
G1 X-34.396 Y-22.337 Z1.410 F4800.000 A1983.093 (d: 68.792)
G1 X-34.396 Y-21.928 Z1.410 F4800.000 A1983.109 (d: 0.4085)
G1 X34.396 Y-21.928 Z1.410 F4800.000 A1985.765 (d: 68.792)
G1 X34.396 Y-21.520 Z1.410 F4800.000 A1985.781 (d: 0.4085)
G1 X-34.396 Y-21.520 Z1.410 F4800.000 A1988.437 (d: 68.792)
G1 X-34.396 Y-21.111 Z1.410 F4800.000 A1988.453 (d: 0.4085)
G1 X34.396 Y-21.111 Z1.410 F4800.000 A1991.109 (d: 68.792)
G1 X34.396 Y-20.703 Z1.410 F4800.000 A1991.125 (d: 0.4085)
G1 X-34.396 Y-20.703 Z1.410 F4800.000 A1993.781 (d: 68.792)
G1 X-34.396 Y-20.294 Z1.410 F4800.000 A1993.797 (d: 0.4085)
G1 X34.396 Y-20.294 Z1.410 F4800.000 A1996.453 (d: 68.792)
G1 X34.396 Y-19.886 Z1.410 F4800.000 A1996.469 (d: 0.4085)
G1 X-34.396 Y-19.886 Z1.410 F4800.000 A1999.125 (d: 68.792)
G1 X-34.396 Y-19.477 Z1.410 F4800.000 A1999.141 (d: 0.4085)
G1 X34.396 Y-19.477 Z1.410 F4800.000 A2001.798 (d: 68.792)
G1 X34.396 Y-19.069 Z1.410 F4800.000 A2001.813 (d: 0.4085)
G1 X-34.396 Y-19.069 Z1.410 F4800.000 A2004.470 (d: 68.792)
G1 X-34.396 Y-18.660 Z1.410 F4800.000 A2004.485 (d: 0.4085)
G1 X34.396 Y-18.660 Z1.410 F4800.000 A2007.142 (d: 68.792)
G1 X34.396 Y-18.252 Z1.410 F4800.000 A2007.157 (d: 0.4085)
G1 X-34.396 Y-18.252 Z1.410 F4800.000 A2009.814 (d: 68.792)
G1 X-34.396 Y-17.843 Z1.410 F4800.000 A2009.830 (d: 0.4085)
G1 X34.396 Y-17.843 Z1.410 F4800.000 A2012.486 (d: 68.792)
G1 X34.396 Y-17.434 Z1.410 F4800.000 A2012.502 (d: 0.4085)
G1 X-34.396 Y-17.434 Z1.410 F4800.000 A2015.158 (d: 68.792)
G1 X-34.396 Y-17.026 Z1.410 F4800.000 A2015.174 (d: 0.4085)
G1 X34.396 Y-17.026 Z1.410 F4800.000 A2017.830 (d: 68.792)
G1 X34.396 Y-16.617 Z1.410 F4800.000 A2017.846 (d: 0.4085)
G1 X-34.396 Y-16.617 Z1.410 F4800.000 A2020.502 (d: 68.792)
G1 X-34.396 Y-16.209 Z1.410 F4800.000 A2020.518 (d: 0.4085)
G1 X34.396 Y-16.209 Z1.410 F4800.000 A2023.174 (d: 68.792)
G1 X34.396 Y-15.801 Z1.410 F4800.000 A2023.190 (d: 0.4085)
G1 X-34.396 Y-15.801 Z1.410 F4800.000 A2025.846 (d: 68.792)
G1 X-34.396 Y-15.392 Z1.410 F4800.000 A2025.862 (d: 0.4085)
G1 X34.396 Y-15.392 Z1.410 F4800.000 A2028.518 (d: 68.792)
G1 X34.396 Y-14.984 Z1.410 F4800.000 A2028.534 (d: 0.4085)
G1 X-34.396 Y-14.984 Z1.410 F4800.000 A2031.190 (d: 68.792)
G1 X-34.396 Y-14.575 Z1.410 F4800.000 A2031.206 (d: 0.4085)
G1 X34.396 Y-14.575 Z1.410 F4800.000 A2033.863 (d: 68.792)
G1 X34.396 Y-14.167 Z1.410 F4800.000 A2033.878 (d: 0.4085)
G1 X-34.396 Y-14.167 Z1.410 F4800.000 A2036.535 (d: 68.792)
G1 X-34.396 Y-13.758 Z1.410 F4800.000 A2036.550 (d: 0.4085)
G1 X34.396 Y-13.758 Z1.410 F4800.000 A2039.207 (d: 68.792)
G1 X34.396 Y-13.350 Z1.410 F4800.000 A2039.223 (d: 0.4085)
G1 X-34.396 Y-13.350 Z1.410 F4800.000 A2041.879 (d: 68.792)
G1 X-34.396 Y-12.941 Z1.410 F4800.000 A2041.895 (d: 0.4085)
G1 X34.396 Y-12.941 Z1.410 F4800.000 A2044.551 (d: 68.792)
G1 X34.396 Y-12.533 Z1.410 F4800.000 A2044.567 (d: 0.4085)
G1 X-34.396 Y-12.533 Z1.410 F4800.000 A2047.223 (d: 68.792)
G1 X-34.396 Y-12.124 Z1.410 F4800.000 A2047.239 (d: 0.4085)
G1 X34.396 Y-12.124 Z1.410 F4800.000 A2049.895 (d: 68.792)
G1 X34.396 Y-11.716 Z1.410 F4800.000 A2049.911 (d: 0.4085)
G1 X-34.396 Y-11.716 Z1.410 F4800.000 A2052.567 (d: 68.792)
G1 X-34.396 Y-11.307 Z1.410 F4800.000 A2052.583 (d: 0.4085)
G1 X34.396 Y-11.307 Z1.410 F4800.000 A2055.239 (d: 68.792)
G1 X34.396 Y-10.899 Z1.410 F4800.000 A2055.255 (d: 0.4085)
G1 X-34.396 Y-10.899 Z1.410 F4800.000 A2057.911 (d: 68.792)
G1 X-34.396 Y-10.490 Z1.410 F4800.000 A2057.927 (d: 0.4085)
G1 X34.396 Y-10.490 Z1.410 F4800.000 A2060.583 (d: 68.792)
G1 X34.396 Y-10.082 Z1.410 F4800.000 A2060.599 (d: 0.4085)
G1 X-34.396 Y-10.082 Z1.410 F4800.000 A2063.256 (d: 68.792)
G1 X-34.396 Y-9.673 Z1.410 F4800.000 A2063.271 (d: 0.4085)
G1 X34.396 Y-9.673 Z1.410 F4800.000 A2065.928 (d: 68.792)
G1 X34.396 Y-9.265 Z1.410 F4800.000 A2065.943 (d: 0.4085)
G1 X-34.396 Y-9.265 Z1.410 F4800.000 A2068.600 (d: 68.792)
G1 X-34.396 Y-8.856 Z1.410 F4800.000 A2068.615 (d: 0.4085)
G1 X34.396 Y-8.856 Z1.410 F4800.000 A2071.272 (d: 68.792)
G1 X34.396 Y-8.448 Z1.410 F4800.000 A2071.288 (d: 0.4085)
G1 X-34.396 Y-8.448 Z1.410 F4800.000 A2073.944 (d: 68.792)
G1 X-34.396 Y-8.039 Z1.410 F4800.000 A2073.960 (d: 0.4085)
G1 X34.396 Y-8.039 Z1.410 F4800.000 A2076.616 (d: 68.792)
G1 X34.396 Y-7.631 Z1.410 F4800.000 A2076.632 (d: 0.4085)
G1 X-34.396 Y-7.631 Z1.410 F4800.000 A2079.288 (d: 68.792)
G1 X-34.396 Y-7.222 Z1.410 F4800.000 A2079.304 (d: 0.4085)
G1 X34.396 Y-7.222 Z1.410 F4800.000 A2081.960 (d: 68.792)
G1 X34.396 Y-6.814 Z1.410 F4800.000 A2081.976 (d: 0.4085)
G1 X-34.396 Y-6.814 Z1.410 F4800.000 A2084.632 (d: 68.792)
G1 X-34.396 Y-6.405 Z1.410 F4800.000 A2084.648 (d: 0.4085)
G1 X34.396 Y-6.405 Z1.410 F4800.000 A2087.304 (d: 68.792)
G1 X34.396 Y-5.997 Z1.410 F4800.000 A2087.320 (d: 0.4085)
G1 X-34.396 Y-5.997 Z1.410 F4800.000 A2089.976 (d: 68.792)
G1 X-34.396 Y-5.588 Z1.410 F4800.000 A2089.992 (d: 0.4085)
G1 X34.396 Y-5.588 Z1.410 F4800.000 A2092.648 (d: 68.792)
G1 X34.396 Y-5.180 Z1.410 F4800.000 A2092.664 (d: 0.4085)
G1 X-34.396 Y-5.180 Z1.410 F4800.000 A2095.321 (d: 68.792)
G1 X-34.396 Y-4.771 Z1.410 F4800.000 A2095.336 (d: 0.4085)
G1 X34.396 Y-4.771 Z1.410 F4800.000 A2097.993 (d: 68.792)
G1 X34.396 Y-4.363 Z1.410 F4800.000 A2098.008 (d: 0.4085)
G1 X-34.396 Y-4.363 Z1.410 F4800.000 A2100.665 (d: 68.792)
G1 X-34.396 Y-3.954 Z1.410 F4800.000 A2100.680 (d: 0.4085)
G1 X34.396 Y-3.954 Z1.410 F4800.000 A2103.337 (d: 68.792)
G1 X34.396 Y-3.546 Z1.410 F4800.000 A2103.353 (d: 0.4085)
G1 X-34.396 Y-3.546 Z1.410 F4800.000 A2106.009 (d: 68.792)
G1 X-34.396 Y-3.137 Z1.410 F4800.000 A2106.025 (d: 0.4085)
G1 X34.396 Y-3.137 Z1.410 F4800.000 A2108.681 (d: 68.792)
G1 X34.396 Y-2.729 Z1.410 F4800.000 A2108.697 (d: 0.4085)
G1 X-34.396 Y-2.729 Z1.410 F4800.000 A2111.353 (d: 68.792)
G1 X-34.396 Y-2.320 Z1.410 F4800.000 A2111.369 (d: 0.4085)
G1 X34.396 Y-2.320 Z1.410 F4800.000 A2114.025 (d: 68.792)
G1 X34.396 Y-1.912 Z1.410 F4800.000 A2114.041 (d: 0.4085)
G1 X-34.396 Y-1.912 Z1.410 F4800.000 A2116.697 (d: 68.792)
G1 X-34.396 Y-1.503 Z1.410 F4800.000 A2116.713 (d: 0.4085)
G1 X34.396 Y-1.503 Z1.410 F4800.000 A2119.369 (d: 68.792)
G1 X34.396 Y-1.095 Z1.410 F4800.000 A2119.385 (d: 0.4085)
G1 X-34.396 Y-1.095 Z1.410 F4800.000 A2122.041 (d: 68.792)
G1 X-34.396 Y-0.686 Z1.410 F4800.000 A2122.057 (d: 0.4085)
G1 X34.396 Y-0.686 Z1.410 F4800.000 A2124.713 (d: 68.792)
G1 X34.396 Y-0.278 Z1.410 F4800.000 A2124.729 (d: 0.4085)
G1 X-34.396 Y-0.278 Z1.410 F4800.000 A2127.386 (d: 68.792)
G1 X-34.396 Y0.131 Z1.410 F4800.000 A2127.401 (d: 0.4085)
G1 X34.396 Y0.131 Z1.410 F4800.000 A2130.058 (d: 68.792)
G1 X34.396 Y0.539 Z1.410 F4800.000 A2130.073 (d: 0.4085)
G1 X-34.396 Y0.539 Z1.410 F4800.000 A2132.730 (d: 68.792)
G1 X-34.396 Y0.948 Z1.410 F4800.000 A2132.746 (d: 0.4085)
G1 X34.396 Y0.948 Z1.410 F4800.000 A2135.402 (d: 68.792)
G1 X34.396 Y1.356 Z1.410 F4800.000 A2135.418 (d: 0.4085)
G1 X-34.396 Y1.356 Z1.410 F4800.000 A2138.074 (d: 68.792)
G1 X-34.396 Y1.765 Z1.410 F4800.000 A2138.090 (d: 0.4085)
G1 X34.396 Y1.765 Z1.410 F4800.000 A2140.746 (d: 68.792)
G1 X34.396 Y2.173 Z1.410 F4800.000 A2140.762 (d: 0.4085)
G1 X-34.396 Y2.173 Z1.410 F4800.000 A2143.418 (d: 68.792)
G1 X-34.396 Y2.582 Z1.410 F4800.000 A2143.434 (d: 0.4085)
G1 X34.396 Y2.582 Z1.410 F4800.000 A2146.090 (d: 68.792)
G1 X34.396 Y2.990 Z1.410 F4800.000 A2146.106 (d: 0.4085)
G1 X-34.396 Y2.990 Z1.410 F4800.000 A2148.762 (d: 68.792)
G1 X-34.396 Y3.399 Z1.410 F4800.000 A2148.778 (d: 0.4085)
G1 X34.396 Y3.399 Z1.410 F4800.000 A2151.434 (d: 68.792)
G1 X34.396 Y3.807 Z1.410 F4800.000 A2151.450 (d: 0.4085)
G1 X-34.396 Y3.807 Z1.410 F4800.000 A2154.106 (d: 68.792)
G1 X-34.396 Y4.216 Z1.410 F4800.000 A2154.122 (d: 0.4085)
G1 X34.396 Y4.216 Z1.410 F4800.000 A2156.779 (d: 68.792)
G1 X34.396 Y4.624 Z1.410 F4800.000 A2156.794 (d: 0.4085)
G1 X-34.396 Y4.624 Z1.410 F4800.000 A2159.451 (d: 68.792)
G1 X-34.396 Y5.033 Z1.410 F4800.000 A2159.466 (d: 0.4085)
G1 X34.396 Y5.033 Z1.410 F4800.000 A2162.123 (d: 68.792)
G1 X34.396 Y5.441 Z1.410 F4800.000 A2162.138 (d: 0.4085)
G1 X-34.396 Y5.441 Z1.410 F4800.000 A2164.795 (d: 68.792)
G1 X-34.396 Y5.850 Z1.410 F4800.000 A2164.811 (d: 0.4085)
G1 X34.396 Y5.850 Z1.410 F4800.000 A2167.467 (d: 68.792)
G1 X34.396 Y6.258 Z1.410 F4800.000 A2167.483 (d: 0.4085)
G1 X-34.396 Y6.258 Z1.410 F4800.000 A2170.139 (d: 68.792)
G1 X-34.396 Y6.667 Z1.410 F4800.000 A2170.155 (d: 0.4085)
G1 X34.396 Y6.667 Z1.410 F4800.000 A2172.811 (d: 68.792)
G1 X34.396 Y7.075 Z1.410 F4800.000 A2172.827 (d: 0.4085)
G1 X-34.396 Y7.075 Z1.410 F4800.000 A2175.483 (d: 68.792)
G1 X-34.396 Y7.484 Z1.410 F4800.000 A2175.499 (d: 0.4085)
G1 X34.396 Y7.484 Z1.410 F4800.000 A2178.155 (d: 68.792)
G1 X34.396 Y7.892 Z1.410 F4800.000 A2178.171 (d: 0.4085)
G1 X-34.396 Y7.892 Z1.410 F4800.000 A2180.827 (d: 68.792)
G1 X-34.396 Y8.301 Z1.410 F4800.000 A2180.843 (d: 0.4085)
G1 X34.396 Y8.301 Z1.410 F4800.000 A2183.499 (d: 68.792)
G1 X34.396 Y8.709 Z1.410 F4800.000 A2183.515 (d: 0.4085)
G1 X-34.396 Y8.709 Z1.410 F4800.000 A2186.171 (d: 68.792)
G1 X-34.396 Y9.118 Z1.410 F4800.000 A2186.187 (d: 0.4085)
G1 X34.396 Y9.118 Z1.410 F4800.000 A2188.844 (d: 68.792)
G1 X34.396 Y9.526 Z1.410 F4800.000 A2188.859 (d: 0.4085)
G1 X-34.396 Y9.526 Z1.410 F4800.000 A2191.516 (d: 68.792)
G1 X-34.396 Y9.935 Z1.410 F4800.000 A2191.531 (d: 0.4085)
G1 X34.396 Y9.935 Z1.410 F4800.000 A2194.188 (d: 68.792)
G1 X34.396 Y10.343 Z1.410 F4800.000 A2194.204 (d: 0.4085)
G1 X-34.396 Y10.343 Z1.410 F4800.000 A2196.860 (d: 68.792)
G1 X-34.396 Y10.752 Z1.410 F4800.000 A2196.876 (d: 0.4085)
G1 X34.396 Y10.752 Z1.410 F4800.000 A2199.532 (d: 68.792)
G1 X34.396 Y11.160 Z1.410 F4800.000 A2199.548 (d: 0.4085)
G1 X-34.396 Y11.160 Z1.410 F4800.000 A2202.204 (d: 68.792)
G1 X-34.396 Y11.569 Z1.410 F4800.000 A2202.220 (d: 0.4085)
G1 X34.396 Y11.569 Z1.410 F4800.000 A2204.876 (d: 68.792)
G1 X34.396 Y11.977 Z1.410 F4800.000 A2204.892 (d: 0.4085)
G1 X-34.396 Y11.977 Z1.410 F4800.000 A2207.548 (d: 68.792)
G1 X-34.396 Y12.386 Z1.410 F4800.000 A2207.564 (d: 0.4085)
G1 X34.396 Y12.386 Z1.410 F4800.000 A2210.220 (d: 68.792)
G1 X34.396 Y12.794 Z1.410 F4800.000 A2210.236 (d: 0.4085)
G1 X-34.396 Y12.794 Z1.410 F4800.000 A2212.892 (d: 68.792)
G1 X-34.396 Y13.203 Z1.410 F4800.000 A2212.908 (d: 0.4085)
G1 X34.396 Y13.203 Z1.410 F4800.000 A2215.564 (d: 68.792)
G1 X34.396 Y13.611 Z1.410 F4800.000 A2215.580 (d: 0.4085)
G1 X-34.396 Y13.611 Z1.410 F4800.000 A2218.236 (d: 68.792)
G1 X-34.396 Y14.020 Z1.410 F4800.000 A2218.252 (d: 0.4085)
G1 X34.396 Y14.020 Z1.410 F4800.000 A2220.909 (d: 68.792)
G1 X34.396 Y14.428 Z1.410 F4800.000 A2220.924 (d: 0.4085)
G1 X-34.396 Y14.428 Z1.410 F4800.000 A2223.581 (d: 68.792)
G1 X-34.396 Y14.837 Z1.410 F4800.000 A2223.596 (d: 0.4085)
G1 X34.396 Y14.837 Z1.410 F4800.000 A2226.253 (d: 68.792)
G1 X34.396 Y15.245 Z1.410 F4800.000 A2226.269 (d: 0.4085)
G1 X-34.396 Y15.245 Z1.410 F4800.000 A2228.925 (d: 68.792)
G1 X-34.396 Y15.654 Z1.410 F4800.000 A2228.941 (d: 0.4085)
G1 X34.396 Y15.654 Z1.410 F4800.000 A2231.597 (d: 68.792)
G1 X34.396 Y16.062 Z1.410 F4800.000 A2231.613 (d: 0.4085)
G1 X-34.396 Y16.062 Z1.410 F4800.000 A2234.269 (d: 68.792)
G1 X-34.396 Y16.471 Z1.410 F4800.000 A2234.285 (d: 0.4085)
G1 X34.396 Y16.471 Z1.410 F4800.000 A2236.941 (d: 68.792)
G1 X34.396 Y16.879 Z1.410 F4800.000 A2236.957 (d: 0.4085)
G1 X-34.396 Y16.879 Z1.410 F4800.000 A2239.613 (d: 68.792)
G1 X-34.396 Y17.288 Z1.410 F4800.000 A2239.629 (d: 0.4085)
G1 X34.396 Y17.288 Z1.410 F4800.000 A2242.285 (d: 68.792)
G1 X34.396 Y17.696 Z1.410 F4800.000 A2242.301 (d: 0.4085)
G1 X-34.396 Y17.696 Z1.410 F4800.000 A2244.957 (d: 68.792)
G1 X-34.396 Y18.105 Z1.410 F4800.000 A2244.973 (d: 0.4085)
G1 X34.396 Y18.105 Z1.410 F4800.000 A2247.629 (d: 68.792)
G1 X34.396 Y18.513 Z1.410 F4800.000 A2247.645 (d: 0.4085)
G1 X-34.396 Y18.513 Z1.410 F4800.000 A2250.302 (d: 68.792)
G1 X-34.396 Y18.922 Z1.410 F4800.000 A2250.317 (d: 0.4085)
G1 X34.396 Y18.922 Z1.410 F4800.000 A2252.974 (d: 68.792)
G1 X34.396 Y19.330 Z1.410 F4800.000 A2252.989 (d: 0.4085)
G1 X-34.396 Y19.330 Z1.410 F4800.000 A2255.646 (d: 68.792)
G1 X-34.396 Y19.739 Z1.410 F4800.000 A2255.661 (d: 0.4085)
G1 X34.396 Y19.739 Z1.410 F4800.000 A2258.318 (d: 68.792)
G1 X34.396 Y20.147 Z1.410 F4800.000 A2258.334 (d: 0.4085)
G1 X-34.396 Y20.147 Z1.410 F4800.000 A2260.990 (d: 68.792)
G1 X-34.396 Y20.556 Z1.410 F4800.000 A2261.006 (d: 0.4085)
G1 X34.396 Y20.556 Z1.410 F4800.000 A2263.662 (d: 68.792)
G1 X34.396 Y20.964 Z1.410 F4800.000 A2263.678 (d: 0.4085)
G1 X-34.396 Y20.964 Z1.410 F4800.000 A2266.334 (d: 68.792)
G1 X-34.396 Y21.373 Z1.410 F4800.000 A2266.350 (d: 0.4085)
G1 X34.396 Y21.373 Z1.410 F4800.000 A2269.006 (d: 68.792)
G1 X34.396 Y21.781 Z1.410 F4800.000 A2269.022 (d: 0.4085)
G1 X-34.396 Y21.781 Z1.410 F4800.000 A2271.678 (d: 68.792)
G1 X-34.396 Y22.190 Z1.410 F4800.000 A2271.694 (d: 0.4085)
G1 X34.396 Y22.190 Z1.410 F4800.000 A2274.350 (d: 68.792)
G1 X34.396 Y22.598 Z1.410 F4800.000 A2274.366 (d: 0.4085)
G1 X-34.396 Y22.598 Z1.410 F4800.000 A2277.022 (d: 68.792)
G1 X-34.396 Y23.007 Z1.410 F4800.000 A2277.038 (d: 0.4085)
G1 X34.396 Y23.007 Z1.410 F4800.000 A2279.694 (d: 68.792)
G1 X34.396 Y23.415 Z1.410 F4800.000 A2279.710 (d: 0.4085)
G1 X-34.396 Y23.415 Z1.410 F4800.000 A2282.367 (d: 68.792)
G1 X-34.396 Y23.824 Z1.410 F4800.000 A2282.382 (d: 0.4085)
G1 X34.396 Y23.824 Z1.410 F4800.000 A2285.039 (d: 68.792)
G1 X34.396 Y24.232 Z1.410 F4800.000 A2285.054 (d: 0.4085)
G1 X-34.396 Y24.232 Z1.410 F4800.000 A2287.711 (d: 68.792)
G1 X-34.396 Y24.641 Z1.410 F4800.000 A2287.727 (d: 0.4085)
G1 X34.396 Y24.641 Z1.410 F4800.000 A2290.383 (d: 68.792)
